luts/stills/general/KA_Cine_Warm.cube
TITLE "Generated by Resolve"
LUT_3D_SIZE 33
0.0597238 0.0413672 0.0191653
0.0735485 0.0419776 0.0164034
0.0875868 0.0428931 0.0139467
0.102678 0.0437018 0.0113985
0.119448 0.0438849 0.0084535
0.139147 0.0432746 0.00444038
0.163287 0.0413977 0
0.192432 0.0381476 0
0.225574 0.0338445 0
0.259098 0.0295109 0
0.291356 0.0256809 0
0.323796 0.0217594 0
0.356817 0.0177005 0
0.390524 0.0134737 0
0.42417 0.00939956 0
0.457984 0.00538643 0
0.490898 0.00164797 0
0.523171 0 0
0.554406 0 0
0.584833 0 0
0.614237 0 0
0.642054 0 0
0.668681 0 0
0.694133 0 0
0.719158 0 0
0.743481 0 0
0.767147 0 0
0.790677 0 0
0.814572 0 0
0.838651 0 0
0.862745 0.00347906 0
0.887037 0.00729381 0
0.911742 0.0114137 0
0.0596323 0.0569924 0.0216983
0.0800336 0.0558938 0.0197147
0.0941787 0.0563363 0.0218662
0.107256 0.0572976 0.01944
0.123735 0.0573129 0.0164492
0.14435 0.0562295 0.0126192
0.170016 0.0538491 0.00764477
0.200671 0.0501869 0.00140383
0.234653 0.0457313 0
0.268452 0.0414435 0
0.30106 0.0375525 0
0.334234 0.0336614 0
0.368139 0.0297551 0
0.402686 0.0257725 0
0.437018 0.0218814 0
0.470985 0.0183108 0
0.504707 0.0150759 0
0.537331 0.0122988 0
0.569146 0.00982681 0
0.599649 0.00802625 0
0.629328 0.00709544 0
0.658015 0.00691234 0
0.685359 0.00738537 0
0.711589 0.00831617 0
0.73698 0.0100099 0
0.76228 0.0125124 0
0.787427 0.0157473 0
0.812543 0.019501 0
0.837369 0.0233616 0
0.862181 0.0276799 0
0.887556 0.0325017 0
0.913146 0.0376287 0
0.939025 0.042771 0
0.0598611 0.0723583 0.0245365
0.0767987 0.0726024 0.0173648
0.100893 0.069749 0.0198978
0.119265 0.0684825 0.0236057
0.13579 0.0683757 0.0221561
0.155245 0.0677501 0.018204
0.180591 0.0655985 0.0127718
0.21091 0.0622568 0.00642405
0.244007 0.0584573 0
0.276768 0.0548409 0
0.309438 0.0513619 0
0.342977 0.0477455 0
0.377432 0.0442206 0
0.412787 0.0408331 0
0.44799 0.0377203 0
0.482856 0.0347143 0
0.517296 0.0321202 0
0.550759 0.0302892 0
0.583673 0.02916 0
0.615259 0.028687 0
0.645533 0.0286107 0
0.674968 0.0294652 0
0.703365 0.0314031 0
0.731044 0.0340581 0
0.757717 0.0371405 0
0.783825 0.0406958 0
0.810147 0.0451057 0
0.836194 0.0500191 0
0.862196 0.0550851 0
0.887892 0.0602731 0
0.913725 0.0654917 0
0.939635 0.0708171 0
0.965667 0.0761578 0
0.0596323 0.0871595 0.0269169
0.0741131 0.088014 0.0213626
0.0992599 0.0860151 0.0147555
0.125353 0.0824903 0.0193484
0.150881 0.0793774 0.0224308
0.176837 0.0769665 0.0213626
0.203052 0.0749371 0.0171054
0.23151 0.0725261 0.0115358
0.261753 0.06981 0.00546273
0.291997 0.0674449 0
0.323583 0.0651713 0
0.356847 0.0627298 0
0.39089 0.0601968 0
0.4262 0.0577707 0
0.461769 0.0560006 0
0.497642 0.0545815 0
0.532586 0.0534371 0
0.566659 0.0527199 0
0.600397 0.0530251 0
0.632929 0.0540627 0
0.664454 0.0557412 0
0.694636 0.0579232 0
0.723644 0.0608682 0
0.752132 0.064622 0
0.779889 0.0690776 0
0.807141 0.0737926 0
0.833951 0.0788891 0
0.860319 0.0841993 0
0.886442 0.0894636 0
0.912291 0.0948501 0
0.93817 0.100206 0
0.963989 0.105394 0
0.989807 0.110277 0
0.0586252 0.102281 0.0285039
0.0725872 0.103365 0.0241093
0.0933394 0.103365 0.014725
0.124849 0.0995499 0.013611
0.158465 0.0946059 0.0174411
0.194064 0.0893416 0.0189364
0.229023 0.0849165 0.0177615
0.259663 0.0824598 0.0149081
0.287465 0.0813153 0.0111086
0.31574 0.080293 0.00679026
0.345937 0.0793164 0.00228885
0.378363 0.0785687 0
0.412436 0.0779583 0
0.446891 0.0774243 0
0.482094 0.0771496 0
0.517662 0.0775921 0
0.553277 0.0786603 0
0.587823 0.0800336 0
0.621698 0.0817121 0
0.654261 0.0840162 0
0.686107 0.0870985 0
0.716731 0.0908675 0
0.746075 0.0950484 0
0.774716 0.0994583 0
0.802274 0.104265 0
0.829557 0.109438 0
0.856214 0.114839 0
0.882307 0.120073 0
0.908095 0.125139 0
0.933303 0.130083 0
0.958511 0.134829 0
0.983658 0.139574 0
1 0.144274 0.000503548
0.0562753 0.11873 0.0287175
0.0702983 0.120195 0.0252689
0.0879072 0.121553 0.0169985
0.118303 0.1196 0.0100862
0.159197 0.113848 0.0116732
0.203372 0.106981 0.013901
0.246281 0.10074 0.0149996
0.283513 0.0968948 0.0155947
0.316152 0.0954299 0.0151827
0.346807 0.0954147 0.0135042
0.376959 0.0959487 0.010956
0.408133 0.0968795 0.00807202
0.441032 0.0983597 0.00572213
0.475303 0.100343 0.00369268
0.51017 0.102358 0.0018616
0.544701 0.104692 0.000183108
0.579553 0.107683 0
0.614023 0.111086 0
0.646922 0.114565 0
0.678904 0.11812 0
0.709697 0.122057 0
0.739452 0.12636 0
0.767926 0.131075 0.00105287
0.795682 0.135973 0.00259403
0.822461 0.141009 0.00430304
0.849104 0.146181 0.00642405
0.874449 0.151003 0.00799573
0.899535 0.155795 0.00952163
0.924346 0.160647 0.0111238
0.949157 0.16556 0.0128481
0.974334 0.170504 0.0146639
0.999451 0.175555 0.0163882
1 0.180514 0.0180056
0.0516823 0.137377 0.0267033
0.0657664 0.139574 0.0237888
0.0822614 0.142 0.0171511
0.108293 0.142519 0.00843824
0.151415 0.138064 0.00613413
0.205386 0.130312 0.00799573
0.256489 0.123461 0.0109407
0.300069 0.118959 0.0142214
0.339727 0.116426 0.0169223
0.376913 0.115923 0.0187686
0.411658 0.117311 0.0194095
0.44445 0.119844 0.018967
0.477012 0.122911 0.0181735
0.509667 0.126955 0.0175784
0.54316 0.131289 0.0173495
0.576593 0.135821 0.0170291
0.609949 0.140246 0.016907
0.64242 0.144854 0.0167544
0.673426 0.149294 0.016556
0.7037 0.153613 0.0166171
0.732692 0.158267 0.0168002
0.760327 0.163058 0.0171511
0.787182 0.167758 0.0176242
0.813092 0.172442 0.0183108
0.838392 0.17731 0.0190585
0.863401 0.182528 0.0202487
0.88809 0.187594 0.0214084
0.912718 0.192767 0.0229648
0.937255 0.198032 0.0243992
0.961685 0.203342 0.0259098
0.986419 0.208621 0.0274205
1 0.213901 0.0291447
1 0.219287 0.0308537
0.0442054 0.159274 0.0216526
0.0583047 0.162203 0.0191653
0.0742809 0.166003 0.0138552
0.0975814 0.169314 0.00624094
0.138354 0.168093 0.0011902
0.198062 0.160998 0.00135805
0.259556 0.153414 0.00517281
0.310384 0.149142 0.011017
0.356878 0.14641 0.0166629
0.400717 0.145159 0.0213626
0.441642 0.146059 0.025391
0.479591 0.148699 0.0283665
0.514488 0.152789 0.0297704
0.547127 0.157717 0.0303807
0.579248 0.163241 0.03122
0.610208 0.168872 0.0311742
0.64062 0.174441 0.0313268
0.670192 0.179858 0.0310674
0.698848 0.184787 0.0307469
0.726268 0.189319 0.0300755
0.752605 0.193957 0.0294804
0.77818 0.198749 0.0294041
0.803174 0.203769 0.0293889
0.827787 0.209064 0.0296788
0.852125 0.214786 0.0304265
0.876402 0.220218 0.0313573
0.900282 0.225772 0.0321965
0.923995 0.231449 0.0332494
0.947921 0.237156 0.0344244
0.972168 0.242786 0.0359655
0.996567 0.248432 0.0372778
1 0.254047 0.0386053
1 0.259876 0.0402228
0.0343786 0.18558 0.0143282
0.0496223 0.189807 0.0131991
0.0656443 0.19469 0.00903334
0.087068 0.200015 0.00271611
0.123384 0.203189 0
0.183551 0.199313 0
0.254032 0.191791 0
0.314 0.186923 0.00555428
0.367285 0.184176 0.0133516
0.41735 0.182696 0.0206912
0.463905 0.182605 0.0271153
0.506722 0.184253 0.0326085
0.545266 0.18735 0.0364843
0.58056 0.191623 0.0394446
0.612421 0.196933 0.0409094
0.641764 0.202625 0.0412909
0.669779 0.208164 0.0411231
0.696269 0.213718 0.0402686
0.722164 0.218982 0.0397345
0.7467 0.224277 0.0392309
0.771206 0.229633 0.0390478
0.795285 0.235187 0.038941
0.818967 0.240864 0.0390021
0.842405 0.246632 0.0393072
0.866133 0.252781 0.0404364
0.889387 0.258762 0.0411536
0.912657 0.26479 0.0420233
0.936049 0.270741 0.0432593
0.959442 0.276738 0.0442359
0.983139 0.282704 0.0453651
1 0.28864 0.04654
1 0.294438 0.0480201
1 0.30042 0.0494392
0.024567 0.215564 0.00703441
0.0407721 0.221088 0.00695811
0.0582742 0.227649 0.00514229
0.0793622 0.234684 0.000701915
0.111192 0.240742 0
0.167117 0.241688 0
0.242557 0.236484 0
0.311162 0.231189 0
0.371679 0.227863 0.0077821
0.42652 0.225345 0.0160983
0.477119 0.224063 0.0238804
0.523995 0.224109 0.0308385
0.566369 0.225422 0.0365606
0.604059 0.227924 0.0411078
0.63772 0.231586 0.0441291
0.668193 0.23621 0.0463417
0.69575 0.241733 0.0473945
0.721462 0.247684 0.0478828
0.746044 0.253605 0.0482795
0.769085 0.259571 0.0481117
0.792065 0.265522 0.0483711
0.814603 0.271717 0.0484321
0.836973 0.278019 0.0487984
0.859648 0.284489 0.0500038
0.882292 0.290867 0.0508431
0.904799 0.297169 0.0516976
0.927687 0.30338 0.0529183
0.950408 0.309682 0.0540322
0.973449 0.315877 0.0551614
0.996918 0.321935 0.0563973
1 0.327977 0.0577401
1 0.334081 0.0589914
1 0.339986 0.0601968
0.0183566 0.24921 0.00332647
0.0356146 0.25539 0.00427253
0.0539406 0.263157 0.00401312
0.0756085 0.271611 0.00189212
0.105287 0.27982 0
0.154543 0.284245 0
0.22855 0.281636 0
0.303288 0.277104 0
0.370321 0.272969 0.00198367
0.43064 0.269291 0.00987259
0.484749 0.266392 0.0175326
0.534035 0.264652 0.0248417
0.579355 0.264317 0.0317235
0.620386 0.265553 0.0380102
0.657176 0.268254 0.0437476
0.689891 0.272267 0.0484016
0.719265 0.277211 0.051957
0.745876 0.282856 0.0546578
0.770153 0.28893 0.056611
0.792966 0.295094 0.0578775
0.815412 0.30132 0.0590982
0.836973 0.307881 0.0599069
0.858778 0.314687 0.0610819
0.880552 0.321431 0.0621347
0.902098 0.328084 0.0630655
0.92398 0.334646 0.0641184
0.945891 0.341192 0.0651713
0.967941 0.347662 0.066392
0.990417 0.354009 0.0674296
1 0.360204 0.068574
1 0.366339 0.0695048
1 0.372641 0.0706951
1 0.378531 0.0718547
0.0164034 0.2851 0.00386053
0.0348058 0.292454 0.00601205
0.0537423 0.300664 0.00682078
0.074876 0.309758 0.00549325
0.102724 0.318898 0.00250248
0.145617 0.325719 0
0.214267 0.325475 0
0.292088 0.321263 0
0.36405 0.316365 0
0.429892 0.311772 0.00363165
0.489052 0.308171 0.0114748
0.541985 0.305821 0.019501
0.590066 0.304784 0.0273899
0.633692 0.305257 0.0349279
0.673243 0.307057 0.0424811
0.70869 0.310185 0.0496071
0.740276 0.314427 0.0558328
0.768399 0.319524 0.0607767
0.793896 0.325109 0.0645914
0.817105 0.33109 0.0673075
0.839323 0.337407 0.0696269
0.860563 0.344106 0.0712749
0.881804 0.350988 0.0729381
0.902647 0.358068 0.074403
0.923323 0.364965 0.0753948
0.944381 0.37174 0.0765393
0.965408 0.378515 0.0774548
0.986725 0.385199 0.0782025
1 0.391608 0.0791791
1 0.397879 0.0798352
1 0.404318 0.080705
1 0.410437 0.0819409
1 0.41648 0.0826123
0.0159915 0.322896 0.00581369
0.0344396 0.330358 0.00813306
0.053254 0.338827 0.00909438
0.0742046 0.348043 0.00859083
0.0998856 0.357549 0.00585946
0.137484 0.365133 0.0010071
0.198505 0.367132 0
0.276265 0.363836 0
0.352087 0.35993 0
0.424186 0.355383 0
0.489174 0.351476 0.00529488
0.547097 0.348638 0.0138247
0.598306 0.347066 0.0226444
0.644175 0.346914 0.0313115
0.686 0.347982 0.0399786
0.7234 0.350362 0.0487221
0.756924 0.353826 0.0567636
0.786847 0.35819 0.0637827
0.813794 0.363134 0.0695811
0.838575 0.36846 0.0743267
0.861555 0.374411 0.0779736
0.883284 0.380987 0.0808576
0.904555 0.387823 0.0834669
0.924926 0.39472 0.0851606
0.94522 0.401602 0.0865797
0.965484 0.408438 0.0879377
0.985824 0.415259 0.0888075
1 0.421912 0.0897383
1 0.428428 0.0903639
1 0.434989 0.0909438
1 0.441245 0.0916304
1 0.447395 0.0919966
1 0.453407 0.0923629
0.0155032 0.361883 0.00764477
0.0341802 0.369146 0.0103609
0.0526284 0.377295 0.0112306
0.072282 0.386023 0.0102693
0.0962844 0.394888 0.00753796
0.129824 0.402869 0.00248722
0.183719 0.407156 0
0.259297 0.406439 0
0.336736 0.403738 0
0.413733 0.399847 0
0.484489 0.396033 0
0.547677 0.392935 0.00772107
0.603128 0.390997 0.0171206
0.651514 0.390326 0.0265049
0.695216 0.390692 0.0362097
0.734279 0.39237 0.0459297
0.769421 0.395071 0.0553445
0.801083 0.39855 0.0640421
0.829786 0.402594 0.0715801
0.856199 0.407248 0.0779126
0.880461 0.412589 0.0832532
0.903838 0.418677 0.088014
0.92549 0.424857 0.0914473
0.946181 0.431388 0.0939651
0.96643 0.438102 0.0959182
0.986664 0.444739 0.0975967
1 0.451347 0.0986954
1 0.457832 0.0997024
1 0.46421 0.100114
1 0.470787 0.100801
1 0.477104 0.101411
1 0.483162 0.101549
1 0.489067 0.101549
0.014023 0.400061 0.00865187
0.0319677 0.406668 0.0102998
0.0498817 0.414176 0.0112001
0.0690929 0.422614 0.0104829
0.0919966 0.431769 0.00810254
0.123598 0.440558 0.00410468
0.172091 0.446738 0
0.242588 0.447929 0
0.320562 0.447395 0
0.39971 0.44448 0
0.475898 0.440909 0
0.544259 0.437827 0.00148013
0.604227 0.43566 0.0109712
0.656443 0.434546 0.021149
0.701717 0.434531 0.0312505
0.742245 0.435462 0.0415351
0.778836 0.437369 0.051957
0.811872 0.440009 0.0619516
0.84213 0.443168 0.0709239
0.870176 0.446983 0.0788434
0.896178 0.45156 0.085771
0.920821 0.456886 0.0917678
0.943618 0.46244 0.0965744
0.965499 0.468223 0.100313
0.986572 0.474235 0.103304
1 0.480522 0.105348
1 0.486854 0.106783
1 0.492927 0.107851
1 0.49926 0.108751
1 0.505669 0.10927
1 0.511696 0.109712
1 0.517647 0.109819
1 0.523323 0.109834
0.0116121 0.437522 0.00886549
0.0297551 0.444114 0.0106661
0.0475929 0.451667 0.0116121
0.0668345 0.460136 0.0112917
0.0892653 0.469276 0.0096437
0.118608 0.478538 0.00605783
0.162799 0.485481 3.0518e-05
0.228046 0.488975 0
0.303777 0.489738 0
0.384268 0.488777 0
0.463569 0.485679 0
0.536751 0.48275 0
0.601556 0.480354 0.0047303
0.657572 0.478996 0.0149996
0.70573 0.478676 0.0256046
0.747829 0.479011 0.0364996
0.785534 0.48011 0.0471046
0.819684 0.481926 0.0578927
0.851148 0.484428 0.0677043
0.880598 0.487526 0.076936
0.908354 0.491402 0.085359
0.934371 0.495583 0.0925307
0.958724 0.500252 0.0987259
0.982162 0.505165 0.103853
1 0.51046 0.107774
1 0.515908 0.110719
1 0.521538 0.112703
1 0.527337 0.114443
1 0.533516 0.115679
1 0.539315 0.116152
1 0.54493 0.116747
1 0.550698 0.116655
1 0.556191 0.116609
0.00994888 0.475898 0.00978103
0.027985 0.482155 0.0114137
0.0461738 0.489418 0.0125124
0.0651255 0.49778 0.0126802
0.087068 0.50695 0.01149
0.11519 0.516304 0.00866712
0.155917 0.524346 0.00329595
0.215824 0.528756 0
0.289235 0.531167 0
0.367544 0.531518 0
0.449409 0.529778 0
0.526528 0.526848 0
0.595682 0.524453 0
0.65568 0.522805 0.00866712
0.707118 0.522118 0.019501
0.7514 0.522194 0.0306096
0.790143 0.522698 0.0417487
0.825223 0.523796 0.0524453
0.857908 0.525567 0.0631113
0.888624 0.527916 0.0732891
0.917769 0.531075 0.0828107
0.945006 0.534325 0.0910048
0.97084 0.538003 0.0982223
0.995544 0.542107 0.104387
1 0.546487 0.109407
1 0.551003 0.113268
1 0.555749 0.116655
1 0.560983 0.118914
1 0.566552 0.120668
1 0.571817 0.121798
1 0.577111 0.122133
1 0.582361 0.122118
1 0.587457 0.122271
0.00953689 0.514427 0.0118715
0.0278782 0.520974 0.0139773
0.0460517 0.528344 0.0150759
0.0651102 0.536355 0.0156863
0.0865339 0.545312 0.0147402
0.113542 0.554543 0.0124971
0.150942 0.5626 0.00746166
0.206516 0.568154 0
0.27628 0.571054 0
0.352132 0.573114 0
0.433661 0.572229 0
0.514031 0.570047 0
0.586847 0.567452 0
0.650752 0.565606 0.00282292
0.705577 0.564477 0.0131685
0.752346 0.564218 0.024155
0.793103 0.564492 0.0356603
0.829435 0.565133 0.0467689
0.862837 0.566262 0.0575113
0.894697 0.568048 0.0683299
0.924636 0.570306 0.0785229
0.953094 0.572793 0.0874189
0.980163 0.575586 0.0953994
1 0.578637 0.102419
1 0.581994 0.108568
1 0.585687 0.113664
1 0.589761 0.117708
1 0.594217 0.121065
1 0.598657 0.123445
1 0.603281 0.125216
1 0.608057 0.12607
1 0.612787 0.126329
1 0.617395 0.126375
0.0105745 0.553475 0.0155032
0.0289006 0.559808 0.0175479
0.0470436 0.56701 0.0188449
0.065919 0.575051 0.0192111
0.0873274 0.583627 0.0190127
0.113039 0.592676 0.0169375
0.148699 0.600885 0.0128786
0.199496 0.606668 0.00560006
0.265919 0.6103 0
0.337987 0.612848 0
0.41828 0.613275 0
0.499596 0.611429 0
0.575936 0.609155 0
0.643656 0.607065 0
0.701717 0.605432 0.00714122
0.751141 0.604883 0.0177005
0.793957 0.604974 0.029221
0.83212 0.605432 0.0407111
0.866667 0.606348 0.0515145
0.899153 0.60734 0.0624094
0.929763 0.608682 0.0728771
0.959014 0.610498 0.0822003
0.98732 0.612482 0.0908675
1 0.614649 0.0985885
1 0.616968 0.105287
1 0.619791 0.111284
1 0.62295 0.116365
1 0.626581 0.12079
1 0.63006 0.124041
1 0.633799 0.126452
1 0.637827 0.128038
1 0.641901 0.12903
1 0.645991 0.12929
0.0124514 0.59205 0.0200046
0.03093 0.598383 0.0221561
0.0493019 0.605463 0.023743
0.068452 0.613611 0.0246586
0.0894026 0.622049 0.0244602
0.114458 0.630472 0.0226902
0.147799 0.638651 0.0188754
0.19556 0.644709 0.0123598
0.257816 0.648539 0.00370794
0.326894 0.651469 0
0.40351 0.652323 0
0.485161 0.651331 0
0.563226 0.648936 0
0.634256 0.646754 0
0.695964 0.645228 0.00238041
0.748562 0.644434 0.0122225
0.793362 0.644083 0.0230106
0.833219 0.644175 0.0343023
0.869169 0.64477 0.0454108
0.902449 0.645411 0.0561685
0.93373 0.646036 0.0665446
0.963638 0.647028 0.076173
0.992859 0.648234 0.0852979
1 0.649638 0.093492
1 0.651164 0.100679
1 0.65304 0.107286
1 0.655406 0.113268
1 0.657984 0.118395
1 0.6607 0.122423
1 0.663569 0.12546
1 0.666651 0.127794
1 0.66981 0.129732
1 0.673289 0.130587
0.0157931 0.630182 0.0259403
0.0346838 0.636759 0.0284276
0.0528572 0.643824 0.0300755
0.0719768 0.651423 0.0310521
0.0926528 0.659617 0.0310216
0.117082 0.668025 0.0295415
0.149233 0.675822 0.0262303
0.193408 0.681666 0.0196689
0.252064 0.685481 0.0112459
0.317906 0.688762 0.0031281
0.39115 0.690181 0
0.470573 0.689281 0
0.5505 0.687388 0
0.623636 0.684962 0
0.688472 0.682963 0
0.744152 0.681895 0.007187
0.791516 0.681559 0.0173342
0.833097 0.681437 0.028275
0.87042 0.681575 0.0391089
0.904814 0.681819 0.0499123
0.936889 0.682033 0.0599985
0.967254 0.682338 0.0697642
0.997086 0.682719 0.0789349
1 0.683345 0.0874342
1 0.684184 0.0950332
1 0.685466 0.10219
1 0.686839 0.108446
1 0.68838 0.11397
1 0.690211 0.118837
1 0.692256 0.122896
1 0.694514 0.126116
1 0.696956 0.128389
1 0.699641 0.130083
0.0206302 0.66804 0.0333257
0.039292 0.674189 0.0356909
0.0574502 0.681071 0.0372778
0.0762646 0.688502 0.0381476
0.09691 0.696345 0.0383612
0.120821 0.704417 0.0372473
0.151553 0.711894 0.0341497
0.193423 0.717815 0.028275
0.248936 0.721569 0.0199435
0.311345 0.724361 0.0109407
0.380789 0.72639 0.00321965
0.45771 0.725994 0
0.537087 0.723827 0
0.612512 0.721492 0
0.680232 0.719356 0
0.738216 0.717601 0.00317388
0.787915 0.717021 0.0122225
0.831525 0.716716 0.0225528
0.87042 0.716503 0.03299
0.905821 0.716381 0.0435035
0.93901 0.716274 0.0537118
0.970153 0.716152 0.0630808
1 0.715846 0.072221
1 0.715572 0.0807355
1 0.715755 0.0884718
1 0.716304 0.0958267
1 0.717021 0.102647
1 0.717784 0.108522
1 0.718776 0.113832
1 0.720058 0.118502
1 0.721584 0.122591
1 0.723323 0.125811
1 0.725185 0.128481
0.026215 0.704768 0.0414893
0.0448157 0.710811 0.0437018
0.0632029 0.71751 0.0457313
0.0821698 0.724956 0.0469673
0.102327 0.732494 0.0469215
0.125963 0.740047 0.0460517
0.155398 0.74728 0.0431525
0.195148 0.752605 0.0374304
0.247379 0.756085 0.0288853
0.307408 0.758862 0.0200504
0.372885 0.760678 0.0112154
0.446754 0.760754 0.00337224
0.524514 0.758938 0
0.600916 0.75613 0
0.670497 0.753704 0
0.73167 0.751904 0.000976577
0.783383 0.750576 0.00813306
0.828885 0.749966 0.0174411
0.869474 0.749538 0.0274815
0.90605 0.749126 0.0374304
0.940246 0.748547 0.0472725
0.972381 0.748028 0.0565805
1 0.747326 0.065507
1 0.746487 0.0739452
1 0.74612 0.0817884
1 0.745937 0.0893721
1 0.745922 0.0962081
1 0.746075 0.102602
1 0.74641 0.10837
1 0.746975 0.113512
1 0.747799 0.118135
1 0.748898 0.122179
1 0.750347 0.125704
0.0333562 0.740841 0.0510719
0.0518349 0.746685 0.053315
0.0699474 0.753094 0.0549325
0.0885786 0.759976 0.0561227
0.108614 0.767193 0.056199
0.131441 0.774426 0.0549783
0.160052 0.781033 0.05243
0.197818 0.786435 0.0470893
0.247532 0.789761 0.0390326
0.304616 0.791699 0.0292363
0.367025 0.793774 0.0203555
0.437064 0.793744 0.0111543
0.513024 0.792157 0.00352483
0.58909 0.789395 0
0.660746 0.786404 0
0.723644 0.7841 0
0.778134 0.782712 0.00561532
0.825147 0.781506 0.0132143
0.867124 0.780636 0.0222324
0.905226 0.779995 0.0317082
0.940642 0.779126 0.0411994
0.973846 0.778164 0.0502632
1 0.777111 0.058793
1 0.775921 0.067216
1 0.775174 0.0754406
1 0.774319 0.082948
1 0.773678 0.0899367
1 0.773297 0.0964828
1 0.773114 0.102647
1 0.773129 0.108232
1 0.773373 0.113146
1 0.773831 0.117861
1 0.774639 0.122194
0.0409705 0.775555 0.0611124
0.0592813 0.781231 0.0632029
0.0772106 0.78735 0.0648508
0.0953994 0.793912 0.0657816
0.115221 0.800717 0.0659037
0.137575 0.807599 0.0646982
0.165164 0.814008 0.06215
0.201328 0.818708 0.0567941
0.248447 0.821805 0.0487068
0.303883 0.823697 0.0391699
0.362234 0.825177 0.0293431
0.429236 0.825467 0.0197604
0.502113 0.823728 0.0104524
0.577447 0.820951 0.0034638
0.649577 0.817746 0
0.714733 0.814954 0
0.771115 0.812818 0.00349432
0.820417 0.811551 0.00979629
0.864012 0.810391 0.0177768
0.903288 0.809171 0.026215
0.939956 0.808118 0.0353552
0.974411 0.806912 0.0443427
1 0.805539 0.052781
1 0.804074 0.0608682
1 0.802915 0.0689555
1 0.801663 0.0766461
1 0.800549 0.0838636
1 0.799649 0.0904707
1 0.799008 0.096788
1 0.798611 0.102556
1 0.798367 0.108019
1 0.798413 0.113176
1 0.798688 0.117968
0.0486152 0.809247 0.0711833
0.066804 0.814618 0.0732891
0.0850233 0.820798 0.0752117
0.103029 0.827054 0.0760357
0.122225 0.833463 0.0758831
0.14406 0.839826 0.0747845
0.170611 0.845777 0.0719921
0.20528 0.85034 0.0668193
0.250233 0.852949 0.0587625
0.302892 0.85417 0.0487221
0.359121 0.85565 0.0389258
0.422278 0.855467 0.0281071
0.492576 0.853986 0.0180209
0.565835 0.85095 0.0090486
0.638086 0.847517 0.00309758
0.704768 0.844236 0.00077821
0.763317 0.841779 0.00236515
0.814038 0.839933 0.00675975
0.859403 0.838636 0.0135958
0.900374 0.837369 0.0215152
0.938277 0.836057 0.0299382
0.97409 0.834546 0.0384985
1 0.833082 0.0468757
1 0.831281 0.054963
1 0.829694 0.0626383
1 0.828122 0.0704051
1 0.826658 0.0778058
1 0.825345 0.0846113
1 0.824323 0.090959
1 0.823453 0.0970474
1 0.822797 0.102876
1 0.822538 0.108476
1 0.822278 0.113588
0.0568551 0.842206 0.0819409
0.0747234 0.847288 0.0836042
0.0922408 0.852796 0.0849622
0.110185 0.858656 0.0858473
0.129015 0.86479 0.0857099
0.150118 0.870802 0.0842451
0.175921 0.876143 0.0812238
0.208911 0.8804 0.0761578
0.25214 0.882734 0.0682689
0.302846 0.883757 0.0581674
0.356359 0.884459 0.0477913
0.416617 0.88455 0.0368353
0.483253 0.882658 0.0253758
0.554742 0.879744 0.0152132
0.626169 0.875914 0.00708019
0.693767 0.872389 0.00257877
0.753872 0.869474 0.00192264
0.806699 0.867491 0.00466926
0.853498 0.86569 0.00987259
0.896132 0.864286 0.0169223
0.935409 0.862837 0.0246128
0.972427 0.861189 0.0328069
1 0.859464 0.0408789
1 0.857496 0.0488746
1 0.855634 0.0567788
1 0.853895 0.0641947
1 0.85214 0.0716869
1 0.850507 0.0788891
1 0.849134 0.0853132
1 0.847898 0.0915541
1 0.846906 0.0976883
1 0.846235 0.103578
1 0.84564 0.108858
0.0644388 0.873686 0.0919356
0.0822461 0.878523 0.0935378
0.0994278 0.883757 0.0946517
0.117006 0.889403 0.0952468
0.135622 0.895155 0.0951858
0.156344 0.900786 0.0936904
0.181048 0.905882 0.0905013
0.212894 0.90956 0.0852979
0.253544 0.91136 0.0770123
