luts/stills/general/KA_Cine_Warm.cube
TITLE "Generated by Resolve"
LUT_3D_SIZE 5
0.0597238 0.0413672 0.0191653
0.225574 0.0338445 0
0.490898 0.00164797 0
0.719158 0 0
0.911742 0.0114137 0
0.0343786 0.18558 0.0143282
0.367285 0.184176 0.0133516
0.669779 0.208164 0.0411231
0.866133 0.252781 0.0404364
1 0.30042 0.0494392
0.00994888 0.475898 0.00978103
0.289235 0.531167 0
0.790143 0.522698 0.0417487
1 0.546487 0.109407
1 0.587457 0.122271
0.0409705 0.775555 0.0611124
0.248447 0.821805 0.0487068
0.771115 0.812818 0.00349432
1 0.802915 0.0689555
1 0.798688 0.117968
0.0927138 1 0.13225
0.256672 1 0.109987
0.683818 1 0.0112001
1 1 0.0204013
1 0.987198 0.0797436
0.0119326 0.0475013 0.215457
0.232959 0.0209506 0.20148
0.521035 0 0.167269
0.75613 0 0.0915694
0.893645 0.0457313 0
0.0381476 0.195285 0.192203
0.257237 0.216876 0.218753
0.567498 0.243549 0.179248
0.827375 0.28719 0.162325
1 0.332998 0.15938
0.0394751 0.491905 0.252186
0.241917 0.527398 0.256443
0.697444 0.537484 0.252628
0.920607 0.581933 0.337133
1 0.625055 0.313832
0.0647898 0.780224 0.325277
0.242649 0.805097 0.307805
0.638056 0.82707 0.200305
1 0.820172 0.314702
1 0.814771 0.410361
0.105394 1 0.411429
0.263371 1 0.379705
0.570581 1 0.260502
0.979843 1 0.197986
1 1 0.341955
0 0.0391394 0.579355
0.135073 0.0130159 0.631418
0.490913 0 0.533059
0.742748 0 0.529931
0.961837 0 0.56878
0 0.192172 0.469657
0.130861 0.212528 0.570642
0.57084 0.215167 0.605905
0.853727 0.257359 0.64654
1 0.309392 0.613428
0.0292973 0.513756 0.564172
0.254154 0.543435 0.598245
0.575479 0.54464 0.603677
0.833387 0.58941 0.584695
1 0.641428 0.574609
0.0802472 0.801175 0.663447
0.286076 0.807446 0.66949
0.562936 0.801465 0.638605
0.910063 0.810849 0.644511
1 0.832395 0.708736
0.116014 1 0.74847
0.290043 1 0.725002
0.543221 0.984573 0.664683
0.85864 1 0.576211
1 1 0.696422
0 0.0386206 0.847089
0.0568399 0.0172122 0.901366
0.4262 0 0.835309
0.728756 0 0.799664
0.956481 0 0.835157
0 0.195254 0.732967
0.057145 0.196902 0.826902
0.452873 0.193164 0.90277
0.8392 0.235569 0.905653
1 0.290303 0.950072
0 0.519127 0.784573
0.116472 0.532891 0.803052
0.415579 0.524834 0.851301
0.83624 0.558923 0.89839
1 0.612909 0.938109
0.0699626 0.819562 0.88426
0.278599 0.834607 0.901854
0.581231 0.816388 0.886427
0.823117 0.808255 0.880995
1 0.83714 0.870771
0.117739 1 0.954757
0.323079 1 0.951339
0.589044 0.987198 0.917906
0.804868 0.978882 0.892058
1 1 0.911177
0 0.0421454 1
0.00251774 0.0215152 1
0.311406 0 1
0.696818 0 1
0.948409 0 1
0 0.210636 0.938811
0.00906386 0.217487 1
0.31194 0.21294 1
0.790753 0.2168 1
1 0.275898 1
0 0.520653 0.937606
0.0323033 0.522271 0.971374
0.256535 0.503899 1
0.733745 0.500542 1
1 0.580941 1
0.033051 0.828382 1
0.179492 0.845899 1
0.403159 0.808957 1
0.693172 0.77818 1
1 0.80911 1
0.10013 1 1
0.291417 1 1
0.583703 1 1
0.820783 0.996292 1
1 0.99704 1
