luts/stills/general/KA_Cine_Warm.cube
TITLE "Generated by Resolve"
LUT_3D_SIZE 9
0.0597238 0.0413672 0.0191653
0.119448 0.0438849 0.0084535
0.225574 0.0338445 0
0.356817 0.0177005 0
0.490898 0.00164797 0
0.614237 0 0
0.719158 0 0
0.814572 0 0
0.911742 0.0114137 0
0.0586252 0.102281 0.0285039
0.158465 0.0946059 0.0174411
0.287465 0.0813153 0.0111086
0.412436 0.0779583 0
0.553277 0.0786603 0
0.686107 0.0870985 0
0.802274 0.104265 0
0.908095 0.125139 0
1 0.144274 0.000503548
0.0343786 0.18558 0.0143282
0.123384 0.203189 0
0.367285 0.184176 0.0133516
0.545266 0.18735 0.0364843
0.669779 0.208164 0.0411231
0.771206 0.229633 0.0390478
0.866133 0.252781 0.0404364
0.959442 0.276738 0.0442359
1 0.30042 0.0494392
0.0159915 0.322896 0.00581369
0.0998856 0.357549 0.00585946
0.352087 0.35993 0
0.598306 0.347066 0.0226444
0.756924 0.353826 0.0567636
0.861555 0.374411 0.0779736
0.94522 0.401602 0.0865797
1 0.428428 0.0903639
1 0.453407 0.0923629
0.00994888 0.475898 0.00978103
0.087068 0.50695 0.01149
0.289235 0.531167 0
0.595682 0.524453 0
0.790143 0.522698 0.0417487
0.917769 0.531075 0.0828107
1 0.546487 0.109407
1 0.566552 0.120668
1 0.587457 0.122271
0.0157931 0.630182 0.0259403
0.0926528 0.659617 0.0310216
0.252064 0.685481 0.0112459
0.5505 0.687388 0
0.791516 0.681559 0.0173342
0.936889 0.682033 0.0599985
1 0.684184 0.0950332
1 0.690211 0.118837
1 0.699641 0.130083
0.0409705 0.775555 0.0611124
0.115221 0.800717 0.0659037
0.248447 0.821805 0.0487068
0.502113 0.823728 0.0104524
0.771115 0.812818 0.00349432
0.939956 0.808118 0.0353552
1 0.802915 0.0689555
1 0.799008 0.096788
1 0.798688 0.117968
0.0716259 0.904051 0.101381
0.141375 0.924269 0.103838
0.255482 0.939071 0.0854505
0.467277 0.936858 0.0399481
0.732982 0.922164 0.00315862
0.926192 0.91429 0.0150607
1 0.905913 0.0445869
1 0.897856 0.0739605
1 0.892149 0.0992294
0.0927138 1 0.13225
0.156817 1 0.130098
0.256672 1 0.109987
0.440543 1 0.0628061
0.683818 1 0.0112001
0.894194 1 0
1 1 0.0204013
1 0.994965 0.0503548
1 0.987198 0.0797436
0.0379339 0.0464637 0.0929122
0.122728 0.0406348 0.092546
0.242725 0.0253605 0.0767987
0.380514 0.00790417 0.0424811
0.463569 0.0146639 0
0.546288 0.0205997 0
0.641077 0.0267948 0
0.735103 0.0393225 0
0.829801 0.058854 0
0.0584726 0.102983 0.0906081
0.12398 0.103471 0.0920424
0.237842 0.0964218 0.0713207
0.379339 0.0903029 0.0513161
0.531334 0.0918898 0.0386511
0.673564 0.102876 0.0351415
0.79295 0.119921 0.0370794
0.897948 0.14049 0.0422827
0.997345 0.160372 0.0464332
0.0457465 0.188815 0.0880446
0.115938 0.20621 0.0953231
0.312688 0.200793 0.090898
0.468101 0.210941 0.104173
0.604044 0.231846 0.0986343
0.73254 0.25185 0.0956283
0.841901 0.271504 0.0979477
0.943008 0.293538 0.104463
1 0.315572 0.111223
0.0347753 0.33164 0.0898451
0.110842 0.358694 0.101823
0.275563 0.37438 0.0791485
0.541878 0.360006 0.0981308
0.705409 0.369009 0.131044
0.810849 0.39852 0.143908
0.899855 0.426932 0.145602
0.988739 0.451804 0.146502
1 0.474525 0.147921
0.0274662 0.481514 0.0945296
0.101152 0.506889 0.104265
0.236042 0.53225 0.0907149
0.526787 0.538567 0.0762951
0.75111 0.535882 0.116854
0.882628 0.548104 0.16701
0.975418 0.566964 0.194049
1 0.588876 0.194934
1 0.61001 0.187732
0.0319524 0.634821 0.112825
0.104845 0.657435 0.120165
0.225284 0.679515 0.110414
0.46804 0.697322 0.0808728
0.749874 0.696468 0.0925765
0.906722 0.697169 0.138689
1 0.698466 0.186862
1 0.704631 0.221942
1 0.715724 0.230472
0.0550546 0.779004 0.151385
0.126253 0.799527 0.155474
0.236545 0.815595 0.143893
0.433768 0.826307 0.109133
0.71426 0.824002 0.0842908
0.907286 0.82031 0.109743
1 0.81474 0.149584
1 0.809705 0.196277
1 0.808392 0.23801
0.0831311 0.905394 0.196521
0.150408 0.922042 0.195254
0.251728 0.933104 0.179004
0.421241 0.935347 0.139101
0.665064 0.929732 0.0939803
0.885222 0.923659 0.0907607
1 0.917082 0.119478
1 0.908492 0.157946
1 0.901183 0.206592
0.10135 1 0.234226
0.164706 1 0.226673
0.257755 1 0.20528
0.41181 1 0.160998
0.620615 1 0.108904
0.844602 1 0.0804761
1 1 0.0949264
1 1 0.125734
1 0.997742 0.167452
0.0119326 0.0475013 0.215457
0.0975204 0.0372168 0.24921
0.232959 0.0209506 0.20148
0.376455 0.00062562 0.181476
0.521035 0 0.167269
0.649256 0 0.159365
0.75613 0 0.0915694
0.83238 0.00772107 0.000732433
0.893645 0.0457313 0
0.0307012 0.106661 0.176791
0.0939193 0.104982 0.211887
0.240772 0.0894026 0.206134
0.394995 0.0800336 0.199191
0.555993 0.0839704 0.16669
0.653971 0.122744 0.0590524
0.735149 0.157122 0.0162356
0.817273 0.186374 0
0.899046 0.214527 0
0.0381476 0.195285 0.192203
0.118105 0.21088 0.210285
0.257237 0.216876 0.218753
0.409979 0.228641 0.196033
0.567498 0.243549 0.179248
0.709941 0.26392 0.167865
0.827375 0.28719 0.162325
0.929625 0.310048 0.159258
1 0.332998 0.15938
0.0428321 0.344686 0.225544
0.12517 0.363912 0.246647
0.25333 0.374517 0.242115
0.478477 0.368933 0.227649
0.630396 0.381277 0.26038
0.752026 0.41236 0.258061
0.862593 0.44303 0.257664
0.962081 0.466316 0.25243
1 0.487266 0.245777
0.0394751 0.491905 0.252186
0.116838 0.511666 0.262516
0.241917 0.527398 0.256443
0.440406 0.546044 0.200031
0.697444 0.537484 0.252628
0.83125 0.551629 0.320165
0.920607 0.581933 0.337133
1 0.606195 0.328283
1 0.625055 0.313832
0.0441444 0.640284 0.28159
0.117494 0.658213 0.283238
0.235264 0.672541 0.274861
0.404257 0.691432 0.23151
0.688136 0.700999 0.20267
0.865583 0.699718 0.289479
0.977478 0.705242 0.35903
1 0.715114 0.384482
1 0.728664 0.378088
0.0647898 0.780224 0.325277
0.134936 0.79675 0.322621
0.242649 0.805097 0.307805
0.396277 0.814084 0.266941
0.638056 0.82707 0.200305
0.866911 0.827008 0.233494
1 0.820172 0.314702
1 0.814221 0.374731
1 0.814771 0.410361
0.0900435 0.903395 0.373281
0.156374 0.91696 0.366354
0.25771 0.92192 0.348577
0.400031 0.922316 0.305928
0.596506 0.927031 0.228168
0.834546 0.92874 0.193256
1 0.923339 0.253544
1 0.912459 0.327794
1 0.904509 0.388403
0.105394 1 0.411429
0.167788 1 0.400381
0.263371 1 0.379705
0.399771 1 0.336919
0.570581 1 0.260502
0.78703 1 0.187381
0.979843 1 0.197986
1 1 0.268421
1 1 0.341955
0 0.0433051 0.397635
0.0607156 0.0316625 0.447898
0.195407 0.0145571 0.415274
0.359854 0 0.366842
0.508125 0 0.348592
0.639551 0 0.342397
0.750881 0 0.348333
0.855848 0 0.36347
0.965621 0 0.37116
0 0.10341 0.332891
0.0603952 0.0982681 0.385199
0.186923 0.0857099 0.42269
0.38085 0.0729534 0.384024
0.548501 0.0735943 0.388128
0.702083 0.0865949 0.407492
0.826596 0.10399 0.42858
0.933883 0.128878 0.369848
1 0.174472 0.183215
0.00910964 0.196384 0.335241
0.0784009 0.211643 0.350149
0.192493 0.222431 0.402899
0.414664 0.217624 0.414374
0.583352 0.225406 0.422446
0.730297 0.246494 0.39913
0.804807 0.306493 0.196109
0.868681 0.349691 0.119295
0.941634 0.383459 0.0931258
0.0328832 0.352544 0.377188
0.116793 0.372427 0.399558
0.255146 0.378622 0.408255
0.415702 0.37966 0.411902
0.571206 0.392309 0.38996
0.71664 0.416648 0.380499
0.839078 0.448753 0.379339
0.943496 0.476799 0.373709
1 0.497948 0.36022
0.0402838 0.50602 0.410941
0.126223 0.525536 0.434134
0.264317 0.530694 0.441032
0.411154 0.539086 0.433936
0.63537 0.537255 0.423987
0.765347 0.555169 0.462669
0.865415 0.589502 0.465782
0.961669 0.617517 0.464836
1 0.634089 0.453376
0.0534218 0.654551 0.455528
0.132906 0.669261 0.468956
0.258717 0.673381 0.463233
0.403281 0.681239 0.45124
0.601755 0.696941 0.395895
0.816129 0.693614 0.4542
0.926802 0.704555 0.521294
1 0.725978 0.534783
1 0.741299 0.519997
0.0751965 0.788754 0.506691
0.146929 0.799924 0.508385
0.26006 0.800565 0.490898
0.39942 0.802365 0.471794
0.567452 0.813046 0.426337
0.809186 0.821942 0.403571
0.957778 0.818601 0.489143
1 0.817823 0.554665
1 0.822614 0.576562
0.0977493 0.905669 0.555413
0.164401 0.914809 0.550149
0.270604 0.913756 0.528481
0.40116 0.907927 0.498665
0.551659 0.908904 0.452384
0.76437 0.92018 0.389013
0.958923 0.923949 0.432731
1 0.915129 0.513207
1 0.907729 0.571588
0.110445 1 0.592386
0.172961 1 0.582452
0.273747 1 0.558511
0.402411 1 0.52668
0.543526 0.999588 0.47924
0.721874 1 0.405035
0.923751 1 0.381537
1 1 0.450446
1 1 0.527687
0 0.0391394 0.579355
0.0269627 0.0272526 0.626291
0.135073 0.0130159 0.631418
0.326604 0 0.570962
0.490913 0 0.533059
0.627939 0 0.523293
0.742748 0 0.529931
0.850523 0 0.547051
0.961837 0 0.56878
0 0.098497 0.505211
0.026154 0.0909438 0.557977
0.120394 0.083772 0.612253
0.338964 0.0657206 0.588434
0.531624 0.0658274 0.570184
0.690425 0.0784009 0.585138
0.819257 0.0976577 0.60885
0.930892 0.116579 0.630869
1 0.134981 0.651484
0 0.192172 0.469657
0.0331731 0.199603 0.495232
0.130861 0.212528 0.570642
0.357137 0.207538 0.622736
0.57084 0.215167 0.605905
0.726238 0.231754 0.620844
0.853727 0.257359 0.64654
0.96527 0.280369 0.669444
1 0.309392 0.613428
0.00833143 0.354025 0.524956
0.0844892 0.37171 0.542077
0.180667 0.382254 0.55201
0.346944 0.380941 0.591272
0.573617 0.379461 0.605371
0.72961 0.397665 0.623362
0.854978 0.430289 0.614328
0.920882 0.494057 0.413718
0.979919 0.539269 0.288441
0.0292973 0.513756 0.564172
0.115312 0.535775 0.588327
0.254154 0.543435 0.598245
0.414389 0.544366 0.60145
0.575479 0.54464 0.603677
0.713848 0.560647 0.587137
0.833387 0.58941 0.584695
0.938064 0.620142 0.585275
1 0.641428 0.574609
0.0514687 0.66688 0.60827
0.137163 0.68542 0.62977
0.277287 0.687343 0.634821
0.426642 0.684749 0.633646
0.571389 0.687907 0.623865
0.763272 0.6878 0.616983
0.86743 0.70428 0.653147
0.954253 0.7308 0.654856
1 0.749599 0.65069
0.0802472 0.801175 0.663447
0.159747 0.813031 0.67689
0.286076 0.807446 0.66949
0.421469 0.801343 0.654627
0.562936 0.801465 0.638605
0.736248 0.812696 0.589807
0.910063 0.810849 0.644511
1 0.816709 0.698405
1 0.832395 0.708736
0.104479 0.914321 0.713527
0.176028 0.920653 0.717632
0.29073 0.9122 0.700526
0.416434 0.901274 0.673732
0.55201 0.895827 0.649989
0.702281 0.902953 0.609018
0.903288 0.916945 0.598505
1 0.913359 0.674632
1 0.912474 0.727108
0.116014 1 0.74847
0.181735 1 0.746136
0.290043 1 0.725002
0.414374 0.994736 0.695659
0.543221 0.984573 0.664683
0.680995 0.985138 0.623316
0.85864 1 0.576211
1 1 0.625345
1 1 0.696422
0 0.0375677 0.730785
0 0.0266575 0.766445
0.0885786 0.0147707 0.78555
0.278233 0 0.745403
0.464103 0 0.698222
0.615427 0 0.675837
0.735546 0 0.679164
0.846311 0 0.696345
0.958801 0 0.717998
0 0.0963149 0.668605
0 0.0877852 0.71014
0.0797894 0.0814679 0.753933
0.268925 0.0641947 0.757214
0.498085 0.0603037 0.733837
0.676616 0.0724956 0.734325
0.810452 0.0912642 0.753201
0.924865 0.111559 0.775357
1 0.132082 0.797742
0 0.191012 0.609171
0 0.190723 0.643763
0.0869764 0.19852 0.710552
0.269322 0.199435 0.770565
0.530419 0.202655 0.772107
0.714672 0.220401 0.769574
0.84715 0.245716 0.789746
0.96228 0.273213 0.814099
1 0.296681 0.835538
0 0.351644 0.644709
0.0360571 0.358251 0.652003
0.108354 0.364965 0.675059
0.265095 0.367315 0.728878
0.513222 0.36492 0.771466
0.718837 0.386252 0.770932
0.852628 0.415122 0.794614
0.968307 0.446448 0.821805
1 0.467124 0.840208
0.00920119 0.518074 0.692393
0.0890211 0.537636 0.712581
0.195224 0.547723 0.72253
0.335515 0.544854 0.719799
0.506065 0.543999 0.750271
0.717174 0.548653 0.766735
0.844694 0.571801 0.785809
0.952682 0.602777 0.78146
1 0.655665 0.612116
0.0427253 0.675486 0.736309
0.12697 0.695796 0.758129
0.262226 0.700481 0.764477
0.419181 0.698024 0.763653
0.575845 0.693828 0.760861
0.714473 0.692607 0.761242
0.824292 0.70695 0.750622
0.924758 0.729946 0.748974
1 0.751308 0.747433
0.0775006 0.811383 0.78471
0.159182 0.825895 0.80116
0.295674 0.822889 0.800336
0.443366 0.81442 0.794171
0.586694 0.80473 0.785458
0.709865 0.804074 0.774945
0.863172 0.804974 0.771313
0.956298 0.817349 0.798047
1 0.837644 0.799435
0.105562 0.924269 0.830228
0.182605 0.931838 0.839841
0.311482 0.922255 0.831525
0.443473 0.907301 0.815396
0.57467 0.895003 0.796521
0.698528 0.89308 0.78172
0.8392 0.906813 0.74934
1 0.907149 0.79295
1 0.912947 0.833707
0.119753 1 0.862943
0.191821 1 0.866926
0.312398 1 0.853147
0.436393 0.994492 0.831113
0.560037 0.979522 0.804501
0.682338 0.974166 0.784314
0.806073 0.986282 0.757107
0.991882 1 0.758068
1 1 0.818173
0 0.0386206 0.847089
0 0.028336 0.87808
0.0568399 0.0172122 0.901366
0.218219 0 0.884031
0.4262 0 0.835309
0.596735 0 0.804196
0.728756 0 0.799664
0.842939 0 0.814267
0.956481 0 0.835157
0 0.0975052 0.795209
0 0.0900893 0.83064
0.0535286 0.0843214 0.86891
0.198734 0.0738231 0.888884
0.445624 0.0602884 0.87013
0.654185 0.069749 0.861234
0.801175 0.0878462 0.869902
0.919081 0.107958 0.889281
1 0.129519 0.911635
0 0.195254 0.732967
0 0.195209 0.772152
0.057145 0.196902 0.826902
0.193454 0.200168 0.884764
0.452873 0.193164 0.90277
0.687022 0.208591 0.89601
0.8392 0.235569 0.905653
0.95819 0.263554 0.927596
1 0.290303 0.950072
0 0.351003 0.742138
0 0.352743 0.755718
0.0658427 0.350103 0.784649
0.184573 0.354986 0.838483
0.415259 0.349371 0.882322
0.680568 0.367132 0.894682
0.842542 0.400992 0.906889
0.962722 0.433234 0.931533
1 0.459602 0.952636
0 0.519127 0.784573
0.0491188 0.531182 0.797406
0.116472 0.532891 0.803052
0.227146 0.52607 0.811948
0.415579 0.524834 0.851301
0.662791 0.528588 0.890883
0.83624 0.558923 0.89839
0.951171 0.587869 0.919631
1 0.612909 0.938109
0.0271916 0.681697 0.835859
0.106462 0.700496 0.855497
0.214664 0.707759 0.863142
0.359335 0.701625 0.857252
0.495811 0.693202 0.849226
0.65391 0.689387 0.870237
0.8262 0.696361 0.886336
0.933989 0.714794 0.901595
1 0.736599 0.894209
0.0699626 0.819562 0.88426
0.149294 0.835019 0.900893
0.278599 0.834607 0.901854
0.430137 0.826352 0.895033
0.581231 0.816388 0.886427
0.714611 0.80943 0.880812
0.823117 0.808255 0.880995
0.916167 0.819425 0.871946
1 0.83714 0.870771
0.101381 0.932586 0.925078
0.177661 0.941787 0.93576
0.309667 0.933883 0.92958
0.454292 0.92105 0.918502
0.597177 0.907256 0.906508
0.719631 0.897612 0.897658
0.818067 0.899321 0.890913
0.954116 0.902113 0.890105
1 0.913176 0.913237
0.117739 1 0.954757
0.192828 1 0.961349
0.323079 1 0.951339
0.459174 1 0.93637
0.589044 0.987198 0.917906
0.704021 0.976272 0.901289
0.804868 0.978882 0.892058
0.929549 0.998077 0.870283
1 1 0.911177
0 0.0404364 0.953445
0 0.0302434 0.985351
0.0294804 0.0191806 1
0.152605 0.00198367 1
0.373571 0 0.971847
0.569482 0 0.932021
0.715938 0 0.919326
0.838041 0 0.927092
0.953521 0 0.945342
0 0.100694 0.901442
0 0.0936141 0.937331
0.0297551 0.0889601 0.977432
0.142123 0.0854505 1
0.380346 0.0676432 1
0.617945 0.0686961 0.987869
0.784848 0.0852216 0.986877
0.911223 0.105531 0.998306
1 0.126848 1
0 0.202426 0.837186
0 0.203738 0.879713
0.0331273 0.207172 0.935042
0.14786 0.21207 0.995804
0.37641 0.199435 1
0.637949 0.199954 1
0.821607 0.22623 1
0.951934 0.255558 1
1 0.282399 1
0 0.354345 0.830427
0 0.355901 0.853803
0.0376745 0.35494 0.890486
0.13492 0.354742 0.941283
0.332921 0.343648 0.983108
0.602335 0.344976 1
0.817151 0.382147 1
0.953201 0.418982 1
1 0.446723 1
0 0.519631 0.861387
0.00430304 0.525521 0.871458
0.0679637 0.521752 0.881315
0.149081 0.512291 0.90338
0.326375 0.504295 0.941161
0.564813 0.502922 0.986068
0.803143 0.5337 1
0.941039 0.571145 1
1 0.597696 1
0.000915541 0.68481 0.917205
0.0742809 0.698894 0.931548
0.1467 0.704936 0.938109
0.249226 0.689555 0.926024
0.378058 0.671641 0.922301
0.564691 0.667124 0.95436
0.779187 0.67364 0.994629
0.923888 0.701579 1
1 0.721859 1
0.0561074 0.825376 0.97351
0.13135 0.839994 0.989029
0.238178 0.843122 0.992828
0.381567 0.832181 0.982147
0.520653 0.818998 0.968536
0.643595 0.8065 0.955566
0.77232 0.802319 0.975387
0.915969 0.80914 0.992767
1 0.822644 1
0.0924239 0.938842 1
0.165866 0.948516 1
0.289677 0.943511 1
0.437018 0.931044 1
0.584772 0.917388 0.999207
0.715663 0.907927 0.990967
0.822309 0.904524 0.988998
0.915648 0.904418 0.990326
1 0.914321 0.981262
0.110933 1 1
0.183841 1 1
0.313787 1 1
0.457679 1 1
0.600595 1 1
0.724773 0.990326 1
0.823499 0.985595 1
0.909621 0.990173 0.998779
1 0.995911 1
0 0.0421454 1
0 0.0320897 1
0.00251774 0.0215152 1
0.101366 0.010132 1
0.311406 0 1
0.529519 0 1
0.696818 0 1
0.827756 0 1
0.948409 0 1
0 0.104372 1
0 0.0974136 1
0.00576791 0.0938735 1
0.105501 0.0943313 1
0.314656 0.0796979 1
0.566415 0.071809 1
0.759701 0.0826734 1
0.897765 0.103426 1
1 0.125277 1
0 0.210636 0.938811
0 0.213275 0.986221
0.00906386 0.217487 1
0.116609 0.223575 1
0.31194 0.21294 1
0.571618 0.201312 1
0.790753 0.2168 1
0.938079 0.247669 1
1 0.275898 1
0 0.360449 0.921157
0 0.362799 0.952621
0.0114443 0.363653 0.996109
0.106691 0.365896 1
0.27335 0.357259 1
0.522606 0.345495 1
0.77258 0.363867 1
0.934874 0.404288 1
1 0.435554 1
0 0.520653 0.937606
0 0.524315 0.95111
0.0323033 0.522271 0.971374
0.111757 0.517601 1
0.256535 0.503899 1
0.475212 0.489921 1
0.733745 0.500542 1
0.916228 0.547753 1
1 0.580941 1
0 0.685328 0.994232
0.0333562 0.694835 1
0.094377 0.69604 1
0.160952 0.683726 1
0.283314 0.656199 1
0.467247 0.643137 1
0.692683 0.642115 1
0.891173 0.675303 1
1 0.704829 1
0.033051 0.828382 1
0.103853 0.840314 1
0.179492 0.845899 1
0.295338 0.832685 1
0.403159 0.808957 1
0.525719 0.786145 1
0.693172 0.77818 1
0.869017 0.786099 1
1 0.80911 1
0.0779583 0.94313 1
0.148257 0.952667 1
0.252003 0.951324 1
0.394614 0.937682 1
0.53521 0.921904 1
0.661692 0.907332 1
0.761639 0.896788 1
0.867292 0.89572 1
1 0.90341 1
0.10013 1 1
0.170672 1 1
0.291417 1 1
0.436973 1 1
0.583703 1 1
0.714336 0.999969 1
0.820783 0.996292 1
0.914168 0.996185 1
1 0.99704 1
