luts/stills/general/KA_MAGic.cube
TITLE "Generated by Resolve"
LUT_3D_SIZE 33
0.0409705 0.057969 0.0340276
0.0500496 0.0576486 0.0347601
0.0598764 0.0573129 0.0355077
0.0687114 0.0573434 0.0366369
0.0773175 0.0573129 0.0376898
0.087953 0.0565957 0.0380713
0.103944 0.0542306 0.0367742
0.129503 0.049073 0.0327459
0.162524 0.0417487 0.0263066
0.200824 0.0327764 0.0180056
0.242374 0.0231785 0.00923171
0.284703 0.0139162 0.00115969
0.325795 0.00526436 0
0.364187 0 0
0.401694 0 0
0.439475 0 0
0.477195 0 0
0.513588 0 0
0.548928 0 0
0.582406 0 0
0.614343 0 0
0.644587 0 0
0.673854 0 0
0.702541 0 0
0.731182 0 0
0.760082 0 0
0.788785 0 0
0.81767 0 0
0.84686 0 0
0.877043 0 0
0.907897 0 0
0.938659 0 0
0.969604 0 0
0.0436408 0.0659342 0.0340734
0.0503395 0.0663615 0.0354772
0.0600595 0.0659648 0.0352941
0.068986 0.0654612 0.0360418
0.0774701 0.0649882 0.036759
0.0882734 0.0638437 0.0366522
0.105852 0.0607614 0.0345159
0.133379 0.0548409 0.0293889
0.167926 0.0467994 0.0220188
0.207111 0.0375677 0.0135653
0.248005 0.0282597 0.00503548
0.289509 0.01944 0
0.330098 0.0115358 0
0.368154 0.00447089 0
0.406165 0 0
0.444694 0 0
0.482902 0 0
0.52047 0 0
0.556268 0 0
0.590463 0 0
0.622919 0 0
0.654658 0 0
0.685634 0 0
0.715892 0 0
0.745937 0 0
0.775738 0 0
0.805982 0 0
0.836316 0 0
0.866987 0 0
0.897993 0 0
0.92987 0 0
0.961776 0 0
0.993683 0 0
0.0463722 0.0731518 0.0341955
0.0530251 0.0730449 0.0364385
0.0596323 0.0731975 0.0361639
0.0679332 0.0728771 0.0355077
0.0769818 0.0721904 0.0354162
0.0893111 0.0704662 0.0346075
0.10959 0.0663462 0.031342
0.138949 0.0596475 0.0255131
0.173938 0.0516518 0.0183871
0.212787 0.0428168 0.0104829
0.253834 0.0339666 0.00260929
0.295369 0.0258335 0
0.335622 0.0187991 0
0.374197 0.0128939 0
0.413306 0.00691234 0
0.452689 0.000549325 0
0.491981 0 0
0.53048 0 0
0.568017 0 0
0.603662 0 0
0.637568 0 0
0.670054 0 0
0.702144 0 0
0.733928 0 0
0.765179 0 0
0.796078 0 0
0.826917 0 0
0.858274 0 0
0.889845 0 0
0.922255 0 0
0.95433 0 0
0.986969 0 0
1 0 0
0.0479591 0.0800183 0.0331731
0.0556954 0.07953 0.0354925
0.0607614 0.0799725 0.0366674
0.0671397 0.0802625 0.0362097
0.0748455 0.0803082 0.0358434
0.0853742 0.0797436 0.0354925
0.102831 0.0773022 0.0338598
0.131792 0.071519 0.0291142
0.168719 0.0633707 0.0218967
0.21062 0.0540475 0.0136721
0.255116 0.0445563 0.00527962
0.299397 0.0363012 0
0.341939 0.0298772 0
0.381872 0.0248722 0
0.422568 0.0205234 0
0.464546 0.0161746 0
0.505821 0.0119936 0
0.545983 0.00807202 0
0.58436 0.0049897 0
0.621408 0.00299077 0
0.656535 0.00195315 0
0.69044 0.00137331 0
0.723308 0.00134279 0
0.755978 0.00222782 0
0.788235 0.00337224 0
0.820035 0.00488289 0
0.851881 0.00646983 0
0.883772 0.00836194 0
0.916335 0.0105898 0
0.94966 0.0130007 0
0.98294 0.0159152 0.000976577
1 0.0187076 0.00491341
1 0.0216678 0.0089723
0.0479133 0.0877394 0.030518
0.0565499 0.087129 0.0330205
0.0620432 0.0877241 0.0351568
0.0665751 0.0889754 0.0357061
0.0734417 0.0897383 0.0355535
0.0830243 0.090013 0.0353552
0.0983749 0.0891585 0.0345464
0.124804 0.0856641 0.0317388
0.161135 0.0795758 0.0269017
0.204364 0.0714733 0.020264
0.252354 0.0622568 0.0123903
0.301564 0.0539864 0.00561532
0.348363 0.0482338 0.00149538
0.39176 0.04448 0
0.434745 0.0411841 0
0.478538 0.038056 0
0.522026 0.0353246 0
0.563821 0.0328832 0
0.603693 0.0307622 0
0.641596 0.0295262 0
0.677668 0.0293278 0
0.712703 0.0297856 0
0.746517 0.0307164 0
0.779995 0.0321355 0.000411994
0.81297 0.0341039 0.00357061
0.845914 0.036408 0.00689708
0.878676 0.0390173 0.0107729
0.91165 0.0416571 0.0146487
0.944747 0.0444343 0.0187381
0.978943 0.0474708 0.0230259
1 0.0509499 0.0277562
1 0.0543526 0.0323644
1 0.0577554 0.0369726
0.0450141 0.0982528 0.0250248
0.0547036 0.0976577 0.0281224
0.0610208 0.0984512 0.0310674
0.0648661 0.100649 0.0324407
0.0707561 0.102922 0.0329595
0.080293 0.104417 0.0332952
0.0951553 0.104753 0.0329747
0.120333 0.103197 0.0312657
0.155779 0.0999008 0.0285649
0.199405 0.0949721 0.0247959
0.249241 0.0884718 0.0200809
0.301839 0.0816663 0.0153201
0.353017 0.0761883 0.0118715
0.399954 0.0727855 0.0104677
0.445853 0.0698711 0.00943008
0.491493 0.0670634 0.0083772
0.536919 0.0649271 0.00808728
0.580484 0.0633097 0.00830091
0.622003 0.0620584 0.00886549
0.660975 0.0614939 0.0100557
0.698207 0.061738 0.0119631
0.734035 0.0628977 0.0146334
0.769284 0.0645914 0.0179141
0.803876 0.0670024 0.0218509
0.837842 0.0694133 0.0257572
0.871397 0.0721599 0.0299687
0.905089 0.0752422 0.0343481
0.938918 0.0785077 0.0390936
0.97293 0.0817731 0.0439155
1 0.0849622 0.0486305
1 0.088716 0.0538491
1 0.0922103 0.0587778
1 0.0957351 0.0637217
0.0381018 0.113497 0.0153048
0.0488899 0.113573 0.0196689
0.0565499 0.114855 0.023743
0.0616159 0.117662 0.0264439
0.067155 0.121675 0.0279088
0.076936 0.125399 0.0294499
0.09308 0.127947 0.0305333
0.118502 0.128344 0.0299992
0.152865 0.127001 0.0282597
0.196048 0.12398 0.0256657
0.246464 0.119127 0.0220798
0.300511 0.113069 0.0179599
0.353155 0.108064 0.0151369
0.401953 0.105623 0.0148013
0.450156 0.104433 0.0157168
0.49865 0.102968 0.016556
0.545739 0.101457 0.0173953
0.591409 0.100694 0.0188907
0.634852 0.100069 0.0207828
0.675532 0.100114 0.023331
0.714229 0.100816 0.0264286
0.751263 0.10222 0.0301061
0.787457 0.10425 0.0341802
0.82324 0.107118 0.0391699
0.858305 0.109957 0.0440986
0.892821 0.112963 0.0491188
0.92726 0.116075 0.0540932
0.961517 0.119371 0.0593423
0.996231 0.122606 0.0645914
1 0.125826 0.0698558
1 0.129412 0.0754101
1 0.132555 0.0805676
1 0.135622 0.0854353
0.0296941 0.134798 0.00396735
0.0417639 0.13637 0.0102235
0.0519722 0.139132 0.0164187
0.060029 0.142977 0.0213016
0.066331 0.148104 0.0240482
0.0761273 0.153536 0.0261845
0.0929427 0.157717 0.0280156
0.119265 0.159869 0.0285344
0.154269 0.159777 0.027512
0.196719 0.157733 0.0252842
0.246464 0.153857 0.0221561
0.299397 0.149508 0.0188907
0.351919 0.146136 0.0170291
0.401144 0.145052 0.017319
0.449973 0.145464 0.0192416
0.500114 0.145647 0.021622
0.549584 0.14519 0.0238804
0.597147 0.144503 0.0262303
0.642634 0.144457 0.0292515
0.684688 0.144747 0.0325933
0.724865 0.145724 0.0366979
0.76318 0.147326 0.0412757
0.800336 0.14934 0.0461738
0.836774 0.152087 0.0514229
0.872465 0.15491 0.0569314
0.907774 0.157778 0.0624094
0.942672 0.1608 0.0679484
0.977462 0.163745 0.0732738
1 0.166598 0.0784924
1 0.169253 0.0836957
1 0.172198 0.089128
1 0.174807 0.0941787
1 0.177234 0.09897
0.0233616 0.164462 0
0.0366979 0.167269 0.00283818
0.0487678 0.170993 0.0105745
0.0597543 0.175799 0.0171054
0.0691691 0.181598 0.0216068
0.0789807 0.1879 0.024155
0.0968338 0.19295 0.0259098
0.12369 0.195651 0.0263523
0.159915 0.195895 0.0256046
0.202838 0.194324 0.0237278
0.250584 0.191882 0.0212711
0.301579 0.189456 0.0189822
0.352483 0.188434 0.018204
0.400839 0.189517 0.0195163
0.449073 0.191669 0.0221561
0.499321 0.193484 0.0252689
0.549966 0.194278 0.0283665
0.59913 0.194217 0.0314336
0.645685 0.193881 0.0348516
0.689616 0.194171 0.0391089
0.730617 0.194888 0.0433814
0.769833 0.196216 0.0484016
0.807919 0.197986 0.0536965
0.844846 0.200031 0.059144
0.88098 0.202686 0.0647898
0.916442 0.204913 0.070161
0.9514 0.207263 0.0755779
0.986419 0.209583 0.080827
1 0.211795 0.0859541
1 0.213733 0.0906386
1 0.215686 0.0955367
1 0.217304 0.0999771
1 0.218921 0.104463
0.0188296 0.202106 0
0.0331884 0.205447 0
0.0472419 0.209979 0.00593576
0.0609903 0.215076 0.0136263
0.0738994 0.221134 0.0194705
0.0865797 0.227817 0.0226596
0.103243 0.234012 0.0247044
0.128374 0.238849 0.0259098
0.161929 0.242039 0.0263371
0.203754 0.242802 0.0256046
0.251759 0.241627 0.0237888
0.30277 0.239811 0.0218662
0.353384 0.239109 0.0211795
0.401328 0.240513 0.0224155
0.448676 0.243305 0.0249485
0.497932 0.245869 0.0279088
0.548043 0.247166 0.0310521
0.597467 0.247349 0.0342718
0.644663 0.246998 0.0377661
0.689067 0.246616 0.0414282
0.731106 0.246998 0.0462654
0.770886 0.247517 0.051133
0.809155 0.248493 0.0559854
0.846387 0.24976 0.0613565
0.882582 0.25127 0.0667124
0.918532 0.252995 0.072221
0.953109 0.254398 0.076936
0.987808 0.255589 0.0816205
1 0.256809 0.0863508
1 0.257923 0.0908827
1 0.259556 0.0955978
1 0.260777 0.10013
1 0.261982 0.104631
0.0162661 0.245686 0
0.0316777 0.249805 0
0.0474556 0.254383 0.0027924
0.0642557 0.259648 0.0111391
0.0823072 0.265583 0.0178836
0.098558 0.27245 0.0222019
0.116564 0.279255 0.0247654
0.140139 0.285115 0.0265202
0.171221 0.289754 0.0273899
0.210544 0.292805 0.027512
0.256626 0.294255 0.0272068
0.306127 0.294774 0.0265354
0.356176 0.295003 0.0260929
0.403449 0.296025 0.0267796
0.450034 0.298131 0.0285801
0.498024 0.300267 0.030808
0.546487 0.301472 0.0331579
0.5944 0.301503 0.035172
0.640818 0.300725 0.0378729
0.68481 0.299733 0.0411231
0.726482 0.299351 0.0449683
0.766491 0.299306 0.0493782
0.804654 0.299199 0.0538338
0.841459 0.299382 0.0582742
0.877668 0.299733 0.0629129
0.913375 0.300481 0.0679637
0.948562 0.30132 0.0729229
0.983276 0.302159 0.077409
1 0.302907 0.0820325
1 0.303578 0.0866255
1 0.304448 0.0913558
1 0.305837 0.0961776
1 0.306905 0.100877
0.0171969 0.293385 0
0.0341802 0.298695 0
0.0521859 0.303746 0.00317388
0.0724193 0.308721 0.011841
0.0946517 0.313924 0.018555
0.116014 0.320119 0.0235294
0.136172 0.327474 0.0274662
0.159457 0.333913 0.0299077
0.188846 0.339178 0.0311131
0.225666 0.342947 0.0317693
0.268925 0.345449 0.0315709
0.31606 0.347234 0.0312963
0.363363 0.348943 0.0313725
0.408453 0.350866 0.032105
0.453574 0.352453 0.03299
0.49987 0.35346 0.0339055
0.546426 0.353918 0.0350958
0.592676 0.353506 0.036347
0.636912 0.352209 0.0376745
0.679057 0.350622 0.0392615
0.719768 0.349325 0.0419165
0.758999 0.348669 0.0454414
0.796735 0.348394 0.0491188
0.83386 0.348074 0.0532387
0.870024 0.348028 0.0576181
0.905409 0.348287 0.0619364
0.941207 0.348882 0.0669108
0.976425 0.34934 0.0716564
1 0.349859 0.0763104
1 0.350484 0.0807507
1 0.351217 0.0855726
1 0.352178 0.0905928
1 0.353185 0.0954147
0.0242161 0.344167 0
0.0420233 0.350011 0
0.0623484 0.355322 0.00801099
0.0873121 0.360082 0.0166476
0.113725 0.364614 0.0233921
0.138933 0.369863 0.028687
0.161852 0.37612 0.0328832
0.185016 0.382574 0.0359808
0.213214 0.388083 0.0376745
0.247837 0.392142 0.0385901
0.28777 0.394659 0.0381476
0.331304 0.396262 0.0374304
0.375875 0.397543 0.0370947
0.419043 0.398825 0.0372015
0.462058 0.39971 0.037171
0.505348 0.400336 0.0371557
0.549203 0.40058 0.0372778
0.592844 0.400229 0.0376135
0.635508 0.399527 0.0385595
0.676539 0.398077 0.0396124
0.71577 0.396994 0.0414435
0.753841 0.396216 0.0437018
0.791318 0.395895 0.0470283
0.827939 0.395712 0.0506905
0.86363 0.395773 0.0543679
0.899474 0.39585 0.0585489
0.934829 0.396124 0.0629435
0.970199 0.396887 0.0675212
1 0.397208 0.0719158
1 0.397513 0.0763714
1 0.398062 0.0807965
1 0.398642 0.0854047
1 0.399634 0.0903944
0.0359503 0.396109 0
0.055314 0.402411 0.00723278
0.0783551 0.407507 0.0169985
0.106737 0.411307 0.0247807
0.136767 0.414832 0.0309758
0.165957 0.419226 0.0362402
0.191531 0.424231 0.0403296
0.215641 0.429801 0.0430304
0.241901 0.434852 0.0446326
0.272953 0.438575 0.0450599
0.308965 0.440742 0.0440528
0.348608 0.441978 0.0426947
0.388754 0.442573 0.0414282
0.429511 0.443153 0.0408179
0.470909 0.443748 0.040589
0.512673 0.444419 0.0403296
0.55462 0.445014 0.0402686
0.596124 0.445136 0.0404517
0.636973 0.44448 0.0407568
0.676753 0.443961 0.0416419
0.714961 0.443275 0.043183
0.752316 0.442802 0.045304
0.788846 0.442496 0.0479591
0.825177 0.442618 0.0512398
0.860945 0.442603 0.0548257
0.896239 0.442679 0.0585794
0.931212 0.442908 0.0624399
0.966751 0.443107 0.0666514
1 0.443595 0.0708782
1 0.443702 0.074876
1 0.443931 0.0791028
1 0.444175 0.0833906
1 0.444724 0.087602
0.0485847 0.447959 0.00576791
0.0696727 0.453819 0.0165103
0.0961013 0.458061 0.0252232
0.127642 0.461219 0.0322271
0.160357 0.463706 0.0376593
0.191669 0.466514 0.0419013
0.22031 0.469856 0.0450752
0.245335 0.473976 0.0471809
0.270146 0.478386 0.048661
0.297841 0.481437 0.0483406
0.32961 0.483253 0.0469825
0.364904 0.484169 0.045243
0.40177 0.484977 0.0441749
0.440009 0.485924 0.0435492
0.479744 0.486641 0.0429694
0.520211 0.487633 0.0427558
0.560723 0.488731 0.0428626
0.601007 0.489448 0.043122
0.640452 0.489418 0.0435035
0.678782 0.489113 0.0441901
0.716152 0.489158 0.0456397
0.752346 0.488975 0.0473793
0.787976 0.488869 0.0497444
0.823377 0.488853 0.052491
0.858549 0.489235 0.0557565
0.893553 0.489235 0.0592203
0.928542 0.489189 0.0628519
0.963226 0.489235 0.0664073
0.998505 0.489357 0.0702983
1 0.489265 0.0743267
1 0.489265 0.0780194
1 0.489143 0.0819867
1 0.489052 0.0859388
0.0598154 0.497627 0.0137331
0.0827649 0.503075 0.0237278
0.112306 0.506081 0.0311437
0.146059 0.507561 0.0365759
0.18085 0.508736 0.0407874
0.215198 0.510369 0.0442359
0.246616 0.512795 0.0469215
0.273564 0.516258 0.049073
0.298695 0.520119 0.0505531
0.324147 0.523812 0.0508736
0.352224 0.526757 0.0504921
0.383581 0.528862 0.0499275
0.416373 0.530175 0.0488594
0.451957 0.530831 0.0477455
0.489647 0.531243 0.0467689
0.528878 0.531868 0.0463417
0.568368 0.53286 0.0464332
0.607141 0.533486 0.0465248
0.645289 0.533822 0.0467994
0.68246 0.533928 0.0473793
0.718425 0.533989 0.0483558
0.753887 0.534356 0.0500496
0.78822 0.534508 0.0517739
0.822568 0.534585 0.0539864
0.856733 0.534707 0.0566567
0.891249 0.535027 0.0598764
0.925246 0.535042 0.0628367
0.959625 0.534829 0.0661479
0.99443 0.534478 0.0694896
1 0.534264 0.0728008
1 0.533989 0.0764172
1 0.533501 0.0800336
1 0.533089 0.0833753
0.0687266 0.542611 0.0183871
0.0944076 0.547585 0.027451
0.126986 0.550042 0.0339971
0.163256 0.55111 0.0388037
0.20087 0.551675 0.0424201
0.237324 0.552575 0.045243
0.271138 0.554253 0.0479133
0.30103 0.55726 0.050248
0.32726 0.561181 0.0523995
0.351568 0.565362 0.0534676
0.376959 0.569131 0.0541848
0.404242 0.572335 0.0541848
0.434302 0.574777 0.0539406
0.467292 0.576257 0.0532998
0.502556 0.576669 0.0521859
0.539406 0.576699 0.0512551
0.577295 0.576654 0.0505684
0.615137 0.577188 0.0506447
0.651957 0.577447 0.05066
0.687739 0.577661 0.0510109
0.722408 0.57792 0.0517281
0.756222 0.578225 0.0528267
0.78996 0.578775 0.0545663
0.823178 0.578927 0.0563058
0.855955 0.579141 0.0581369
0.889189 0.579156 0.0604562
0.922698 0.579461 0.0633402
0.956374 0.579156 0.0659953
0.990066 0.578744 0.068574
1 0.577951 0.0712749
1 0.577493 0.0744793
1 0.576852 0.077348
1 0.576043 0.0803845
0.0771954 0.585016 0.0221714
0.105638 0.588998 0.0301366
0.141009 0.59115 0.0360418
0.180163 0.592523 0.0408179
0.220401 0.593072 0.0442359
0.259754 0.593744 0.047013
0.295933 0.595193 0.0497597
0.32784 0.597711 0.0522469
0.354543 0.601419 0.0547189
0.378286 0.605753 0.0563363
0.401709 0.61033 0.0580301
0.426673 0.613947 0.0585031
0.454032 0.61677 0.0585336
0.484459 0.618585 0.0580606
0.517723 0.619684 0.0575418
0.552316 0.620005 0.0567636
0.588129 0.619837 0.0558938
0.624201 0.619715 0.055314
0.659876 0.619883 0.0551614
0.69427 0.620081 0.0551614
0.727626 0.62031 0.0556191
0.760357 0.620661 0.0563516
0.792676 0.620996 0.0573587
0.82501 0.62153 0.0589456
0.856779 0.621683 0.0604105
0.888838 0.621668 0.0620737
0.920775 0.621653 0.0637675
0.953689 0.621637 0.0661173
0.986557 0.621134 0.0682841
1 0.620233 0.0701152
1 0.619257 0.0722972
1 0.618463 0.074876
1 0.617411 0.0771344
0.0873579 0.626734 0.0267185
0.118853 0.630014 0.0339055
0.156329 0.631647 0.0392767
0.197208 0.632319 0.0433661
0.239796 0.632807 0.0467536
0.281544 0.633234 0.0493935
0.319966 0.634623 0.0522927
0.353155 0.637003 0.0551308
0.380819 0.640574 0.0579538
0.404288 0.644953 0.0601358
0.426581 0.649256 0.0618143
0.449744 0.653208 0.0629129
0.475181 0.656306 0.0632792
0.503288 0.658106 0.0628367
0.533578 0.659052 0.06215
0.566262 0.659617 0.0613718
0.599954 0.659632 0.0603647
0.634134 0.659709 0.0597238
0.668406 0.659876 0.0594492
0.702007 0.660365 0.059678
0.734417 0.660685 0.0600137
0.76582 0.661051 0.0603037
0.796841 0.661433 0.0609293
0.827756 0.661707 0.0618296
0.858839 0.662135 0.0630655
0.889693 0.662074 0.0641184
0.920607 0.661875 0.0653544
0.952026 0.661509 0.0666819
0.98407 0.661234 0.0682689
1 0.660273 0.0696269
1 0.659129 0.0711376
1 0.657908 0.0725261
1 0.656748 0.0744793
0.100542 0.667735 0.0324559
0.134401 0.670405 0.0388952
0.173861 0.671504 0.0436561
0.216571 0.671672 0.0472419
0.260578 0.671397 0.0499733
0.303181 0.671366 0.0524758
0.342473 0.672297 0.055436
0.376532 0.67454 0.0585184
0.404776 0.677943 0.061677
0.42916 0.682017 0.0641642
0.45127 0.686244 0.0660105
0.473457 0.689967 0.0673533
0.497154 0.693172 0.0680095
0.523262 0.695338 0.0678416
0.551507 0.696544 0.0671855
0.581781 0.697108 0.0662089
0.613657 0.697643 0.0654154
0.645838 0.697871 0.0646525
0.678325 0.698161 0.0641642
0.710567 0.698451 0.0640421
0.742046 0.699001 0.0644083
0.772564 0.699275 0.064622
0.802594 0.699489 0.0649424
0.832303 0.699733 0.0653697
0.861967 0.69987 0.0658579
0.89189 0.700084 0.0667582
0.921752 0.699794 0.0674144
0.95201 0.69926 0.0681468
0.982773 0.698543 0.068925
1 0.697902 0.0697948
1 0.696681 0.0705882
1 0.695384 0.0715496
1 0.693843 0.0726177
0.115663 0.707744 0.0394141
0.151888 0.709667 0.0450446
0.192721 0.710262 0.0492103
0.236957 0.709834 0.0521706
0.282261 0.709056 0.0544747
0.326085 0.708553 0.0567025
0.36527 0.709056 0.0595254
0.399069 0.710811 0.0626078
0.428275 0.713878 0.0657816
0.453696 0.717525 0.0686198
0.476295 0.72134 0.0706035
0.497993 0.724834 0.0720378
0.520058 0.727794 0.0725719
0.544335 0.730297 0.0728008
0.570474 0.731792 0.072221
0.59884 0.732616 0.071458
0.628244 0.733166 0.0704509
0.658808 0.733806 0.0698253
0.689479 0.734173 0.0691386
0.719982 0.734585 0.0688029
0.750118 0.73492 0.0687266
0.779919 0.735332 0.0689403
0.808972 0.735439 0.0689708
0.837736 0.735454 0.0690776
0.866438 0.735424 0.0693065
0.89514 0.735332 0.0694896
0.924269 0.735302 0.0699474
0.953567 0.734752 0.0702678
0.98323 0.73402 0.0705577
1 0.732921 0.0707408
1 0.732036 0.0713817
1 0.7308 0.0716869
1 0.72932 0.072282
0.13254 0.746471 0.0469825
0.170672 0.747692 0.0518502
0.213352 0.747539 0.0552834
0.258808 0.746395 0.0575723
0.304585 0.744945 0.0593271
0.347875 0.743969 0.061387
0.386847 0.744015 0.0639506
0.420279 0.745586 0.0671397
0.450614 0.748012 0.0699626
0.47747 0.751247 0.0728008
0.501442 0.75491 0.0750439
0.523262 0.758373 0.0765545
0.544564 0.761425 0.0775616
0.566934 0.76376 0.0776684
0.591318 0.765698 0.0774395
0.617136 0.766735 0.0767987
0.644282 0.767407 0.075761
0.672496 0.767803 0.0747387
0.701411 0.768368 0.074052
0.730068 0.768704 0.0734112
0.758679 0.768978 0.0729839
0.787259 0.769116 0.0727855
0.815824 0.76936 0.0728008
0.843854 0.769284 0.0726177
0.871702 0.769162 0.0725719
0.899626 0.768978 0.0725567
0.927657 0.768688 0.0726177
0.956237 0.76846 0.0728313
0.985138 0.767727 0.0727092
1 0.766644 0.0725261
1 0.76553 0.0725872
1 0.764477 0.0729381
1 0.763058 0.0730755
0.150683 0.783856 0.054612
0.19057 0.784207 0.0585946
0.234607 0.783337 0.0613107
0.280735 0.781613 0.0630655
0.32665 0.779568 0.064332
0.369574 0.778058 0.066041
0.407355 0.777951 0.0686198
0.441276 0.779049 0.0715496
0.472221 0.781018 0.0741741
0.500206 0.78352 0.0763867
0.525139 0.786465 0.0785534
0.547433 0.789944 0.0804303
0.568597 0.792905 0.0816358
0.589715 0.795453 0.0819409
0.612039 0.79736 0.0816968
0.635981 0.798901 0.0814374
0.66099 0.799771 0.0804761
0.686946 0.800305 0.0794232
0.713481 0.800702 0.0784772
0.740734 0.801221 0.077821
0.767819 0.801419 0.0771191
0.795285 0.801495 0.0766155
0.82269 0.801511 0.0762493
0.850217 0.801678 0.0761883
0.877348 0.801511 0.0759442
0.90457 0.801266 0.0756847
0.931991 0.800931 0.0754711
0.959792 0.800427 0.0753033
0.988281 0.799939 0.0752575
1 0.798962 0.0747387
1 0.797894 0.0744335
1 0.796674 0.0742504
1 0.795514 0.0743267
0.169039 0.819501 0.0616312
0.210132 0.819089 0.0648966
0.255406 0.817365 0.0668803
0.302358 0.814878 0.0679942
0.347982 0.812451 0.0686961
0.389883 0.810803 0.0703593
0.427192 0.810407 0.0728008
0.461189 0.811124 0.0754864
0.493126 0.812528 0.0777447
0.522194 0.814435 0.0797284
0.547951 0.816709 0.0816205
0.570306 0.819486 0.0831617
0.591516 0.822507 0.0845655
0.611765 0.825116 0.0852522
0.632502 0.827268 0.0852369
0.654551 0.82887 0.084947
0.677821 0.830259 0.0844434
0.701885 0.831159 0.0835737
0.726543 0.831769 0.0826734
0.751812 0.832151 0.0817426
0.7776 0.832609 0.0811322
0.803708 0.832654 0.0803998
0.830014 0.832685 0.0798352
0.85658 0.832609 0.0793927
0.883406 0.832685 0.0792554
0.910033 0.83241 0.0788739
0.936873 0.832044 0.0784466
0.964019 0.831556 0.0780346
0.991669 0.830884 0.0776379
1 0.830121 0.0772412
1 0.829099 0.0767529
1 0.82797 0.0762188
1 0.826673 0.0757916
0.187564 0.853956 0.0682383
0.230137 0.852628 0.0705272
0.27631 0.850019 0.0715648
0.323537 0.846952 0.0720836
0.368795 0.844373 0.0727245
0.409781 0.842557 0.0742351
0.446204 0.841749 0.0764477
0.480201 0.84155 0.0785992
0.513573 0.84271 0.0805982
0.542885 0.843992 0.0823377
0.569375 0.845747 0.0839551
0.59234 0.848035 0.0854963
0.613123 0.850629 0.0866255
0.633234 0.853391 0.0877852
0.652689 0.855741 0.0881666
0.673106 0.857603 0.0879683
0.69424 0.859052 0.0876631
0.716518 0.860426 0.0871595
0.739666 0.861219 0.0862898
0.76321 0.861891 0.085481
0.787579 0.862287 0.084596
0.812757 0.862699 0.0840314
0.837934 0.86276 0.0833906
0.863569 0.862745 0.0827802
0.889677 0.862593 0.0822003
0.916014 0.862577 0.0819409
0.942321 0.862242 0.0814221
0.968963 0.861723 0.0808423
0.996094 0.861067 0.080293
1 0.860182 0.0795758
1 0.859449 0.0791485
1 0.858351 0.078584
1 0.85713 0.0779889
0.206012 0.886641 0.0737163
0.249928 0.884596 0.0752117
0.296666 0.881544 0.0756542
0.344106 0.878065 0.0755932
0.389029 0.875135 0.0759136
0.429129 0.873259 0.0774243
0.465934 0.872312 0.0796521
0.500465 0.87155 0.0813001
0.532876 0.871534 0.0827192
0.562814 0.872312 0.0842145
0.589731 0.873747 0.0857252
0.613199 0.875715 0.0873121
0.634195 0.878019 0.0884871
0.65359 0.880476 0.0896468
0.672511 0.883146 0.0905165
0.691218 0.885328 0.0907912
0.710948 0.887037 0.0907759
0.731426 0.888441 0.0902571
0.752926 0.889799 0.0898451
0.775204 0.890654 0.0890211
0.798306 0.891249 0.0881666
0.821973 0.891615 0.0874189
0.846433 0.892027 0.0868238
0.871 0.892088 0.0860609
0.89633 0.891981 0.0853742
0.92195 0.891768 0.0848554
0.948089 0.891661 0.0844739
0.974258 0.891234 0.0837568
1 0.890608 0.0830091
1 0.889738 0.0821698
1 0.888899 0.0814679
1 0.88809 0.0809796
1 0.886961 0.0802625
0.223743 0.917723 0.0780652
0.268605 0.914916 0.0787823
0.316304 0.911208 0.0785687
0.363607 0.907423 0.0781872
0.407584 0.904402 0.0783703
0.447089 0.902495 0.0798505
0.484154 0.901137 0.0816663
0.519356 0.900191 0.0831311
0.552361 0.899825 0.0844282
0.582406 0.900145 0.0857404
0.609445 0.901076 0.0871443
0.633143 0.902678 0.088716
0.654124 0.904784 0.090013
0.673228 0.907149 0.0911421
0.691264 0.909575 0.0922866
0.709239 0.912139 0.09308
0.727306 0.914199 0.0934157
0.746441 0.915877 0.0933089
0.766278 0.917281 0.0928359
0.787396 0.918593 0.0923629
0.809216 0.919432 0.0915999
0.831815 0.920012 0.0908217
0.855039 0.920378 0.0899519
0.878935 0.92079 0.0892958
0.903334 0.920775 0.088426
0.928222 0.920653 0.0877089
0.953689 0.920378 0.087068
0.979812 0.92015 0.0865797
1 0.919554 0.0857862
1 0.918746 0.0848859
1 0.917998 0.0839704
1 0.917144 0.083238
1 0.916289 0.0826429
0.241047 0.947463 0.0813458
0.287205 0.943847 0.0812543
0.334966 0.939773 0.0806744
0.381704 0.935866 0.0801556
0.424414 0.93286 0.0803845
0.463264 0.930632 0.0816663
0.499733 0.928695 0.0830243
0.533761 0.926955 0.0840772
0.565652 0.926085 0.0852369
