luts/stills/general/KA_MAGic.cube
TITLE "Generated by Resolve"
LUT_3D_SIZE 5
0.0409705 0.057969 0.0340276
0.162524 0.0417487 0.0263066
0.477195 0 0
0.731182 0 0
0.969604 0 0
0.0233616 0.164462 0
0.159915 0.195895 0.0256046
0.549966 0.194278 0.0283665
0.88098 0.202686 0.0647898
1 0.218921 0.104463
0.0687266 0.542611 0.0183871
0.32726 0.561181 0.0523995
0.577295 0.576654 0.0505684
0.855955 0.579141 0.0581369
1 0.576043 0.0803845
0.187564 0.853956 0.0682383
0.513573 0.84271 0.0805982
0.69424 0.859052 0.0876631
0.889677 0.862593 0.0822003
1 0.85713 0.0779889
0.322484 1 0.0839094
0.644587 1 0.0845502
0.820035 1 0.101732
0.953826 1 0.107485
1 1 0.0990005
0.0487526 0.053193 0.134218
0.143984 0.0427405 0.129641
0.443488 0 0.0981613
0.71017 0 0.10338
0.953338 0 0.143526
0.0106508 0.159426 0.150973
0.168338 0.191867 0.149783
0.555856 0.183291 0.178988
0.881056 0.207721 0.24715
1 0.224582 0.307057
0.0281682 0.533028 0.115724
0.303777 0.548196 0.171389
0.568719 0.552682 0.211734
0.883589 0.568689 0.241123
1 0.563577 0.289784
0.121965 0.873518 0.172183
0.492332 0.861753 0.24773
0.730678 0.849714 0.34461
0.898589 0.857282 0.333944
1 0.848661 0.302037
0.225208 1 0.199573
0.606394 1 0.260227
0.844297 1 0.374441
0.971237 1 0.431968
1 1 0.404334
0.0382391 0.0292821 0.481483
0.157794 0.014313 0.448966
0.424216 0 0.423453
0.683497 0 0.428946
0.925734 0 0.479591
0.0321508 0.156878 0.575525
0.241459 0.19968 0.546548
0.532143 0.181781 0.528481
0.843671 0.197116 0.590249
1 0.216938 0.663218
0.0107118 0.478248 0.574838
0.191012 0.519463 0.580224
0.544625 0.512795 0.535973
0.854368 0.523232 0.58085
1 0.543832 0.65275
0.0510872 0.805493 0.577478
0.305745 0.850324 0.583001
0.684352 0.815137 0.586099
0.86392 0.813626 0.616526
1 0.820035 0.638895
0.11397 1 0.569574
0.476173 1 0.585718
0.819364 1 0.660136
0.99736 1 0.734478
1 1 0.721386
0.0306249 0.00952163 0.760464
0.193957 0 0.720317
0.44094 0 0.692912
0.6851 0 0.696376
0.921675 0 0.729763
0.0614786 0.170443 0.869978
0.339925 0.220951 0.865644
0.61471 0.214252 0.841215
0.846906 0.198795 0.855833
1 0.216831 0.904601
0.0468605 0.486717 0.903899
0.314611 0.538216 0.914031
0.64332 0.54873 0.87068
0.841215 0.516014 0.848341
1 0.529107 0.897383
0.0535744 0.776303 0.913039
0.23299 0.803174 0.919127
0.569528 0.781888 0.872786
0.835111 0.774701 0.838987
1 0.779751 0.869688
0.088365 1 0.913146
0.271244 1 0.912108
0.668849 1 0.873991
0.949248 1 0.887724
1 1 0.903181
0.0264286 0 0.990768
0.234791 0 0.934462
0.489265 0 0.9066
0.706615 0 0.923384
0.935454 0 0.957626
0.0933089 0.179782 1
0.405722 0.219852 1
0.697673 0.235859 1
0.88864 0.216434 1
1 0.221057 1
0.0910201 0.513069 1
0.421683 0.557595 1
0.737469 0.589181 1
0.914031 0.564721 1
1 0.526436 1
0.0787671 0.779019 1
0.323659 0.79823 1
0.687404 0.803464 1
0.919692 0.812421 1
1 0.768383 1
0.0833906 1 1
0.265385 1 1
0.591852 0.987686 1
0.84831 0.977066 1
1 0.975891 1
