luts/stills/general/KA_MAGic.cube
TITLE "Generated by Resolve"
LUT_3D_SIZE 9
0.0409705 0.057969 0.0340276
0.0773175 0.0573129 0.0376898
0.162524 0.0417487 0.0263066
0.325795 0.00526436 0
0.477195 0 0
0.614343 0 0
0.731182 0 0
0.84686 0 0
0.969604 0 0
0.0479133 0.0877394 0.030518
0.0734417 0.0897383 0.0355535
0.161135 0.0795758 0.0269017
0.348363 0.0482338 0.00149538
0.522026 0.0353246 0
0.677668 0.0293278 0
0.81297 0.0341039 0.00357061
0.944747 0.0444343 0.0187381
1 0.0577554 0.0369726
0.0233616 0.164462 0
0.0691691 0.181598 0.0216068
0.159915 0.195895 0.0256046
0.352483 0.188434 0.018204
0.549966 0.194278 0.0283665
0.730617 0.194888 0.0433814
0.88098 0.202686 0.0647898
1 0.211795 0.0859541
1 0.218921 0.104463
0.0242161 0.344167 0
0.113725 0.364614 0.0233921
0.213214 0.388083 0.0376745
0.375875 0.397543 0.0370947
0.549203 0.40058 0.0372778
0.71577 0.396994 0.0414435
0.86363 0.395773 0.0543679
1 0.397208 0.0719158
1 0.399634 0.0903944
0.0687266 0.542611 0.0183871
0.20087 0.551675 0.0424201
0.32726 0.561181 0.0523995
0.434302 0.574777 0.0539406
0.577295 0.576654 0.0505684
0.722408 0.57792 0.0517281
0.855955 0.579141 0.0581369
0.990066 0.578744 0.068574
1 0.576043 0.0803845
0.115663 0.707744 0.0394141
0.282261 0.709056 0.0544747
0.428275 0.713878 0.0657816
0.520058 0.727794 0.0725719
0.628244 0.733166 0.0704509
0.750118 0.73492 0.0687266
0.866438 0.735424 0.0693065
0.98323 0.73402 0.0705577
1 0.72932 0.072282
0.187564 0.853956 0.0682383
0.368795 0.844373 0.0727245
0.513573 0.84271 0.0805982
0.613123 0.850629 0.0866255
0.69424 0.859052 0.0876631
0.787579 0.862287 0.084596
0.889677 0.862593 0.0822003
0.996094 0.861067 0.080293
1 0.85713 0.0779889
0.25832 0.975998 0.0835279
0.440558 0.960479 0.0817273
0.579492 0.952163 0.0857099
0.690089 0.956802 0.0917678
0.75967 0.966812 0.0973373
0.831922 0.974029 0.0974136
0.918395 0.976867 0.0943618
1 0.976303 0.0906996
1 0.973831 0.0874189
0.322484 1 0.0839094
0.498314 1 0.0816052
0.644587 1 0.0845502
0.750103 1 0.0915541
0.820035 1 0.101732
0.88069 1 0.108125
0.953826 1 0.107485
1 1 0.103532
1 1 0.0990005
0.0457923 0.0564889 0.0694743
0.075761 0.0576486 0.0710307
0.148135 0.045182 0.0632792
0.308797 0.00892653 0.0319371
0.462303 0 0.00595102
0.603967 0 0
0.724697 0 0
0.842374 0 0
0.966308 0 0
0.0411994 0.0879377 0.0726024
0.0754711 0.0886854 0.0701915
0.165682 0.0772564 0.0637064
0.341772 0.0523384 0.0428779
0.51368 0.0407416 0.0363165
0.673961 0.0373083 0.0379187
0.811139 0.0431525 0.0496071
0.943404 0.0544442 0.067277
1 0.0683757 0.0880446
0.00665293 0.168383 0.0280156
0.0728008 0.181064 0.0555581
0.1608 0.194507 0.0683146
0.362676 0.188373 0.0649882
0.56553 0.186984 0.0740826
0.743557 0.196841 0.092607
0.889998 0.207248 0.115023
1 0.21738 0.137179
1 0.22472 0.157244
0.0101015 0.347143 0.0153964
0.0990768 0.366461 0.0554971
0.226566 0.374334 0.0750896
0.373434 0.38703 0.0761578
0.55668 0.39173 0.0779126
0.735805 0.394324 0.0873884
0.884123 0.394446 0.104311
1 0.39704 0.124422
1 0.400778 0.144823
0.0550698 0.552026 0.0491951
0.176516 0.561715 0.0773022
0.340032 0.552316 0.0877852
0.441123 0.565286 0.0977646
0.583398 0.574044 0.0960861
0.736385 0.580621 0.0986648
0.873976 0.580484 0.105882
1 0.577371 0.117922
1 0.573816 0.132296
0.0965286 0.722301 0.0751507
0.262608 0.728542 0.0947127
0.440299 0.721065 0.107179
0.550729 0.727871 0.132677
0.645136 0.737179 0.137499
0.762387 0.738979 0.129152
0.878035 0.738689 0.123583
0.996414 0.73518 0.120333
1 0.728206 0.121614
0.158495 0.870832 0.106844
0.346242 0.86305 0.112581
0.517372 0.85272 0.123629
0.641001 0.85153 0.153033
0.71606 0.859709 0.175204
0.799146 0.863981 0.16968
0.898695 0.864515 0.158343
1 0.862409 0.147738
1 0.857511 0.138231
0.222156 0.993576 0.122774
0.4177 0.976638 0.119982
0.579858 0.963287 0.130068
0.705013 0.958099 0.160784
0.782483 0.964843 0.197559
0.845487 0.972961 0.209461
0.926619 0.976608 0.200076
1 0.976257 0.186191
1 0.973739 0.173037
0.281743 1 0.123659
0.473167 1 0.11957
0.628443 1 0.130495
0.749874 1 0.161975
0.838819 1 0.208942
0.897139 1 0.239948
0.963378 1 0.243229
1 1 0.231037
1 1 0.215839
0.0487526 0.053193 0.134218
0.0776684 0.0546883 0.127886
0.143984 0.0427405 0.129641
0.293263 0.00894179 0.110155
0.443488 0 0.0981613
0.586435 0 0.0949569
0.71017 0 0.10338
0.829068 0 0.120546
0.953338 0 0.143526
0.04477 0.081651 0.17055
0.0801099 0.0862745 0.143816
0.154437 0.079942 0.138338
0.322179 0.0573587 0.133379
0.494347 0.0422827 0.137774
0.659541 0.0390326 0.157595
0.799847 0.0448768 0.183474
0.933288 0.0564889 0.214664
1 0.0695811 0.247745
0.0106508 0.159426 0.150973
0.0647746 0.17966 0.15375
0.168338 0.191867 0.149783
0.367361 0.181765 0.158175
0.555856 0.183291 0.178988
0.732311 0.194385 0.211444
0.881056 0.207721 0.24715
1 0.217655 0.278157
1 0.224582 0.307057
0 0.326207 0.109117
0.0641184 0.363012 0.123445
0.217273 0.366964 0.148318
0.364965 0.372488 0.169406
0.559991 0.374136 0.176593
0.738231 0.374914 0.204334
0.8878 0.385901 0.242618
1 0.391104 0.273457
1 0.395438 0.302922
0.0281682 0.533028 0.115724
0.121904 0.564645 0.149081
0.303777 0.548196 0.171389
0.441382 0.54107 0.208667
0.568719 0.552682 0.211734
0.731792 0.560754 0.216236
0.883589 0.568689 0.241123
1 0.566583 0.265309
1 0.563577 0.289784
0.0695354 0.715633 0.136355
0.207477 0.740963 0.184573
0.406455 0.723064 0.21178
0.549249 0.70985 0.253223
0.637171 0.717357 0.281117
0.755383 0.725139 0.277012
0.879667 0.730755 0.275914
1 0.726406 0.270756
1 0.717128 0.275425
0.121965 0.873518 0.172183
0.294148 0.877516 0.209705
0.492332 0.861753 0.24773
0.642283 0.848539 0.296834
0.730678 0.849714 0.34461
0.802319 0.856504 0.350317
0.898589 0.857282 0.333944
1 0.855207 0.317433
1 0.848661 0.302037
0.172366 1 0.194003
0.369345 0.98999 0.22005
0.553384 0.972168 0.257115
0.700648 0.958679 0.309224
0.796811 0.957839 0.367453
0.856062 0.965728 0.39646
0.928771 0.969863 0.389319
1 0.969207 0.371557
1 0.965866 0.353567
0.225208 1 0.199573
0.431113 1 0.221683
0.606394 1 0.260227
0.74464 1 0.313726
0.844297 1 0.374441
0.911955 1 0.419486
0.971237 1 0.431968
1 1 0.420645
1 1 0.404334
0.0436103 0.0415045 0.307088
0.0742657 0.0434119 0.289067
0.14522 0.029572 0.289326
0.28603 0 0.273213
0.429297 0 0.261555
0.568612 0 0.263355
0.693248 0 0.278035
0.812573 0 0.298741
0.938079 0 0.324132
0.0415045 0.0701915 0.361837
0.0803998 0.0774395 0.332052
0.169268 0.0717784 0.307774
0.315541 0.0525521 0.303456
0.47805 0.0402991 0.311269
0.638666 0.0352941 0.332555
0.782193 0.0421759 0.364706
0.917052 0.0548409 0.398795
1 0.0686961 0.432364
0.017731 0.15198 0.37673
0.0778058 0.178286 0.375082
0.196063 0.190249 0.345525
0.352499 0.183062 0.338643
0.533394 0.180758 0.362509
0.707256 0.18677 0.393317
0.862318 0.201785 0.437995
0.999283 0.212146 0.472221
1 0.219837 0.502266
0 0.307454 0.355184
0.0583505 0.340124 0.368704
0.176333 0.360296 0.368872
0.36492 0.359976 0.347219
0.553567 0.355474 0.364614
0.719051 0.359701 0.389563
0.868986 0.373083 0.42858
1 0.383932 0.463432
1 0.390082 0.49073
0.0069276 0.494072 0.355947
0.073228 0.527459 0.36286
0.211856 0.542565 0.348882
0.420432 0.523415 0.35108
0.548424 0.527001 0.375814
0.724086 0.531929 0.388128
0.87483 0.540017 0.425086
1 0.551034 0.462211
1 0.551308 0.486061
0.0311131 0.674525 0.345296
0.117479 0.717968 0.367315
0.321157 0.719707 0.372305
0.506645 0.696895 0.389471
0.626169 0.687587 0.424933
0.732631 0.696681 0.426459
0.864027 0.704112 0.431815
1 0.708782 0.453468
1 0.700877 0.468101
0.0819409 0.844038 0.357168
0.20119 0.874479 0.389883
0.430793 0.864775 0.413916
0.604517 0.844511 0.43946
0.723003 0.829236 0.472816
0.7888 0.833951 0.493507
0.887053 0.840452 0.490318
1 0.844312 0.489097
1 0.836835 0.480507
0.123247 0.987289 0.370031
0.280781 0.99379 0.398306
0.499779 0.977295 0.426566
0.674891 0.962966 0.46627
0.795987 0.953841 0.512825
0.86833 0.956466 0.553536
0.931456 0.962814 0.557595
1 0.962051 0.541161
1 0.95816 0.524742
0.157122 1 0.374365
0.353841 1 0.397498
0.55668 1 0.428748
0.72047 1 0.469963
0.840146 1 0.521447
0.926635 1 0.573693
0.983185 1 0.598856
1 1 0.590051
1 1 0.573632
0.0382391 0.0292821 0.481483
0.0715801 0.0304112 0.464454
0.157794 0.014313 0.448966
0.287999 0 0.437095
0.424216 0 0.423453
0.56109 0 0.417578
0.683497 0 0.428946
0.801617 0 0.45153
0.925734 0 0.479591
0.0397955 0.0615396 0.535775
0.0879683 0.0712596 0.517861
0.202289 0.0657664 0.489403
0.332174 0.0480201 0.474266
0.477226 0.0366217 0.473014
0.630991 0.033875 0.486366
0.770977 0.0414435 0.5178
0.904524 0.0544747 0.555581
1 0.0690318 0.59176
0.0321508 0.156878 0.575525
0.102556 0.19115 0.574258
0.241459 0.19968 0.546548
0.387366 0.189914 0.520241
0.532143 0.181781 0.528481
0.69723 0.186404 0.553094
0.843671 0.197116 0.590249
0.981567 0.208743 0.63093
1 0.216938 0.663218
0.00660716 0.307256 0.568841
0.0783703 0.344152 0.585458
0.225528 0.363745 0.578805
0.401022 0.364309 0.541314
0.539498 0.35584 0.534432
0.702342 0.35491 0.555764
0.846433 0.363943 0.58674
0.988037 0.376242 0.630732
1 0.383856 0.662379
0.0107118 0.478248 0.574838
0.0735027 0.506691 0.585458
0.191012 0.519463 0.580224
0.374029 0.514366 0.556725
0.544625 0.512795 0.535973
0.711955 0.512047 0.551247
0.854368 0.523232 0.58085
0.995529 0.537285 0.622797
1 0.543832 0.65275
0.0178836 0.642954 0.571664
0.0821088 0.67451 0.582086
0.2103 0.690135 0.573587
0.41593 0.685908 0.544182
0.60119 0.66833 0.544869
0.712154 0.670741 0.565667
0.85568 0.677623 0.578958
0.990707 0.682094 0.608774
1 0.685435 0.639963
0.0510872 0.805493 0.577478
0.122591 0.840467 0.58967
0.305745 0.850324 0.583001
0.524208 0.839109 0.575906
0.684352 0.815137 0.586099
0.777325 0.806012 0.616709
0.86392 0.813626 0.616526
0.983642 0.818799 0.618906
1 0.820035 0.638895
0.088365 0.952239 0.577401
0.179004 0.97969 0.589441
0.40499 0.973663 0.586892
0.617517 0.964767 0.609201
0.763745 0.947936 0.634546
0.859159 0.935225 0.664561
0.916381 0.939376 0.680369
1 0.945159 0.67686
1 0.948135 0.676158
0.11397 1 0.569574
0.245808 1 0.580133
0.476173 1 0.585718
0.67454 1 0.615915
0.819364 1 0.660136
0.92726 1 0.702205
0.99736 1 0.734478
1 1 0.73579
1 1 0.721386
0.0336919 0.0181888 0.635065
0.0722515 0.017731 0.622003
0.175128 0 0.597436
0.302144 0 0.581765
0.426902 0 0.572717
0.56022 0 0.566781
0.681819 0 0.573556
0.798016 0 0.589776
0.917021 0 0.61004
0.0384833 0.0538338 0.68629
0.100664 0.0654765 0.678477
0.238178 0.0622721 0.657771
0.371618 0.0497444 0.639063
0.492927 0.0370794 0.634333
0.635615 0.0340429 0.640757
0.770611 0.0426337 0.661677
0.899504 0.0560006 0.691554
1 0.0708782 0.725017
0.0467231 0.16437 0.73666
0.135027 0.202686 0.743618
0.294896 0.213733 0.726345
0.444831 0.210849 0.70454
0.559152 0.18999 0.694026
0.70103 0.186923 0.704143
0.83949 0.19678 0.729809
0.970397 0.206851 0.7626
1 0.215381 0.79472
0.0312505 0.319844 0.748302
0.119829 0.367254 0.770199
0.294408 0.385595 0.757198
0.453727 0.383566 0.72639
0.575341 0.367529 0.700496
0.702022 0.353826 0.704601
0.836942 0.359686 0.727138
0.970016 0.37023 0.760952
1 0.37969 0.795117
0.0255589 0.477928 0.752087
0.0916762 0.508125 0.767865
0.235615 0.519142 0.762814
0.428458 0.520668 0.742916
0.583093 0.520729 0.713054
0.703914 0.511116 0.70544
0.839551 0.516304 0.728283
0.970153 0.527321 0.755016
1 0.535851 0.790585
0.024033 0.632258 0.751888
0.0856489 0.659388 0.766033
0.207401 0.669337 0.762219
0.389258 0.662303 0.741085
0.554849 0.658228 0.722393
0.70573 0.656382 0.705165
0.841657 0.658381 0.719814
0.969009 0.666148 0.742947
1 0.672084 0.773663
0.0494087 0.78378 0.762188
0.104295 0.809277 0.777707
0.227466 0.818494 0.770336
0.415564 0.809842 0.743023
0.597879 0.803159 0.716594
0.753445 0.786465 0.714397
0.842832 0.788266 0.73051
0.971511 0.792508 0.738918
1 0.794568 0.761563
0.0774395 0.922057 0.766781
0.129458 0.947356 0.779538
0.282445 0.952239 0.766125
0.500114 0.947173 0.747448
0.695445 0.938689 0.742428
0.823728 0.919417 0.751736
0.903807 0.910918 0.774487
0.984558 0.917311 0.772961
1 0.921187 0.773114
0.0917067 1 0.761791
0.160662 1 0.768643
0.360525 1 0.750881
0.584131 1 0.7476
0.771984 1 0.771344
0.896681 1 0.794797
0.986786 1 0.81796
1 1 0.829099
1 1 0.826307
0.0306249 0.00952163 0.760464
0.0772412 0.00680552 0.749325
0.193957 0 0.720317
0.322728 0 0.700175
0.44094 0 0.692912
0.566186 0 0.690227
0.6851 0 0.696376
0.801389 0 0.710445
0.921675 0 0.729763
0.0400244 0.0490578 0.806119
0.115297 0.0601511 0.803769
0.266728 0.0577401 0.787594
0.410117 0.0526589 0.773953
0.526818 0.0425574 0.767956
0.650507 0.0376593 0.771603
0.777462 0.0457008 0.787823
0.904173 0.0601205 0.812253
1 0.074815 0.839399
0.0614786 0.170443 0.869978
0.163531 0.205386 0.875731
0.339925 0.220951 0.865644
0.496895 0.228412 0.85359
0.61471 0.214252 0.841215
0.723033 0.195621 0.840497
0.846906 0.198795 0.855833
0.971237 0.208286 0.878752
1 0.216831 0.904601
0.0562448 0.337392 0.896483
0.164614 0.38291 0.911101
0.352087 0.400763 0.897246
0.510292 0.405341 0.876631
0.636637 0.39617 0.852903
0.726757 0.365591 0.839185
0.841627 0.360464 0.848737
0.966522 0.369345 0.872679
1 0.377371 0.902556
0.0468605 0.486717 0.903899
0.128191 0.521172 0.920363
0.314611 0.538216 0.914031
0.501823 0.551019 0.897826
0.64332 0.54873 0.87068
0.740627 0.529839 0.845563
0.841215 0.516014 0.848341
0.964187 0.522423 0.870253
1 0.529107 0.897383
0.0387274 0.633021 0.901595
0.103975 0.660868 0.917144
0.249088 0.668803 0.912062
0.437705 0.665675 0.894179
0.610651 0.66775 0.877348
0.741131 0.666804 0.850584
0.83592 0.65594 0.841917
0.954711 0.658961 0.85745
1 0.662928 0.883604
0.0535744 0.776303 0.913039
0.110124 0.799207 0.92755
0.23299 0.803174 0.919127
0.409659 0.791012 0.894545
0.569528 0.781888 0.872786
0.713664 0.775555 0.853895
0.835111 0.774701 0.838987
0.955169 0.775723 0.8477
1 0.779751 0.869688
0.070161 0.906432 0.924147
0.121935 0.926268 0.93463
0.242222 0.928466 0.922698
0.423117 0.915862 0.895644
0.590936 0.907668 0.871
0.749401 0.903441 0.849912
0.879545 0.890394 0.850202
0.962036 0.891447 0.863325
1 0.895994 0.872892
0.088365 1 0.913146
0.133227 1 0.927779
0.271244 1 0.912108
0.469749 1 0.886213
0.668849 1 0.873991
0.833127 1 0.878431
0.949248 1 0.887724
1 1 0.906737
1 1 0.903181
0.0280308 0.00207523 0.877089
0.0865339 0 0.859663
0.214008 0 0.827893
0.344747 0 0.805829
0.463676 0 0.799878
0.58027 0 0.801114
0.692836 0 0.809583
0.805844 0 0.821744
0.913848 0 0.824369
0.0431525 0.0466316 0.928176
0.133806 0.0572061 0.921859
0.294759 0.0547036 0.904356
0.443275 0.0543832 0.89366
0.567758 0.0504311 0.889616
0.677852 0.0462043 0.893065
0.791608 0.0513771 0.906584
0.912367 0.0645762 0.92781
1 0.079408 0.952102
0.0771649 0.175479 0.995789
0.19324 0.206424 0.999039
0.373373 0.220325 0.988739
0.532448 0.231647 0.979431
0.662196 0.23006 0.97023
0.759884 0.212802 0.967575
0.862776 0.204959 0.975784
0.978607 0.210224 0.992981
1 0.21915 1
0.0792706 0.352026 1
0.202258 0.388342 1
0.388815 0.402167 1
0.552087 0.41474 1
0.688014 0.417884 0.99202
0.776471 0.396796 0.974868
0.861921 0.370474 0.972519
0.974044 0.370611 0.987457
1 0.3785 1
0.068574 0.499535 1
0.176593 0.534127 1
0.378393 0.552026 1
0.560342 0.572778 1
0.700786 0.577371 1
0.798825 0.567056 0.993332
0.865614 0.530739 0.972305
0.966766 0.522988 0.977966
1 0.526772 0.998581
0.0580911 0.639704 1
0.137926 0.66923 1
0.316869 0.676951 1
0.515114 0.687724 1
0.682292 0.697871 1
0.79324 0.694835 1
0.86894 0.674113 0.970336
0.956054 0.656535 0.967468
1 0.656916 0.982605
0.0632639 0.775021 1
0.125368 0.798093 1
0.267826 0.798688 1
0.448722 0.788907 1
0.61471 0.783612 1
0.760906 0.785565 1
0.86775 0.784802 0.974334
0.950866 0.772122 0.961471
1 0.770993 0.977264
0.0737621 0.898924 1
0.127932 0.91693 1
0.252461 0.915496 1
0.425406 0.90013 1
0.581979 0.888258 1
0.722683 0.880415 0.990341
0.841733 0.878019 0.975387
0.951888 0.877806 0.958724
1 0.877806 0.968109
0.0778821 1 1
0.1308 1 1
0.252506 1 1
0.428351 1 1
0.59147 1 1
0.739849 1 0.988128
0.875288 1 0.973846
0.999466 0.991287 0.974884
1 0.992218 0.987808
0.0264286 0 0.990768
0.0977646 0 0.968307
0.234791 0 0.934462
0.367086 0 0.912795
0.489265 0 0.9066
0.60058 0 0.912184
0.706615 0 0.923384
0.816464 0 0.93872
0.935454 0 0.957626
0.0480964 0.0444495 1
0.153948 0.0538186 1
0.322225 0.0521096 1
0.474037 0.0554513 1
0.606165 0.057557 1
0.712596 0.0571908 1
0.814557 0.0603799 1
0.925704 0.0704204 1
1 0.083238 1
0.0933089 0.179782 1
0.22388 0.207172 1
0.405722 0.219852 1
0.563958 0.231968 1
0.697673 0.235859 1
0.798062 0.228016 1
0.88864 0.216434 1
0.991974 0.214755 1
1 0.221057 1
0.101076 0.362112 1
0.237568 0.38996 1
0.419638 0.40061 1
0.580331 0.412573 1
0.718364 0.421363 1
0.818387 0.417029 1
0.895506 0.391592 1
0.98941 0.377325 1
1 0.37969 1
0.0910201 0.513069 1
0.22417 0.542611 1
0.421683 0.557595 1
0.594018 0.575082 1
0.737469 0.589181 1
0.843076 0.591562 1
0.914031 0.564721 1
0.986404 0.532158 1
1 0.526436 1
0.0788739 0.650584 1
0.185168 0.678309 1
0.384436 0.686305 1
0.573739 0.70106 1
0.733089 0.717891 1
0.842695 0.721691 1
0.923064 0.708064 1
0.978729 0.668879 1
1 0.655161 1
0.0787671 0.779019 1
0.154406 0.800732 1
0.323659 0.79823 1
0.509514 0.795499 1
0.687404 0.803464 1
0.824277 0.816022 1
0.919692 0.812421 1
0.985092 0.788968 1
1 0.768383 1
0.0823377 0.895857 1
0.141436 0.913497 1
0.282826 0.908339 1
0.45742 0.89453 1
0.61886 0.885756 1
0.760983 0.883803 1
0.886137 0.889509 1
0.986816 0.88809 1
1 0.872831 1
0.0833906 1 1
0.137102 1 1
0.265385 1 1
0.436545 1 1
0.591852 0.987686 1
0.730495 0.979538 1
0.84831 0.977066 1
0.959258 0.976349 1
1 0.975891 1
