luts/stills/fujifake_astia_rossandhisjpegs.cube
TITLE "Fujifake Astia" by rossandhisjpegs
#LUMIXPHOTOSTYLE STD
LUT_3D_SIZE 33
DOMAIN_MIN 0.0 0.0 0.0
DOMAIN_MAX 1.0 1.0 1.0
0.000000 0.000000 0.000000
0.038481 0.000000 0.000000
0.069362 0.003677 0.003677
0.104411 0.003922 0.003922
0.138725 0.003922 0.003432
0.177328 0.007230 0.003922
0.212745 0.007843 0.003922
0.254535 0.011765 0.007843
0.286274 0.011765 0.003922
0.323897 0.014583 0.003922
0.359804 0.018382 0.003922
0.397182 0.022181 0.003922
0.433333 0.029902 0.007843
0.470466 0.037623 0.010172
0.506862 0.045343 0.015686
0.543750 0.056986 0.019608
0.580392 0.064706 0.025490
0.617034 0.074264 0.035049
0.653922 0.084069 0.040931
0.690319 0.093382 0.050245
0.725000 0.104902 0.061765
0.758333 0.115073 0.069363
0.789216 0.130637 0.083579
0.818995 0.142279 0.095221
0.847059 0.150981 0.103922
0.877941 0.166422 0.115441
0.904902 0.177942 0.130147
0.931863 0.189460 0.142402
0.958824 0.204902 0.153921
0.985785 0.220343 0.169730
1.000000 0.231863 0.184804
1.000000 0.247304 0.200368
1.000000 0.258824 0.215686
0.000000 0.030883 0.000000
0.034804 0.034566 0.000000
0.069248 0.038366 0.003677
0.100490 0.042524 0.003922
0.138725 0.045971 0.003922
0.176754 0.049774 0.007249
0.212032 0.050268 0.003945
0.251444 0.054167 0.004753
0.286366 0.053309 0.003891
0.323932 0.057143 0.003922
0.358663 0.058295 0.003922
0.397182 0.064748 0.006537
0.431863 0.069975 0.007843
0.470466 0.074020 0.011765
0.506862 0.080147 0.017770
0.543750 0.087925 0.021691
0.580331 0.093689 0.027390
0.617034 0.101348 0.037132
0.653922 0.107230 0.044853
0.690319 0.115073 0.052573
0.724954 0.126593 0.061719
0.758333 0.134436 0.071936
0.789216 0.147220 0.084681
0.818907 0.157633 0.095133
0.847059 0.166422 0.103922
0.877915 0.178037 0.119336
0.905002 0.189560 0.130860
0.931863 0.201103 0.142402
0.958931 0.216054 0.157368
0.985896 0.228064 0.173273
1.000000 0.243497 0.188610
1.000000 0.255025 0.200364
1.000000 0.270465 0.215809
0.000000 0.061765 0.000000
0.038366 0.065449 0.000000
0.069362 0.069363 0.000000
0.104166 0.073162 0.003577
0.138725 0.076991 0.007384
0.176754 0.080798 0.007843
0.212055 0.081419 0.004657
0.250613 0.085241 0.007598
0.285478 0.085478 0.003922
0.323966 0.091858 0.006564
0.358578 0.093061 0.003922
0.397182 0.095795 0.006579
0.431863 0.099510 0.011520
0.470466 0.103408 0.013948
0.506755 0.108824 0.017754
0.543865 0.112990 0.023529
0.580269 0.120466 0.031250
0.617034 0.126593 0.038970
0.653922 0.132460 0.046921
0.690319 0.138113 0.054213
0.724908 0.147212 0.065502
0.758333 0.153799 0.073361
0.789216 0.165273 0.087332
0.818819 0.172986 0.096255
0.847059 0.181863 0.107843
0.877888 0.193520 0.119309
0.905101 0.204366 0.131082
0.931863 0.215847 0.145749
0.959038 0.227696 0.157843
0.989338 0.239683 0.173261
1.000000 0.251225 0.188725
1.000000 0.262860 0.204274
1.000000 0.278186 0.219608
0.000000 0.096568 0.000000
0.042168 0.100012 0.000000
0.072940 0.099901 0.000000
0.104377 0.100490 0.000000
0.138771 0.107843 0.000368
0.173775 0.111699 0.007288
0.208893 0.115211 0.007613
0.250245 0.119731 0.007475
0.285570 0.120282 0.007751
0.322898 0.123020 0.007843
0.358578 0.124272 0.007843
0.393627 0.130273 0.010543
0.431863 0.131725 0.013098
0.470247 0.135784 0.017796
0.505308 0.139705 0.023161
0.543922 0.143627 0.029535
0.580208 0.147549 0.034926
0.618700 0.153676 0.042892
0.653922 0.159474 0.050773
0.690537 0.165047 0.056495
0.724862 0.172549 0.067770
0.758333 0.176957 0.075858
0.789216 0.188105 0.090801
0.818731 0.195814 0.098878
0.847059 0.201134 0.110508
0.877084 0.211887 0.123204
0.905201 0.223460 0.134735
0.931863 0.231863 0.146323
0.959145 0.242892 0.161764
0.989338 0.254868 0.177172
1.000000 0.266422 0.192279
1.000000 0.277941 0.204278
1.000000 0.289828 0.219608
0.003432 0.131372 0.000000
0.045849 0.134222 0.000000
0.076961 0.131587 0.000000
0.107843 0.134482 0.000000
0.139215 0.135723 0.000000
0.177405 0.142601 0.000414
0.212255 0.147059 0.004014
0.247441 0.150873 0.007843
0.285294 0.154780 0.011642
0.320465 0.155254 0.011765
0.358578 0.161029 0.015196
0.393428 0.162745 0.015686
0.431863 0.164890 0.021568
0.468138 0.168060 0.023039
0.506648 0.172090 0.030668
0.543750 0.176593 0.036887
0.578431 0.180147 0.040686
0.619087 0.182583 0.047028
0.655637 0.188266 0.056403
0.690610 0.192080 0.061811
0.726961 0.199510 0.071569
0.758655 0.204979 0.080959
0.789216 0.213541 0.093444
0.819608 0.221354 0.103677
0.847059 0.226593 0.114338
0.877084 0.234681 0.126348
0.905300 0.242800 0.138634
0.934758 0.254044 0.153140
0.959253 0.262255 0.162193
0.986229 0.270619 0.177528
1.000000 0.285080 0.192647
1.000000 0.296691 0.211413
1.000000 0.304902 0.223529
0.003922 0.166176 0.000000
0.049651 0.169382 0.000000
0.080798 0.166383 0.000000
0.112254 0.166731 0.000000
0.142524 0.170021 0.000000
0.177328 0.173407 0.000000
0.212009 0.177206 0.000000
0.250000 0.181729 0.003198
0.284835 0.185784 0.010938
0.317770 0.189706 0.014756
0.355691 0.193014 0.021270
0.393260 0.195799 0.022916
0.430392 0.200000 0.029289
0.468501 0.201471 0.033088
0.506594 0.205392 0.038680
0.543750 0.210784 0.044282
0.579044 0.211274 0.049019
0.618792 0.217157 0.056128
0.655293 0.220320 0.063848
0.690319 0.224380 0.069355
0.726838 0.232460 0.077665
0.758333 0.234593 0.087623
0.789216 0.240878 0.098652
0.819926 0.248529 0.110294
0.847212 0.253585 0.118168
0.876605 0.261152 0.129791
0.904167 0.268252 0.141911
0.934654 0.276689 0.156346
0.959360 0.284927 0.169117
0.986340 0.293015 0.184436
1.000000 0.304289 0.199671
1.000000 0.315950 0.215338
1.000000 0.324265 0.231373
0.003922 0.200981 0.000000
0.053355 0.204067 0.000000
0.084605 0.201180 0.000000
0.116176 0.204534 0.000000
0.147457 0.204167 0.000000
0.177941 0.204902 0.000000
0.212009 0.207491 0.000000
0.249877 0.211887 0.000000
0.284743 0.216667 0.000735
0.317685 0.219692 0.008211
0.354656 0.224280 0.020573
0.390686 0.228179 0.027451
0.430392 0.232874 0.035815
0.466544 0.235976 0.042402
0.505147 0.239874 0.048131
0.543750 0.242279 0.054021
0.579166 0.246078 0.060049
0.618727 0.251570 0.065541
0.655224 0.253677 0.071155
0.690319 0.257177 0.076662
0.726716 0.263266 0.085080
0.758333 0.266652 0.092639
0.789216 0.271569 0.104641
0.819891 0.279412 0.114621
0.847243 0.282966 0.125919
0.874020 0.288113 0.134313
0.904167 0.295236 0.149020
0.934551 0.303554 0.161274
0.959467 0.308088 0.173529
0.985785 0.316176 0.188304
1.000000 0.326762 0.203478
1.000000 0.335907 0.219853
1.000000 0.347549 0.235294
0.004780 0.238848 0.000000
0.053240 0.238752 0.000000
0.085348 0.235976 0.000000
0.120098 0.239625 0.000000
0.151363 0.238848 0.000000
0.184448 0.239706 0.000000
0.213159 0.238848 0.000000
0.247361 0.242099 0.000000
0.285294 0.246783 0.000000
0.320217 0.250609 0.001233
0.355614 0.255124 0.011397
0.390686 0.259314 0.025050
0.428477 0.265686 0.036597
0.466544 0.267666 0.048529
0.503424 0.272901 0.056250
0.541456 0.276627 0.063515
0.578860 0.280883 0.067770
0.617034 0.284471 0.074054
0.655637 0.287623 0.080630
0.690319 0.291931 0.084333
0.725444 0.297672 0.093873
0.758333 0.300146 0.100440
0.789216 0.305515 0.112277
0.819857 0.310294 0.121814
0.847059 0.311489 0.129749
0.874020 0.318325 0.142034
0.904167 0.323491 0.154251
0.934448 0.330514 0.167658
0.959574 0.335172 0.180882
0.985785 0.343179 0.193180
1.000000 0.350613 0.210402
1.000000 0.362255 0.226838
1.000000 0.369975 0.243137
0.004902 0.273529 0.000000
0.054075 0.273437 0.000000
0.089216 0.273591 0.000000
0.123652 0.274418 0.000000
0.157843 0.273652 0.000000
0.188726 0.274509 0.000000
0.219056 0.273529 0.000000
0.247549 0.273529 0.000000
0.282353 0.274509 0.000000
0.317862 0.279136 0.000000
0.356985 0.285049 0.000674
0.392616 0.288848 0.013297
0.429044 0.296201 0.031863
0.466544 0.300368 0.048192
0.503860 0.304167 0.059314
0.539829 0.309344 0.067770
0.579902 0.313235 0.077941
0.617034 0.319026 0.083211
0.654657 0.322304 0.089951
0.690319 0.326685 0.094731
0.723529 0.328799 0.101838
0.757322 0.333334 0.110171
0.787990 0.337255 0.117892
0.818995 0.341176 0.129534
0.847059 0.344608 0.140441
0.876318 0.348897 0.149755
0.904167 0.353493 0.161274
0.933885 0.359957 0.175276
0.959314 0.366054 0.187868
0.985785 0.372917 0.203677
1.000000 0.377696 0.215196
1.000000 0.385539 0.231710
1.000000 0.394117 0.247059
0.006740 0.308211 0.000000
0.054079 0.309279 0.000000
0.089216 0.309489 0.000000
0.126574 0.309210 0.000000
0.161642 0.311167 0.000000
0.192697 0.309313 0.000000
0.226593 0.311397 0.000000
0.254289 0.308211 0.000000
0.285447 0.309313 0.000000
0.317950 0.310106 0.000000
0.355415 0.312768 0.000000
0.392915 0.319386 0.000000
0.430760 0.324586 0.014170
0.466544 0.330595 0.036642
0.503914 0.335531 0.056495
0.540346 0.340686 0.069267
0.579840 0.346569 0.080392
0.616517 0.349851 0.090932
0.655155 0.357606 0.098170
0.690974 0.360294 0.103106
0.723943 0.363526 0.110585
0.756262 0.366065 0.119742
0.786052 0.369018 0.129190
0.818202 0.374395 0.139591
0.847059 0.375980 0.148897
0.874881 0.380519 0.160539
0.902083 0.384559 0.169891
0.931250 0.390736 0.183824
0.958471 0.394761 0.195956
0.985681 0.400877 0.211294
1.000000 0.407422 0.223950
1.000000 0.412588 0.238481
1.000000 0.420220 0.254902
0.003922 0.346813 0.000000
0.057882 0.346729 0.000000
0.090365 0.344286 0.000000
0.127574 0.346561 0.000000
0.163878 0.346813 0.000000
0.197549 0.346813 0.000000
0.230622 0.346308 0.000000
0.262010 0.344118 0.000000
0.292892 0.344792 0.000000
0.321836 0.344876 0.000000
0.355499 0.343735 0.000000
0.391529 0.347112 0.000000
0.431403 0.354412 0.000766
0.467640 0.359306 0.013488
0.503278 0.365931 0.040487
0.540403 0.370305 0.062952
0.577083 0.376103 0.079044
0.616460 0.383333 0.092034
0.655101 0.388434 0.102451
0.688725 0.392272 0.110899
0.723989 0.396569 0.118352
0.754412 0.399020 0.127382
0.786136 0.402941 0.137255
0.815418 0.405982 0.147258
0.846078 0.408762 0.156618
0.874020 0.414438 0.168849
0.901976 0.416437 0.179902
0.931250 0.421515 0.194010
0.957414 0.425552 0.206035
0.985417 0.430645 0.219003
1.000000 0.435708 0.234482
1.000000 0.442280 0.248897
1.000000 0.447304 0.265441
0.003922 0.381495 0.000000
0.057844 0.382801 0.000000
0.093053 0.381740 0.000000
0.131495 0.382717 0.000000
0.167570 0.384237 0.000000
0.201471 0.385417 0.000000
0.238113 0.384934 0.000000
0.266862 0.381495 0.000000
0.300613 0.381832 0.000000
0.328676 0.379645 0.000000
0.361152 0.380269 0.000000
0.392375 0.380610 0.000000
0.428906 0.383180 0.000000
0.466544 0.389093 0.000000
0.505147 0.395688 0.014216
0.540461 0.401245 0.044382
0.577144 0.407047 0.068689
0.615196 0.412849 0.086746
0.652474 0.419853 0.102229
0.688725 0.425981 0.113243
0.720956 0.429059 0.125613
0.753527 0.431591 0.133333
0.784069 0.434628 0.144975
0.815453 0.438124 0.155649
0.844148 0.441667 0.166330
0.873725 0.445588 0.176544
0.901593 0.447419 0.189453
0.929711 0.453432 0.202049
0.957154 0.456342 0.214139
0.985417 0.461516 0.230634
1.000000 0.465441 0.242279
1.000000 0.469363 0.257843
1.000000 0.476961 0.275735
0.006373 0.420098 0.000000
0.058043 0.420098 0.000000
0.096813 0.420098 0.000000
0.133946 0.420098 0.000000
0.171262 0.422243 0.000000
0.207460 0.420328 0.000000
0.241912 0.421293 0.000000
0.273529 0.420098 0.000000
0.308333 0.420098 0.000000
0.339216 0.419041 0.000000
0.367953 0.416176 0.000000
0.397059 0.415211 0.000000
0.430392 0.415257 0.000000
0.465089 0.417049 0.000000
0.503768 0.423039 0.000000
0.540518 0.431495 0.012225
0.578431 0.436520 0.046324
0.613894 0.443015 0.073131
0.651072 0.448713 0.093720
0.687270 0.455408 0.111535
0.720159 0.461336 0.124510
0.750490 0.463741 0.137638
0.782384 0.468168 0.151011
0.812255 0.469731 0.161519
0.842525 0.472549 0.174142
0.871247 0.476471 0.185708
0.900980 0.480852 0.199724
0.927941 0.484697 0.211290
0.954595 0.484988 0.223039
0.982828 0.492157 0.238343
1.000000 0.496079 0.253830
1.000000 0.502497 0.271737
1.000000 0.505392 0.284804
0.010172 0.456373 0.000000
0.064289 0.458651 0.000000
0.100781 0.458701 0.000000
0.139338 0.458483 0.000000
0.176348 0.458701 0.000000
0.211029 0.458701 0.000000
0.247740 0.460294 0.000000
0.281250 0.458701 0.000000
0.314461 0.457108 0.000000
0.345343 0.457108 0.000000
0.376218 0.454779 0.000000
0.405327 0.453734 0.000000
0.435662 0.450858 0.000000
0.468138 0.452451 0.000000
0.502941 0.452451 0.000000
0.540675 0.459302 0.000000
0.578431 0.466177 0.010294
0.613113 0.472304 0.046890
0.649387 0.478393 0.079328
0.683422 0.484770 0.102382
0.716284 0.489216 0.122181
0.749690 0.494788 0.139151
0.781373 0.499510 0.154664
0.810581 0.501758 0.166912
0.839216 0.503830 0.180178
0.867421 0.507353 0.192279
0.897059 0.510417 0.206127
0.927328 0.515560 0.219604
0.952375 0.517080 0.234482
0.981644 0.523189 0.250122
1.000000 0.525467 0.263971
1.000000 0.531005 0.281718
1.000000 0.536397 0.296446
0.021814 0.495098 0.000000
0.072059 0.497250 0.000000
0.104794 0.497197 0.000000
0.143260 0.497097 0.000000
0.180147 0.497304 0.000000
0.216276 0.497304 0.000000
0.253753 0.497626 0.000000
0.286389 0.497304 0.000000
0.321508 0.497304 0.000000
0.352941 0.495588 0.000000
0.385539 0.494072 0.000000
0.415295 0.492256 0.000000
0.443382 0.489461 0.000000
0.472955 0.487255 0.000000
0.503906 0.487255 0.000000
0.539829 0.489338 0.000000
0.577573 0.495956 0.000000
0.613113 0.501892 0.007575
0.647794 0.507338 0.049004
0.681779 0.512378 0.085333
0.715686 0.518627 0.111182
0.745810 0.523139 0.133823
0.779167 0.528876 0.153186
0.808334 0.532728 0.169248
0.837010 0.534742 0.182353
0.866176 0.538235 0.197419
0.896737 0.542570 0.213725
0.924020 0.546423 0.227305
0.952206 0.548070 0.243903
0.979496 0.554082 0.258004
1.000000 0.554166 0.273284
1.000000 0.561818 0.290985
1.000000 0.565686 0.308088
0.031618 0.533823 0.000000
0.077999 0.535849 0.000000
0.110907 0.535792 0.000000
0.147182 0.535711 0.000000
0.184206 0.535907 0.000000
0.222549 0.535907 0.000000
0.259068 0.536251 0.000000
0.294206 0.537343 0.000000
0.328677 0.537990 0.000000
0.360539 0.534586 0.000000
0.393260 0.534474 0.000000
0.422936 0.530779 0.000000
0.451103 0.528064 0.000000
0.480749 0.525980 0.000000
0.510662 0.522970 0.000000
0.540805 0.523035 0.000000
0.575552 0.525061 0.000000
0.609191 0.528795 0.000000
0.646622 0.536343 0.009291
0.679645 0.541276 0.052061
0.711765 0.545588 0.092448
0.742647 0.550142 0.121446
0.775367 0.555921 0.146040
0.806250 0.559777 0.165414
0.834774 0.563634 0.182812
0.863691 0.567490 0.200088
0.893137 0.571545 0.219240
0.920098 0.575410 0.234681
0.948667 0.579060 0.251731
0.977746 0.582916 0.267402
1.000000 0.585049 0.281250
1.000000 0.590924 0.302508
1.000000 0.594485 0.319731
0.043137 0.572549 0.000000
0.085662 0.572549 0.000000
0.118628 0.572426 0.000000
0.155209 0.574510 0.000000
0.189951 0.574510 0.000000
0.228003 0.574204 0.000000
0.263726 0.576470 0.000000
0.299632 0.576470 0.000000
0.334314 0.574510 0.000000
0.367586 0.574510 0.000000
0.400980 0.574510 0.000000
0.431189 0.571262 0.000000
0.459559 0.567402 0.000000
0.489706 0.564706 0.000000
0.517525 0.561642 0.000000
0.546507 0.558824 0.000000
0.576470 0.557843 0.000000
0.608272 0.558823 0.000000
0.643015 0.563603 0.000000
0.676961 0.568627 0.013052
0.710539 0.574020 0.058578
0.741360 0.577819 0.100184
0.772181 0.583578 0.131740
0.804412 0.588787 0.156802
0.831373 0.592647 0.177451
0.861826 0.596078 0.199755
0.890809 0.600368 0.217892
0.919792 0.604228 0.236826
0.948530 0.609804 0.257843
0.975797 0.611949 0.275245
1.000000 0.615686 0.290809
1.000000 0.619669 0.310110
1.000000 0.623529 0.331372
0.060417 0.609191 0.000000
0.097304 0.607410 0.000000
0.126348 0.609191 0.000000
0.161152 0.611079 0.000000
0.195956 0.609191 0.000000
0.233781 0.611275 0.000000
0.267647 0.611275 0.000000
0.304289 0.611677 0.000000
0.338633 0.611275 0.000000
0.372794 0.610689 0.000000
0.406212 0.610624 0.000000
0.437745 0.607353 0.000000
0.467326 0.604902 0.000000
0.494351 0.602194 0.000000
0.525299 0.598338 0.000000
0.550371 0.596450 0.000000
0.578309 0.592586 0.000000
0.609191 0.591667 0.000000
0.640181 0.593612 0.000000
0.673039 0.595588 0.000000
0.706694 0.602282 0.019516
0.738725 0.606147 0.065564
0.768957 0.608578 0.108502
0.800490 0.615782 0.141912
0.829534 0.619639 0.168872
0.859368 0.623495 0.192892
0.888871 0.629389 0.216054
0.917647 0.632966 0.238603
0.946569 0.638726 0.258211
0.971986 0.640981 0.279339
1.000000 0.644845 0.298644
1.000000 0.648709 0.317950
1.000000 0.652574 0.339093
0.079657 0.643872 0.000000
0.111083 0.644347 0.000000
0.138097 0.643872 0.000000
0.171032 0.645872 0.000000
0.203401 0.643872 0.000000
0.240073 0.646079 0.000000
0.272963 0.646079 0.000000
0.309811 0.646454 0.000000
0.342463 0.646079 0.000000
0.376593 0.645458 0.000000
0.411274 0.645389 0.000000
0.441667 0.642746 0.000000
0.471170 0.641422 0.000000
0.502122 0.636926 0.000000
0.529151 0.636995 0.000000
0.558157 0.631196 0.000000
0.582108 0.628186 0.000000
0.611275 0.625437 0.000000
0.640165 0.624479 0.000000
0.671124 0.626471 0.000000
0.703094 0.627114 0.001654
0.733678 0.633188 0.030714
0.765686 0.637056 0.075000
0.797189 0.642777 0.118635
0.827022 0.646630 0.155208
0.855752 0.650483 0.181733
0.885294 0.656449 0.208747
0.914116 0.660049 0.234804
0.943137 0.665687 0.256373
0.969891 0.668053 0.279534
0.996323 0.672059 0.302696
1.000000 0.675789 0.323652
1.000000 0.679657 0.346814
0.098897 0.676961 0.000000
0.124388 0.677011 0.000000
0.149732 0.676961 0.000000
0.180515 0.680664 0.000000
0.211106 0.678554 0.000000
0.245588 0.680634 0.000000
0.278975 0.680446 0.000000
0.313706 0.680882 0.000000
0.346293 0.680882 0.000000
0.380392 0.680227 0.000000
0.415074 0.680155 0.000000
0.445588 0.679354 0.000000
0.475613 0.676103 0.000000
0.505970 0.674931 0.000000
0.534313 0.671730 0.000000
0.562021 0.669864 0.000000
0.587071 0.664032 0.000000
0.614105 0.662868 0.000000
0.643053 0.659268 0.000000
0.671446 0.657353 0.000000
0.700000 0.657353 0.000000
0.730882 0.660229 0.004550
0.761765 0.662500 0.043888
0.793750 0.669772 0.085543
0.825858 0.673621 0.128922
0.854063 0.677470 0.164951
0.883701 0.681319 0.195833
0.913970 0.687133 0.226103
0.940610 0.691253 0.252451
0.968286 0.695125 0.277723
0.996323 0.698897 0.302696
1.000000 0.702868 0.325858
1.000000 0.706740 0.350613
0.114216 0.709314 0.000000
0.138404 0.711811 0.000000
0.161366 0.711765 0.000000
0.188373 0.711765 0.000000
0.216666 0.711948 0.000000
0.253309 0.715303 0.000000
0.283334 0.712040 0.000000
0.318137 0.714538 0.000000
0.350123 0.713480 0.000000
0.383134 0.713526 0.000000
0.417861 0.714920 0.000000
0.449510 0.711765 0.000000
0.479412 0.710784 0.000000
0.508946 0.709436 0.000000
0.538879 0.707108 0.000000
0.565196 0.703921 0.000000
0.591667 0.699510 0.000000
0.617969 0.697549 0.000000
0.644056 0.694056 0.000000
0.672044 0.692034 0.000000
0.698530 0.689154 0.000000
0.729534 0.689200 0.000000
0.757843 0.689461 0.012561
0.789415 0.693949 0.060616
0.822059 0.700613 0.098775
0.850490 0.702773 0.139905
0.881372 0.708303 0.179197
0.910401 0.714216 0.213343
0.939032 0.715993 0.243444
0.965809 0.719837 0.271691
0.992647 0.725981 0.298927
1.000000 0.727528 0.325858
1.000000 0.733823 0.352941
0.129534 0.743995 0.000000
0.151471 0.742689 0.000000
0.173162 0.742647 0.000000
0.198656 0.745347 0.000000
0.227007 0.746568 0.000000
0.257319 0.743995 0.000000
0.288603 0.744478 0.000000
0.322059 0.746568 0.000000
0.356525 0.747579 0.000000
0.387745 0.746568 0.000000
0.419975 0.746990 0.000000
0.451199 0.746568 0.000000
0.482506 0.744761 0.000000
0.511822 0.743195 0.000000
0.541299 0.741199 0.000000
0.569118 0.738725 0.000000
0.596753 0.736765 0.000000
0.621833 0.732230 0.000000
0.648284 0.729756 0.000000
0.673840 0.726716 0.000000
0.699877 0.723882 0.000000
0.727846 0.722154 0.000000
0.757422 0.722618 0.000000
0.787377 0.722070 0.028811
0.816330 0.724326 0.077022
0.849142 0.729829 0.111960
0.879542 0.733709 0.153822
0.908122 0.737779 0.194485
0.934972 0.741468 0.228064
0.963476 0.745347 0.258946
0.990234 0.746729 0.291092
1.000000 0.753106 0.320631
1.000000 0.756985 0.349020
0.144853 0.774755 0.000000
0.165640 0.777451 0.000000
0.182353 0.776302 0.000000
0.207966 0.777451 0.000000
0.234712 0.777604 0.000000
0.262745 0.778485 0.000000
0.293137 0.777451 0.000000
0.326249 0.778041 0.000000
0.360784 0.781066 0.000000
0.391666 0.778209 0.000000
0.423775 0.778676 0.000000
0.453432 0.777451 0.000000
0.484773 0.777910 0.000000
0.515196 0.777451 0.000000
0.542693 0.774065 0.000000
0.571775 0.773529 0.000000
0.598652 0.770221 0.000000
0.624265 0.766261 0.000000
0.651027 0.763971 0.000000
0.676593 0.760669 0.000000
0.702451 0.757598 0.000000
0.729534 0.754726 0.000000
0.757460 0.753922 0.000000
0.784804 0.753041 0.004136
0.813358 0.751348 0.049020
0.843237 0.754512 0.094731
0.875950 0.760769 0.129902
0.908142 0.764461 0.167402
0.934804 0.765686 0.207843
0.962002 0.769861 0.246079
0.988970 0.773529 0.278355
1.000000 0.776264 0.312990
1.000000 0.781373 0.345098
0.160172 0.805515 0.000000
0.178432 0.808334 0.000000
0.196515 0.807300 0.000000
0.218608 0.808334 0.000000
0.242770 0.808472 0.000000
0.270343 0.809264 0.000000
0.300123 0.808334 0.000000
0.331621 0.808950 0.000000
0.364706 0.811979 0.000000
0.395588 0.811152 0.000000
0.423652 0.809436 0.000000
0.456384 0.810183 0.000000
0.486489 0.810509 0.000000
0.515644 0.808334 0.000000
0.544976 0.806128 0.000000
0.573039 0.804412 0.000000
0.601961 0.803002 0.000000
0.627478 0.800490 0.000000
0.654894 0.798774 0.000000
0.679738 0.793750 0.000000
0.703554 0.791176 0.000000
0.730637 0.789450 0.000000
0.756618 0.784804 0.000000
0.784494 0.784804 0.000000
0.811489 0.781587 0.016728
0.841544 0.781499 0.072427
0.872105 0.784804 0.114460
0.904240 0.789166 0.146886
0.932338 0.792647 0.183456
0.961887 0.795466 0.225980
0.986328 0.796745 0.262799
1.000000 0.800578 0.300280
1.000000 0.804412 0.336152
0.174510 0.835295 0.000000
0.193842 0.839185 0.000000
0.208211 0.838297 0.000000
0.227696 0.839216 0.000000
0.254044 0.839216 0.000000
0.277114 0.839216 0.000000
0.305269 0.839216 0.000000
0.335662 0.839859 0.000000
0.368627 0.842157 0.000000
0.397396 0.840043 0.000000
0.427451 0.839216 0.000000
0.458333 0.840196 0.000000
0.488848 0.839828 0.000000
0.517371 0.839216 0.000000
0.547059 0.837561 0.000000
0.575582 0.836857 0.000000
0.602941 0.835785 0.000000
0.629503 0.831373 0.000000
0.656127 0.829657 0.000000
0.679688 0.826256 0.000000
0.706740 0.824142 0.000000
0.733793 0.820588 0.000000
0.757843 0.818382 0.000000
0.784804 0.815686 0.000000
0.809314 0.812500 0.003186
0.838511 0.811550 0.046201
0.868076 0.810968 0.095037
0.899510 0.815165 0.133823
0.930025 0.815686 0.165564
0.958334 0.819608 0.200061
0.985294 0.819792 0.241483
1.000000 0.826470 0.283946
1.000000 0.827451 0.320588
0.193015 0.869240 0.000000
0.205393 0.866176 0.000000
0.220029 0.866421 0.000000
0.239051 0.866176 0.000000
0.259452 0.867310 0.000000
0.284816 0.868762 0.000000
0.314131 0.868666 0.000000
0.342525 0.870098 0.000000
0.370466 0.869455 0.000000
0.403431 0.869857 0.000000
0.430660 0.870098 0.000000
0.461570 0.870098 0.000000
0.492157 0.870098 0.000000
0.519627 0.869750 0.000000
0.550000 0.870098 0.000000
0.576961 0.867804 0.000000
0.604350 0.866176 0.000000
0.630882 0.863691 0.000000
0.657843 0.862255 0.000000
0.683211 0.860153 0.000000
0.708379 0.856418 0.000000
0.734314 0.853359 0.000000
0.760539 0.849265 0.000000
0.783942 0.845707 0.000000
0.810784 0.845588 0.000000
0.837868 0.839396 0.025238
0.866261 0.839300 0.073859
0.896569 0.838725 0.115797
0.927344 0.842540 0.153186
0.957188 0.845791 0.187703
0.985294 0.846569 0.219064
1.000000 0.846664 0.260880
1.000000 0.850490 0.304166
0.208578 0.896324 0.000000
0.220833 0.896937 0.000000
0.231909 0.896370 0.000000
0.247794 0.896025 0.000000
0.270986 0.897059 0.000000
0.293015 0.895826 0.000000
0.319363 0.896921 0.000000
0.347182 0.897059 0.000000
0.374265 0.897304 0.000000
0.407353 0.899142 0.000000
0.434544 0.899249 0.000000
0.462010 0.897059 0.000000
0.492616 0.899050 0.000000
0.519554 0.896760 0.000000
0.550000 0.897059 0.000000
0.578653 0.896324 0.000000
0.604289 0.893505 0.000000
0.631273 0.893137 0.000000
0.657843 0.892402 0.000000
0.686696 0.890809 0.000000
0.711765 0.886949 0.000000
0.737377 0.884199 0.000000
0.760539 0.880147 0.000000
0.787094 0.878845 0.000000
0.814154 0.875919 0.000184
0.837868 0.870183 0.021821
