luts/stills/fujifake_classicchrome_rossandhisjpegs.cube
TITLE "Fujifake Classic Chrome" by rossandhisjpegs
#LUMIXPHOTOSTYLE STD
LUT_3D_SIZE 33
DOMAIN_MIN 0.0 0.0 0.0
DOMAIN_MAX 1.0 1.0 1.0
0.000000 0.000000 0.000000
0.026961 0.000000 0.003799
0.057598 0.003677 0.007598
0.084804 0.003922 0.011765
0.111764 0.007353 0.015196
0.142034 0.011152 0.022916
0.169608 0.011765 0.027451
0.200490 0.015686 0.035294
0.228432 0.011765 0.038235
0.261152 0.014583 0.048774
0.289216 0.018382 0.053676
0.322672 0.026103 0.061397
0.350980 0.033824 0.066667
0.381863 0.045466 0.072917
0.412745 0.059314 0.080637
0.443627 0.072672 0.088358
0.472549 0.084314 0.096078
0.503309 0.099632 0.107720
0.534559 0.115441 0.117157
0.563235 0.128676 0.130270
0.595588 0.145588 0.148039
0.625000 0.159559 0.162132
0.659804 0.178922 0.178922
0.690687 0.193260 0.194363
0.721569 0.205883 0.206863
0.756372 0.221324 0.225245
0.787255 0.236765 0.240687
0.818137 0.248897 0.256127
0.849020 0.263725 0.267647
0.883824 0.279534 0.287010
0.914705 0.298529 0.302451
0.945711 0.314093 0.318137
0.980392 0.329412 0.337255
0.007720 0.030883 0.003799
0.038485 0.034563 0.003803
0.065564 0.038243 0.007483
0.092536 0.045967 0.007843
0.122932 0.046446 0.011397
0.153592 0.049651 0.015215
0.178064 0.046469 0.019018
0.212010 0.049414 0.026716
0.239093 0.046538 0.030607
0.269976 0.049387 0.038358
0.297021 0.053186 0.045956
0.327861 0.059601 0.053676
0.358701 0.066207 0.061275
0.389583 0.076348 0.067501
0.418260 0.084191 0.076716
0.447549 0.095833 0.084559
0.478309 0.107414 0.094057
0.509249 0.121013 0.105637
0.540074 0.132545 0.115563
0.568700 0.144190 0.128799
0.601838 0.160983 0.147993
0.629002 0.173775 0.163438
0.663642 0.190441 0.178922
0.694485 0.204780 0.194363
0.725399 0.217432 0.209804
0.757203 0.232939 0.225245
0.791153 0.244585 0.240786
0.822059 0.259927 0.256127
0.852941 0.274893 0.271568
0.884180 0.290797 0.287010
0.918512 0.306250 0.302696
0.949625 0.321810 0.321933
0.980392 0.337255 0.341176
0.019118 0.065441 0.007598
0.050000 0.065334 0.011168
0.073514 0.065212 0.011290
0.100368 0.066131 0.015219
0.127451 0.077236 0.011765
0.161435 0.088396 0.015112
0.189017 0.085095 0.012010
0.220657 0.088725 0.018750
0.247916 0.084988 0.020037
0.277765 0.087937 0.029481
0.305974 0.087822 0.034559
0.335623 0.091789 0.044692
0.364124 0.096967 0.053676
0.394975 0.103309 0.061397
0.424265 0.111029 0.069118
0.455262 0.118995 0.080629
0.483946 0.128554 0.088235
0.514958 0.140196 0.101961
0.544010 0.150245 0.113480
0.574900 0.161887 0.128822
0.605637 0.176379 0.145741
0.636681 0.189093 0.161068
0.671155 0.205714 0.182598
0.698285 0.217402 0.194363
0.729228 0.228983 0.209804
0.761099 0.244554 0.226049
0.795052 0.256281 0.240886
0.825773 0.271530 0.256127
0.856863 0.283088 0.271568
0.888090 0.298874 0.287355
0.918857 0.313970 0.306372
0.949625 0.329527 0.321929
0.984314 0.348775 0.341176
0.030638 0.096568 0.011765
0.061175 0.100012 0.015207
0.084582 0.099901 0.015441
0.111887 0.100123 0.019240
0.138848 0.097212 0.019240
0.165866 0.111764 0.019053
0.196760 0.119501 0.015387
0.231127 0.130350 0.019240
0.258456 0.127482 0.015962
0.289338 0.130128 0.018976
0.316299 0.127574 0.023039
0.346940 0.130273 0.029538
0.374142 0.131495 0.038481
0.404806 0.137894 0.048460
0.433540 0.143260 0.059842
0.462868 0.149632 0.069485
0.491606 0.157169 0.080760
0.522549 0.166912 0.095906
0.551593 0.176716 0.109520
0.580365 0.184804 0.125123
0.613220 0.197779 0.145450
0.640686 0.208456 0.159800
0.674870 0.223514 0.178784
0.706005 0.235398 0.194363
0.736887 0.247120 0.209896
0.767770 0.259804 0.226309
0.798950 0.271622 0.244539
0.829592 0.286765 0.260049
0.860785 0.298606 0.275490
0.892000 0.313725 0.291264
0.926103 0.329167 0.309927
0.953542 0.344608 0.325846
0.988235 0.360049 0.345098
0.042157 0.131372 0.011765
0.069133 0.134222 0.015089
0.092862 0.131372 0.015655
0.119976 0.134482 0.019286
0.150919 0.134804 0.023529
0.180959 0.135294 0.023115
0.208579 0.142892 0.023131
0.236045 0.157215 0.026471
0.269118 0.168260 0.026471
0.297549 0.170588 0.023039
0.327941 0.173867 0.020680
0.356250 0.174020 0.020098
0.385478 0.176164 0.022733
0.414338 0.177941 0.028722
0.444853 0.181649 0.042402
0.474250 0.187868 0.054749
0.501226 0.191667 0.069363
0.530744 0.198009 0.086749
0.561091 0.205454 0.107383
0.590196 0.213281 0.122718
0.623039 0.223039 0.142524
0.651961 0.232752 0.158808
0.682506 0.246477 0.177512
0.713373 0.258104 0.194363
0.744240 0.267157 0.209926
0.775490 0.279059 0.225628
0.805729 0.293383 0.243964
0.837255 0.305101 0.260049
0.864706 0.314154 0.275490
0.899019 0.329167 0.291253
0.929902 0.344608 0.310294
0.960784 0.360049 0.329764
0.992157 0.375491 0.349020
0.054289 0.166176 0.011765
0.080656 0.166073 0.011662
0.100613 0.163074 0.012378
0.127941 0.166176 0.016241
0.158211 0.169485 0.023529
0.191980 0.172890 0.030243
0.219477 0.169983 0.030760
0.247181 0.176838 0.030760
0.274724 0.188511 0.037163
0.302401 0.200981 0.037991
0.335661 0.211588 0.037569
0.366142 0.216544 0.034593
0.397197 0.221063 0.029918
0.425732 0.223775 0.024988
0.456717 0.225567 0.026693
0.485539 0.227696 0.038523
0.513113 0.230270 0.054167
0.543708 0.236152 0.075164
0.572404 0.241789 0.095956
0.601838 0.247545 0.115560
0.634176 0.257231 0.140196
0.663393 0.266701 0.157387
0.693872 0.275559 0.177275
0.725196 0.284927 0.194363
0.752329 0.292954 0.209957
0.783211 0.304423 0.225245
0.813358 0.315931 0.243872
0.844363 0.327669 0.259532
0.872549 0.336933 0.275490
0.903742 0.348840 0.291299
0.933701 0.363358 0.310501
0.968401 0.379412 0.333578
0.996078 0.394853 0.352941
0.065932 0.197059 0.007843
0.089093 0.200146 0.010953
0.108578 0.197059 0.008778
0.135049 0.197725 0.013167
0.163143 0.200981 0.020251
0.196316 0.204404 0.030262
0.227696 0.204902 0.037745
0.261068 0.204864 0.041666
0.288358 0.208579 0.044792
0.313396 0.219853 0.049349
0.342647 0.234789 0.055622
0.372174 0.246944 0.056618
0.407598 0.258058 0.056158
0.437324 0.263427 0.050927
0.468306 0.270512 0.044041
0.497059 0.272181 0.044164
0.527941 0.274387 0.047794
0.557330 0.278286 0.067157
0.587178 0.281786 0.087500
0.616667 0.287378 0.107475
0.646354 0.293903 0.129167
0.676340 0.300115 0.150360
0.705392 0.308088 0.171814
0.736803 0.315809 0.191176
0.763419 0.323713 0.209988
0.794118 0.332108 0.226103
0.821676 0.342892 0.244470
0.854649 0.353914 0.262117
0.880300 0.362990 0.276226
0.910907 0.375000 0.295152
0.941421 0.386519 0.313526
0.973039 0.401961 0.333701
1.000000 0.418137 0.356863
0.077573 0.227941 0.003922
0.099809 0.230936 0.004684
0.116107 0.227941 0.004780
0.139993 0.228719 0.008621
0.167049 0.229182 0.016437
0.200134 0.235172 0.027083
0.234682 0.238970 0.040970
0.266299 0.242770 0.051658
0.299694 0.242126 0.058854
0.325245 0.241180 0.061646
0.353577 0.253799 0.067647
0.379117 0.269240 0.074805
0.411397 0.284681 0.078630
0.444259 0.297446 0.079779
0.478554 0.308203 0.080262
0.511064 0.314986 0.078064
0.540319 0.319240 0.076961
0.572426 0.324265 0.079324
0.601225 0.325980 0.088848
0.630288 0.329779 0.103328
0.660984 0.332430 0.123974
0.690514 0.338235 0.142720
0.719608 0.344731 0.164093
0.748411 0.350371 0.183456
0.774969 0.356924 0.202390
0.802573 0.362990 0.222181
0.833295 0.373775 0.241544
0.863002 0.384559 0.260528
0.891299 0.393137 0.279411
0.922182 0.402084 0.298284
0.952014 0.415617 0.317333
0.980024 0.429044 0.340590
1.000000 0.444485 0.360784
0.086275 0.258823 0.000000
0.104565 0.258732 0.000000
0.121079 0.256067 0.000981
0.143995 0.258548 0.004535
0.169730 0.258823 0.008701
0.201011 0.262286 0.019516
0.235540 0.265931 0.034069
0.270221 0.271354 0.050245
0.304902 0.276961 0.064951
0.337592 0.275337 0.075643
0.365993 0.277206 0.079167
0.392984 0.288481 0.085876
0.421691 0.304534 0.094608
0.451471 0.320343 0.102328
0.484559 0.334804 0.107230
0.517157 0.347181 0.109803
0.551961 0.357843 0.111765
0.585784 0.365104 0.113205
0.616667 0.371875 0.115012
0.647151 0.374510 0.118046
0.676348 0.378431 0.125368
0.704381 0.381342 0.140594
0.731434 0.383333 0.159314
0.759191 0.387255 0.178677
0.786520 0.392402 0.195343
0.816299 0.399878 0.215104
0.841177 0.404657 0.234375
0.873928 0.414859 0.256281
0.902451 0.424020 0.276838
0.929902 0.433088 0.299142
0.956863 0.443628 0.318566
0.988603 0.459069 0.344516
1.000000 0.471569 0.368627
0.093015 0.285784 0.000000
0.109524 0.286853 0.000000
0.125000 0.285784 0.000000
0.143995 0.285784 0.000000
0.170113 0.285784 0.000000
0.198162 0.286887 0.009264
0.232721 0.293788 0.024058
0.268018 0.297794 0.043386
0.308823 0.308609 0.065809
0.343505 0.313235 0.081250
0.377083 0.314829 0.093727
0.407743 0.315085 0.098786
0.436106 0.324219 0.106127
0.462010 0.338603 0.114503
0.492142 0.356732 0.124257
0.524877 0.372085 0.132625
0.557721 0.386336 0.138419
0.594485 0.399334 0.143110
0.630040 0.411405 0.148047
0.659723 0.416341 0.148529
0.689951 0.421247 0.151103
0.717792 0.423786 0.156751
0.744631 0.425858 0.163725
0.773962 0.428987 0.177091
0.798621 0.433701 0.194118
0.827819 0.438239 0.213481
0.852818 0.441751 0.230553
0.882158 0.449560 0.252378
0.909345 0.456403 0.272197
0.937623 0.466441 0.296220
0.968260 0.474510 0.318382
0.995132 0.486152 0.344485
1.000000 0.502573 0.375368
0.096814 0.312745 0.000000
0.116092 0.313848 0.000000
0.128922 0.310294 0.000000
0.147917 0.312745 0.000000
0.171078 0.312745 0.000000
0.197741 0.313970 0.001034
0.228922 0.317157 0.014706
0.263603 0.321913 0.031250
0.306127 0.332598 0.057414
0.345489 0.343015 0.081028
0.383961 0.350352 0.099127
0.415985 0.350735 0.112921
0.450490 0.352512 0.121569
0.477451 0.358938 0.128791
0.504948 0.374510 0.138235
0.533862 0.391383 0.147388
0.565441 0.408701 0.157720
0.599548 0.426876 0.164951
0.635493 0.441820 0.173974
0.669715 0.451593 0.177811
0.702696 0.460999 0.179871
0.731005 0.464460 0.183333
0.758088 0.468382 0.186627
0.785516 0.471423 0.193505
0.810233 0.473897 0.201532
0.839338 0.476815 0.213213
0.864461 0.480377 0.230653
0.893084 0.486956 0.252206
0.920741 0.492402 0.272059
0.946454 0.500122 0.295221
0.973453 0.509068 0.318382
1.000000 0.519646 0.348407
1.000000 0.532353 0.383088
0.104534 0.339706 0.000000
0.117402 0.340931 0.000000
0.129083 0.337293 0.000000
0.148285 0.337132 0.000000
0.171400 0.337454 0.000000
0.197760 0.337132 0.000000
0.225605 0.340318 0.006372
0.257499 0.344118 0.022304
0.298407 0.355760 0.048744
0.340931 0.367402 0.074621
0.384804 0.380392 0.098284
0.423748 0.387569 0.117103
0.458931 0.390947 0.132966
0.492892 0.390138 0.143930
0.520443 0.396446 0.151325
0.547446 0.409314 0.160172
0.576409 0.428002 0.170527
0.608579 0.445324 0.181457
0.641935 0.464017 0.190587
0.674085 0.478374 0.198350
0.707843 0.490702 0.205270
0.739067 0.499605 0.210294
0.767838 0.505216 0.215143
0.797070 0.511286 0.218516
0.821844 0.514829 0.224387
0.848847 0.518750 0.232671
0.875368 0.520581 0.241912
0.901314 0.525456 0.257162
0.928355 0.530683 0.274801
0.956618 0.538599 0.299016
0.981288 0.543873 0.325038
1.000000 0.554289 0.354780
1.000000 0.567157 0.393382
0.105882 0.360294 0.000000
0.121400 0.364170 0.000000
0.132996 0.360539 0.000000
0.151838 0.360294 0.000000
0.171385 0.362745 0.000000
0.194240 0.360524 0.000000
0.222518 0.363480 0.003187
0.250705 0.365043 0.015119
0.290686 0.375000 0.039583
0.332521 0.389461 0.066590
0.379443 0.402757 0.092463
0.423790 0.415456 0.115717
0.463235 0.424020 0.136765
0.500368 0.427941 0.152206
0.533915 0.430484 0.165441
0.564093 0.435417 0.173162
0.593137 0.448530 0.183333
0.620879 0.464629 0.193673
0.649602 0.480821 0.205239
0.680408 0.499280 0.215334
0.710846 0.513725 0.222610
0.741176 0.526348 0.231388
0.773070 0.537531 0.239492
0.802941 0.544930 0.246201
0.831005 0.551593 0.251103
0.857690 0.555438 0.255806
0.887010 0.561734 0.267371
0.910554 0.565579 0.277696
0.933823 0.569302 0.289400
0.962117 0.574740 0.307966
0.988970 0.581127 0.336673
1.000000 0.591345 0.368796
1.000000 0.601961 0.406373
0.109804 0.385049 0.000000
0.123652 0.387328 0.000000
0.136910 0.385095 0.000000
0.151987 0.385049 0.000000
0.171369 0.385785 0.000000
0.194240 0.383456 0.000000
0.218995 0.385049 0.001295
0.246975 0.387377 0.012152
0.281373 0.393260 0.030607
0.321569 0.404780 0.056660
0.368382 0.421814 0.085287
0.417582 0.438783 0.109428
0.463817 0.453156 0.133441
0.505760 0.462622 0.154623
0.541460 0.467241 0.172143
0.578542 0.469719 0.186887
0.608579 0.474020 0.197978
0.634793 0.485172 0.204412
0.662500 0.500000 0.217524
0.689461 0.514671 0.226804
0.718015 0.531495 0.237500
0.746504 0.546136 0.248341
0.777451 0.560049 0.256863
0.806660 0.571775 0.265687
0.835295 0.580515 0.274632
0.864074 0.588396 0.282353
0.891245 0.596691 0.292402
0.918505 0.600490 0.302328
0.942938 0.605683 0.315533
0.969730 0.613236 0.333578
0.994830 0.615809 0.355392
1.000000 0.625885 0.386302
1.000000 0.634436 0.418015
0.115931 0.408334 0.000000
0.127451 0.410486 0.000000
0.136903 0.408364 0.000000
0.153761 0.408334 0.000000
0.173499 0.408823 0.000000
0.194240 0.406618 0.000000
0.218796 0.408334 0.001394
0.245826 0.408816 0.008808
0.274509 0.412194 0.025061
0.311512 0.424020 0.047671
0.356863 0.437255 0.073729
0.405760 0.455859 0.101669
0.455637 0.474265 0.128094
0.504863 0.490403 0.153799
0.547319 0.501225 0.173039
0.586083 0.508946 0.193313
0.620956 0.510172 0.210049
0.650176 0.510907 0.219049
0.677941 0.520604 0.229167
0.701999 0.533984 0.238274
0.727114 0.548530 0.249663
0.753385 0.563212 0.261252
0.780837 0.579412 0.272840
0.808954 0.592785 0.282361
0.837378 0.604105 0.292647
0.866176 0.615319 0.303791
0.895343 0.625659 0.317571
0.922304 0.632966 0.329144
0.948346 0.638266 0.342433
0.973813 0.644485 0.360455
0.998391 0.648422 0.380147
1.000000 0.658265 0.409298
1.000000 0.665441 0.439706
0.119731 0.433701 0.000000
0.131372 0.433644 0.000000
0.140816 0.433586 0.000000
0.156128 0.433506 0.000000
0.175261 0.431863 0.000000
0.194240 0.433414 0.000000
0.217402 0.433701 0.003187
0.244083 0.433701 0.008877
0.272672 0.435784 0.022089
0.304289 0.440441 0.041912
0.345994 0.456618 0.066092
0.393034 0.472059 0.091912
0.444363 0.493873 0.117525
0.496079 0.513113 0.146078
0.546201 0.530024 0.170152
0.588971 0.540805 0.194485
0.627574 0.546630 0.213726
0.660417 0.547672 0.230266
0.691299 0.548108 0.242892
0.715675 0.553788 0.251582
0.738680 0.565273 0.261229
0.764357 0.579412 0.272813
0.790073 0.594853 0.286313
0.815660 0.610294 0.297890
0.840778 0.621813 0.308088
0.867804 0.636853 0.319608
0.896714 0.650123 0.333211
0.924020 0.660214 0.348939
0.952099 0.667432 0.365701
0.977746 0.677206 0.385489
1.000000 0.679167 0.403063
1.000000 0.688963 0.430204
1.000000 0.694363 0.455147
0.127451 0.460784 0.000000
0.137132 0.458823 0.000000
0.148652 0.460662 0.000000
0.164155 0.460784 0.000000
0.179167 0.458823 0.000000
0.200123 0.458517 0.001655
0.221323 0.459191 0.007108
0.244914 0.460356 0.012868
0.272549 0.460294 0.022059
0.300061 0.462745 0.038971
0.339706 0.474020 0.062990
0.382108 0.487500 0.085478
0.429657 0.506127 0.110539
0.486091 0.531679 0.139890
0.535907 0.550613 0.166544
0.585049 0.565870 0.191605
0.628432 0.577451 0.213726
0.663174 0.581311 0.234927
0.698162 0.584314 0.253554
0.726348 0.582353 0.265135
0.753431 0.588480 0.274755
0.775306 0.598100 0.285049
0.801103 0.611642 0.297917
0.824877 0.625735 0.309497
0.848039 0.639216 0.323039
0.872733 0.654228 0.336581
0.898284 0.667769 0.350490
0.923714 0.681312 0.365931
0.954167 0.692647 0.385294
0.977758 0.700551 0.403064
1.000000 0.708088 0.424265
1.000000 0.715809 0.447487
1.000000 0.723529 0.470588
0.140931 0.485784 0.000000
0.150670 0.487803 0.000057
0.158326 0.487738 0.001838
0.173824 0.488040 0.003676
0.187010 0.485784 0.005500
0.207843 0.487542 0.012990
0.227083 0.485784 0.015097
0.250245 0.486240 0.022426
0.276348 0.487868 0.029687
0.303309 0.491203 0.044608
0.335623 0.493834 0.062914
0.374387 0.506862 0.082231
0.419562 0.522304 0.106173
0.469462 0.543248 0.131729
0.523514 0.566353 0.161872
0.575498 0.585421 0.187749
0.621691 0.600552 0.212807
0.664093 0.612136 0.235911
0.700720 0.617141 0.257161
0.733701 0.618271 0.275613
0.763802 0.617034 0.289492
0.786906 0.620466 0.299142
0.811275 0.627574 0.309352
0.834436 0.641176 0.322032
0.855760 0.656158 0.337132
0.878520 0.669573 0.350088
0.902474 0.683579 0.365931
0.927328 0.698407 0.383130
0.952589 0.710278 0.400735
0.975908 0.721863 0.418432
1.000000 0.731250 0.439706
1.000000 0.738970 0.462868
1.000000 0.748774 0.488113
0.154167 0.512745 0.012990
0.162431 0.514882 0.015250
0.171814 0.514813 0.016912
0.185455 0.515112 0.020833
0.198529 0.512745 0.022764
0.215908 0.514951 0.028064
0.234804 0.512745 0.030882
0.257966 0.514951 0.038243
0.280699 0.514951 0.045588
0.307108 0.515564 0.056127
0.335585 0.519363 0.070879
0.368015 0.526225 0.086742
0.410539 0.539216 0.107935
0.454695 0.556411 0.130469
0.507093 0.577926 0.158808
0.562010 0.600927 0.183893
0.610294 0.618260 0.210662
0.659260 0.635241 0.237692
0.699739 0.644837 0.259773
0.735784 0.650000 0.282315
0.768382 0.651716 0.300490
0.796791 0.650000 0.313457
0.820925 0.651226 0.324020
0.842655 0.660187 0.336902
0.866973 0.672059 0.350061
0.887983 0.684919 0.363350
0.909804 0.699020 0.381373
0.931250 0.712400 0.396814
0.954412 0.725981 0.416177
0.977367 0.737293 0.433985
1.000000 0.750628 0.455040
1.000000 0.760417 0.476524
1.000000 0.769853 0.499755
0.169486 0.539706 0.037745
0.177991 0.541962 0.040001
0.185516 0.541889 0.041567
0.197085 0.542035 0.044144
0.210049 0.539706 0.045588
0.227206 0.541786 0.051226
0.243260 0.539706 0.055024
0.266035 0.540215 0.059682
0.286704 0.539706 0.063205
0.311355 0.541380 0.072016
0.339468 0.545228 0.083088
0.367157 0.545956 0.095408
0.402819 0.557705 0.112377
0.445642 0.572549 0.133421
0.493298 0.591215 0.156533
0.545967 0.612512 0.183958
0.597610 0.633762 0.209007
0.647806 0.653922 0.237634
0.695175 0.667234 0.262661
0.734838 0.677608 0.286187
0.770588 0.682935 0.307093
0.800670 0.684004 0.326406
0.829297 0.682476 0.338970
0.854209 0.683785 0.352738
0.876317 0.692218 0.365533
0.895607 0.700264 0.378696
0.917524 0.714162 0.393328
0.938480 0.727696 0.412255
0.959727 0.741422 0.429580
0.977574 0.752723 0.449537
1.000000 0.766644 0.470489
1.000000 0.775980 0.489829
1.000000 0.787500 0.511397
0.187255 0.566667 0.066177
0.194976 0.569041 0.067126
0.201072 0.565288 0.067157
0.212638 0.567785 0.071079
0.221753 0.566667 0.070956
0.239461 0.568735 0.076241
0.254902 0.565472 0.077267
0.274265 0.565518 0.081373
0.294363 0.566299 0.085784
0.317571 0.566958 0.091345
0.343812 0.569363 0.098989
0.368505 0.571568 0.107475
0.398591 0.575122 0.120650
0.437623 0.588986 0.139461
0.483425 0.605147 0.160202
0.529289 0.623407 0.184804
0.583333 0.645343 0.209314
0.634758 0.667279 0.237577
0.683579 0.685876 0.263664
0.729534 0.700123 0.290656
0.766667 0.710294 0.313297
0.801470 0.715686 0.334084
0.831587 0.714920 0.353401
0.860371 0.713924 0.368091
0.886397 0.715931 0.382476
0.906005 0.719531 0.394041
0.926440 0.729902 0.412255
0.947794 0.741192 0.427696
0.965012 0.754228 0.444914
0.982736 0.768015 0.466421
1.000000 0.779810 0.485784
1.000000 0.791345 0.505147
1.000000 0.802941 0.524510
0.204044 0.593627 0.091667
0.210459 0.592321 0.094282
0.216873 0.592279 0.094240
0.225858 0.592647 0.096940
0.237500 0.592448 0.098162
0.249878 0.593417 0.099299
0.264453 0.592279 0.101601
0.283896 0.592279 0.105710
0.304289 0.592279 0.109589
0.324253 0.592279 0.111776
0.348039 0.593627 0.116965
0.373311 0.595316 0.125953
0.401501 0.598315 0.134099
0.433326 0.603979 0.148530
0.473774 0.619462 0.167134
0.518401 0.636397 0.189357
0.567892 0.656924 0.213726
0.618647 0.678083 0.239358
0.670343 0.700245 0.266766
0.718015 0.717280 0.293995
0.761903 0.731005 0.319485
0.800586 0.739610 0.342647
0.834927 0.745642 0.364583
0.865085 0.746568 0.384325
0.890870 0.744301 0.398468
0.913725 0.743210 0.413603
0.936152 0.749878 0.429044
0.953344 0.758000 0.444677
0.971124 0.768061 0.462500
0.990318 0.779902 0.479531
1.000000 0.791337 0.498568
1.000000 0.805435 0.516789
1.000000 0.815809 0.537377
0.223285 0.616667 0.119853
0.229818 0.619363 0.121362
0.233655 0.618214 0.121324
0.244110 0.619363 0.125245
0.252941 0.619363 0.125245
0.265196 0.616667 0.125858
0.279412 0.615671 0.126471
0.295443 0.616299 0.129167
0.315931 0.619056 0.132782
0.332353 0.616199 0.135907
0.355637 0.616667 0.140089
0.379343 0.619363 0.145274
0.406342 0.621507 0.153370
0.433341 0.624885 0.164469
0.469164 0.634850 0.179412
0.509314 0.651187 0.198369
0.555024 0.669117 0.219485
0.602574 0.689093 0.243872
0.654902 0.711075 0.271814
0.703546 0.731127 0.297794
0.751470 0.748254 0.325521
0.793750 0.761887 0.350368
0.831127 0.771461 0.373529
0.863236 0.776226 0.396691
0.891115 0.775122 0.414828
0.916299 0.773529 0.431886
0.940181 0.775720 0.448284
0.959735 0.778293 0.463534
0.978677 0.784559 0.479167
0.995113 0.794976 0.497304
1.000000 0.804090 0.513971
1.000000 0.818260 0.532146
1.000000 0.829902 0.551471
0.242525 0.643628 0.149510
0.249177 0.642559 0.149510
0.253010 0.642525 0.148476
0.261030 0.642789 0.152329
0.272304 0.642663 0.152467
0.280955 0.643455 0.152991
0.294853 0.642525 0.153432
0.310294 0.642525 0.156250
0.328554 0.642525 0.160172
0.343995 0.641732 0.160172
0.363580 0.641644 0.163971
0.387144 0.642525 0.167046
0.410631 0.644700 0.174801
0.435539 0.646446 0.182108
0.464208 0.651953 0.193750
0.502696 0.665196 0.211792
0.545956 0.680637 0.231066
0.588236 0.697917 0.252179
0.639461 0.719975 0.276838
0.690154 0.741992 0.304370
0.736719 0.761596 0.331005
0.783456 0.777451 0.360160
0.824632 0.791666 0.385172
0.859314 0.799387 0.408644
0.889921 0.804014 0.429381
0.917157 0.804412 0.450980
0.942854 0.803883 0.469815
0.966544 0.804239 0.482965
0.986045 0.804764 0.498407
1.000000 0.811416 0.513848
1.000000 0.819171 0.529465
1.000000 0.829779 0.547583
1.000000 0.841422 0.566912
0.265686 0.665686 0.176471
0.269577 0.666636 0.177512
0.273529 0.665748 0.179473
0.281280 0.668628 0.180392
0.291667 0.669485 0.180392
0.298927 0.665686 0.180392
0.311275 0.665686 0.181189
0.325735 0.665686 0.184313
0.341176 0.665686 0.187500
0.356618 0.665686 0.187960
0.375062 0.665686 0.190257
0.396262 0.665686 0.194730
0.418995 0.668137 0.198529
0.441667 0.669792 0.205852
0.466973 0.671875 0.213971
0.498254 0.680637 0.227819
0.538726 0.696078 0.245098
0.578676 0.709436 0.263358
0.624020 0.729350 0.287194
0.671936 0.750460 0.312040
0.724510 0.772917 0.341176
0.770833 0.789982 0.368137
0.815258 0.807353 0.396814
0.851593 0.818750 0.420251
0.886274 0.824265 0.444118
0.916942 0.830392 0.464124
0.944975 0.832966 0.485784
0.966544 0.831373 0.502665
0.989215 0.830882 0.517647
1.000000 0.830760 0.533088
1.000000 0.834559 0.548529
1.000000 0.845190 0.566912
1.000000 0.852941 0.583333
0.288848 0.688848 0.210417
0.293478 0.688848 0.211179
0.296691 0.688902 0.211274
0.304167 0.688848 0.211274
0.311887 0.688848 0.212025
0.319129 0.688848 0.211274
0.330515 0.688848 0.214461
0.342704 0.688848 0.215196
0.357598 0.689614 0.216177
0.374261 0.688607 0.218876
0.389606 0.688848 0.221224
0.406863 0.688848 0.222549
0.428677 0.691299 0.229412
0.450980 0.691177 0.232863
0.474142 0.694976 0.240556
0.498931 0.696480 0.249877
0.531801 0.707598 0.261826
0.573039 0.722583 0.281741
0.613358 0.737622 0.300980
0.658823 0.758230 0.327206
0.707154 0.779504 0.352374
0.755687 0.799927 0.379657
0.800490 0.815932 0.406349
0.843256 0.833816 0.434303
0.881495 0.845833 0.459559
0.912377 0.850490 0.479470
0.940035 0.858050 0.501961
0.966544 0.858333 0.520722
0.989215 0.858226 0.539568
1.000000 0.857188 0.555105
1.000000 0.857476 0.567770
1.000000 0.857694 0.583306
1.000000 0.868383 0.598652
0.315931 0.711275 0.242157
0.316643 0.711987 0.242870
0.323576 0.711321 0.246078
0.327397 0.712010 0.242893
0.335049 0.712010 0.246078
0.342271 0.710892 0.245581
0.353079 0.711872 0.246676
0.362132 0.712010 0.246813
0.373774 0.709068 0.247610
0.391422 0.711275 0.252818
0.405361 0.711504 0.252926
0.421209 0.710915 0.254657
0.440196 0.711734 0.258303
0.459436 0.711711 0.260608
0.482598 0.714216 0.267892
0.506717 0.717279 0.276961
0.532108 0.719853 0.284927
0.567548 0.734168 0.301838
0.606051 0.749265 0.320756
0.647741 0.766000 0.341475
0.691636 0.785539 0.364675
0.740204 0.807606 0.393750
0.785279 0.826716 0.420328
0.830967 0.844654 0.447388
0.873223 0.860723 0.474265
