luts/stills/fujifake_classicnegative_rossandhisjpegs.cube
TITLE "Fujifake Classic Negative" by rossandhisjpegs
#LUMIXPHOTOSTYLE STD
LUT_3D_SIZE 5
DOMAIN_MIN 0.0 0.0 0.0
DOMAIN_MAX 1.0 1.0 1.0
0.000000 0.000000 0.000000
0.273529 0.057843 0.000000
0.590196 0.139215 0.000000
0.850981 0.253921 0.000000
1.000000 0.372549 0.000000
0.000000 0.265686 0.116667
0.296814 0.304902 0.029657
0.581372 0.329902 0.115686
0.831618 0.405147 0.105147
1.000000 0.476470 0.129412
0.000000 0.586275 0.154902
0.293627 0.601471 0.235294
0.666667 0.622549 0.158823
0.876470 0.607353 0.257843
1.000000 0.645098 0.386274
0.000000 0.740196 0.108823
0.000000 0.767647 0.190441
0.577451 0.798039 0.348039
0.902451 0.836520 0.377206
1.000000 0.802941 0.483333
0.000000 1.000000 0.607843
0.000000 1.000000 0.581373
0.292157 1.000000 0.554902
0.752942 1.000000 0.583333
1.000000 0.984314 0.576471
0.100000 0.073529 0.223529
0.266421 0.076715 0.154902
0.591176 0.218137 0.170588
0.855882 0.262990 0.167157
1.000000 0.364706 0.160784
0.079412 0.271814 0.292892
0.297242 0.304718 0.265686
0.588848 0.345956 0.262132
0.838113 0.409988 0.245343
1.000000 0.472549 0.253922
0.000000 0.581373 0.369608
0.374510 0.663358 0.409681
0.663235 0.621569 0.338481
0.851838 0.613726 0.394976
1.000000 0.650490 0.454902
0.000000 0.757598 0.318627
0.000000 0.789461 0.301409
0.592892 0.819118 0.419118
0.898530 0.836520 0.476716
1.000000 0.810784 0.559804
0.000000 0.981372 0.646079
0.000000 1.000000 0.626716
0.168137 1.000000 0.569608
0.748529 1.000000 0.606128
1.000000 0.984314 0.614706
0.280392 0.201961 0.478432
0.478431 0.217647 0.478922
0.594117 0.174510 0.305883
0.834804 0.352941 0.332353
1.000000 0.437255 0.411765
0.146569 0.371079 0.499020
0.412378 0.355024 0.498774
0.593873 0.343137 0.387500
0.828922 0.464706 0.421814
1.000000 0.494608 0.450000
0.266667 0.565686 0.607843
0.407598 0.588480 0.598039
0.634804 0.601961 0.551471
0.818872 0.617892 0.551961
1.000000 0.641177 0.552941
0.196078 0.791667 0.663725
0.082843 0.798284 0.618628
0.608088 0.910784 0.605637
0.890687 0.834314 0.633578
1.000000 0.823039 0.674020
0.270589 0.964706 0.760784
0.266667 0.964706 0.739706
0.289216 0.999019 0.680392
0.721568 1.000000 0.666667
1.000000 0.988235 0.707843
0.505883 0.344117 0.704902
0.626471 0.350981 0.707843
0.796569 0.383333 0.678921
0.866421 0.321324 0.490932
1.000000 0.464706 0.551961
0.437500 0.453186 0.711029
0.572794 0.453983 0.710723
0.780515 0.473775 0.694731
0.851409 0.438297 0.539767
1.000000 0.532843 0.601225
0.400000 0.666667 0.734314
0.471569 0.661765 0.730392
0.699020 0.629412 0.720588
0.825490 0.625613 0.652696
1.000000 0.648529 0.684804
0.582598 0.779167 0.828676
0.624203 0.787439 0.826716
0.719363 0.811397 0.814706
0.867096 0.817402 0.770895
1.000000 0.818627 0.763970
0.658824 0.980392 0.939216
0.667402 0.980392 0.933088
0.658333 0.980882 0.898039
0.642647 0.999265 0.768137
1.000000 0.988235 0.845098
0.725490 0.600000 0.925490
0.783333 0.603922 0.929412
0.933334 0.607843 0.929412
1.000000 0.596078 0.861765
1.000000 0.576471 0.760784
0.694118 0.645098 0.928432
0.755147 0.645098 0.929412
0.908823 0.642157 0.932353
1.000000 0.634314 0.875735
1.000000 0.614706 0.776471
0.578431 0.743138 0.939215
0.646568 0.737254 0.936765
0.820588 0.730392 0.937255
1.000000 0.723039 0.914216
1.000000 0.705882 0.817647
0.612745 0.882353 0.964706
0.640932 0.883333 0.961029
0.722549 0.882353 0.960784
0.912500 0.849020 0.956863
1.000000 0.842157 0.892157
0.772549 0.929412 1.000000
0.796078 0.937255 1.000000
0.856863 0.952941 1.000000
0.950981 0.981372 0.997059
1.000000 1.000000 1.000000
