luts/stills/fujifake_classicnegative_rossandhisjpegs.cube
TITLE "Fujifake Classic Negative" by rossandhisjpegs
#LUMIXPHOTOSTYLE STD
LUT_3D_SIZE 9
DOMAIN_MIN 0.0 0.0 0.0
DOMAIN_MAX 1.0 1.0 1.0
0.000000 0.000000 0.000000
0.127451 0.019118 0.000000
0.273529 0.057843 0.000000
0.429412 0.100490 0.000000
0.590196 0.139215 0.000000
0.736765 0.195098 0.000000
0.850981 0.253921 0.000000
0.954902 0.318627 0.000000
1.000000 0.372549 0.000000
0.000000 0.119118 0.065196
0.126532 0.146140 0.012194
0.265196 0.161275 0.030270
0.418628 0.191360 0.029596
0.580637 0.220098 0.005147
0.727451 0.262745 0.000000
0.846201 0.309436 0.000000
0.950981 0.360355 0.000000
1.000000 0.407353 0.000000
0.000000 0.265686 0.116667
0.000858 0.273039 0.111397
0.296814 0.304902 0.029657
0.461887 0.303431 0.055270
0.581372 0.329902 0.115686
0.715686 0.366544 0.113726
0.831618 0.405147 0.105147
0.939706 0.441544 0.104902
1.000000 0.476470 0.129412
0.000000 0.455392 0.120098
0.000000 0.469301 0.153615
0.242769 0.450000 0.172549
0.495895 0.475368 0.079412
0.668137 0.473530 0.076961
0.742647 0.480944 0.175490
0.829412 0.505760 0.217280
0.927144 0.533517 0.237929
1.000000 0.560294 0.268628
0.000000 0.586275 0.154902
0.000000 0.596078 0.181863
0.293627 0.601471 0.235294
0.503922 0.620833 0.262010
0.666667 0.622549 0.158823
0.819363 0.616176 0.156863
0.876470 0.607353 0.257843
0.940441 0.621568 0.330147
1.000000 0.645098 0.386274
0.000000 0.667157 0.166176
0.000000 0.677145 0.191667
0.231617 0.686397 0.237868
0.445098 0.687684 0.281434
0.697794 0.764706 0.346078
0.795956 0.734743 0.265074
0.939583 0.723162 0.279044
0.995404 0.711581 0.371568
1.000000 0.722059 0.457843
0.000000 0.740196 0.108823
0.000000 0.754412 0.136764
0.000000 0.767647 0.190441
0.405269 0.778922 0.270588
0.577451 0.798039 0.348039
0.873775 0.936520 0.429779
0.902451 0.836520 0.377206
1.000000 0.819118 0.402574
1.000000 0.802941 0.483333
0.000000 0.850490 0.171568
0.000000 0.858333 0.068076
0.000000 0.881740 0.000000
0.000000 0.918137 0.116176
0.516912 0.972549 0.296569
0.741789 1.000000 0.459130
0.939460 1.000000 0.494608
0.973958 0.922549 0.484253
1.000000 0.900000 0.510784
0.000000 1.000000 0.607843
0.000000 1.000000 0.600000
0.000000 1.000000 0.581373
0.000000 1.000000 0.541667
0.292157 1.000000 0.554902
0.586765 1.000000 0.584314
0.752942 1.000000 0.583333
0.911765 1.000000 0.572059
1.000000 0.984314 0.576471
0.041667 0.034314 0.107843
0.120466 0.030883 0.077818
0.277451 0.069608 0.080637
0.438235 0.109987 0.078615
0.598039 0.139461 0.057843
0.742831 0.195098 0.022733
0.854779 0.254289 0.000000
0.958824 0.315625 0.000000
1.000000 0.372549 0.000000
0.014338 0.125245 0.139154
0.133088 0.150544 0.127505
0.269608 0.174280 0.130453
0.428247 0.200758 0.119118
0.589982 0.225735 0.103615
0.731962 0.262906 0.081963
0.849679 0.310340 0.060784
0.954366 0.360302 0.042042
1.000000 0.406863 0.058211
0.000000 0.300000 0.204534
0.096293 0.326195 0.199954
0.300735 0.305637 0.146844
0.447534 0.308011 0.163986
0.578554 0.338848 0.180454
0.718765 0.373790 0.172289
0.832414 0.406158 0.160754
0.942325 0.443306 0.160172
1.000000 0.475980 0.175980
0.000000 0.468444 0.222549
0.000000 0.503079 0.233020
0.292004 0.479182 0.245236
0.500505 0.475980 0.178799
0.656465 0.472886 0.185202
0.734988 0.482782 0.234122
0.826470 0.509712 0.257935
0.926961 0.536765 0.273185
1.000000 0.561581 0.296875
0.000000 0.590196 0.219363
0.000000 0.611244 0.244884
0.327757 0.622610 0.295956
0.511857 0.627941 0.316176
0.667525 0.623529 0.228921
0.812837 0.616115 0.237837
0.868872 0.608517 0.307536
0.934773 0.623744 0.362745
1.000000 0.646813 0.407353
0.000000 0.671752 0.215380
0.000000 0.684153 0.239277
0.237853 0.694746 0.282399
0.462745 0.698346 0.324510
0.698437 0.767157 0.387102
0.794891 0.736030 0.312860
0.933609 0.723851 0.331878
0.987784 0.713726 0.409153
1.000000 0.724204 0.480698
0.000000 0.755392 0.159436
0.000000 0.763358 0.182475
0.000000 0.776134 0.229504
0.404963 0.785662 0.300138
0.579963 0.801899 0.366605
0.871155 0.938495 0.459682
0.901470 0.838726 0.411274
1.000000 0.818367 0.440104
1.000000 0.806495 0.509926
0.000000 0.861765 0.217647
0.000000 0.869555 0.152566
0.000000 0.893336 0.023376
0.000000 0.929611 0.150161
0.527941 0.987776 0.319087
0.737867 1.000000 0.468788
0.936780 1.000000 0.509865
0.970902 0.919600 0.502995
1.000000 0.902941 0.532904
0.000000 0.996568 0.619608
0.000000 1.000000 0.612194
0.000000 1.000000 0.595710
0.000000 1.000000 0.560784
0.267402 1.000000 0.558823
0.579228 1.000000 0.589522
0.750368 1.000000 0.588603
0.908333 1.000000 0.579902
1.000000 0.984804 0.588235
0.100000 0.073529 0.223529
0.215809 0.088726 0.223652
0.266421 0.076715 0.154902
0.421691 0.137867 0.144730
0.591176 0.218137 0.170588
0.741299 0.222059 0.174633
0.855882 0.262990 0.167157
0.962377 0.314828 0.156985
1.000000 0.364706 0.160784
0.045466 0.185294 0.238848
0.180454 0.176700 0.239537
0.270129 0.176042 0.196936
0.433869 0.222687 0.202099
0.595037 0.258456 0.193566
0.740119 0.275551 0.191421
0.854044 0.313358 0.186734
0.956081 0.360401 0.181557
1.000000 0.400368 0.188726
0.079412 0.271814 0.292892
0.165563 0.290533 0.290809
0.297242 0.304718 0.265686
0.435263 0.320925 0.269332
0.588848 0.345956 0.262132
0.725889 0.377941 0.251379
0.838113 0.409988 0.245343
0.945833 0.444608 0.242157
1.000000 0.472549 0.253922
0.000000 0.463113 0.369485
0.067785 0.482368 0.357445
0.410846 0.561152 0.409804
0.497564 0.472733 0.296155
0.628922 0.471814 0.309988
0.720037 0.489890 0.327068
0.822090 0.515043 0.331250
0.925536 0.540870 0.333839
1.000000 0.562378 0.347181
0.000000 0.581373 0.369608
0.000000 0.602696 0.362010
0.374510 0.663358 0.409681
0.536336 0.645343 0.418872
0.663235 0.621569 0.338481
0.794118 0.614032 0.356372
0.851838 0.613726 0.394976
0.928493 0.629595 0.427267
1.000000 0.650490 0.454902
0.000000 0.671079 0.355882
0.000000 0.684942 0.339308
0.240625 0.718505 0.372917
0.506526 0.728309 0.423284
0.697610 0.771630 0.461152
0.790426 0.734130 0.400919
0.921630 0.726655 0.430454
0.976103 0.718137 0.481557
1.000000 0.731740 0.530392
0.000000 0.757598 0.318627
0.000000 0.768291 0.290196
0.000000 0.789461 0.301409
0.400276 0.805515 0.360325
0.592892 0.819118 0.419118
0.870098 0.942770 0.516912
0.898530 0.836520 0.476716
1.000000 0.822396 0.512500
1.000000 0.810784 0.559804
0.000000 0.888358 0.323652
0.000000 0.896079 0.281434
0.000000 0.919669 0.135416
0.000000 0.961366 0.218459
0.519485 1.000000 0.358579
0.733456 1.000000 0.492157
0.936121 1.000000 0.548223
0.973100 0.922442 0.548039
1.000000 0.903799 0.578921
0.000000 0.981372 0.646079
0.000000 0.988235 0.642157
0.000000 1.000000 0.626716
0.000000 1.000000 0.599510
0.168137 1.000000 0.569608
0.569975 1.000000 0.605025
0.748529 1.000000 0.606128
0.911274 1.000000 0.601593
1.000000 0.984314 0.614706
0.183824 0.138235 0.350980
0.279044 0.143443 0.354718
0.384682 0.156740 0.327818
0.430392 0.122549 0.222120
0.574020 0.189216 0.218137
0.730453 0.289706 0.250061
0.840686 0.355269 0.270098
0.952267 0.372365 0.282353
1.000000 0.377451 0.300000
0.138051 0.216176 0.358333
0.245259 0.213534 0.360899
0.380392 0.221768 0.348667
0.431426 0.200981 0.254841
0.581863 0.253186 0.262408
0.726578 0.340188 0.283617
0.840686 0.383961 0.287377
0.950942 0.399472 0.295772
1.000000 0.405882 0.311581
0.122549 0.338113 0.381372
0.189813 0.336382 0.379151
0.344700 0.321998 0.380178
0.438189 0.321017 0.334452
0.597243 0.368750 0.342831
0.730989 0.404029 0.336183
0.840533 0.433303 0.327880
0.948667 0.457046 0.330561
1.000000 0.468750 0.342647
0.156373 0.418934 0.456311
0.226409 0.431487 0.454940
0.338603 0.448376 0.438802
0.481618 0.461397 0.410991
0.595987 0.473315 0.415257
0.716605 0.494753 0.410723
0.827941 0.518827 0.407950
0.933402 0.541176 0.406748
1.000000 0.558211 0.413174
0.217157 0.579166 0.521569
0.236765 0.589308 0.514063
0.330760 0.620159 0.496998
0.551379 0.663174 0.532230
0.656250 0.617034 0.453677
0.760049 0.611765 0.472335
0.827451 0.618627 0.486704
0.919118 0.635540 0.495987
1.000000 0.651716 0.507598
0.000000 0.683272 0.511275
0.000000 0.683594 0.498054
0.204825 0.709160 0.483579
0.548384 0.780798 0.543628
0.697764 0.778891 0.557353
0.785685 0.732291 0.506824
0.898974 0.727313 0.535294
0.953746 0.724318 0.560233
1.000000 0.736274 0.581311
0.000000 0.763235 0.484681
0.000000 0.766039 0.469118
0.000000 0.787745 0.432230
0.338220 0.833456 0.449219
0.613725 0.851103 0.505515
0.859681 0.939323 0.587975
0.894608 0.835968 0.559742
1.000000 0.826424 0.590686
1.000000 0.817524 0.617647
0.000000 0.911274 0.486765
0.000000 0.917953 0.463457
0.000000 0.945098 0.391774
0.000000 0.991046 0.308640
0.439308 1.000000 0.399265
0.720213 1.000000 0.519003
0.932629 1.000000 0.599571
0.971224 0.922748 0.603248
1.000000 0.907353 0.634988
0.000000 0.966176 0.692647
0.000000 0.968627 0.687439
0.000000 0.978799 0.675490
0.000000 1.000000 0.649510
0.028186 1.000000 0.610049
0.543015 1.000000 0.629902
0.739706 1.000000 0.631005
0.912071 1.000000 0.632353
1.000000 0.985784 0.657353
0.280392 0.201961 0.478432
0.354902 0.203676 0.480393
0.478431 0.217647 0.478922
0.552696 0.208824 0.415196
0.594117 0.174510 0.305883
0.714461 0.239951 0.293872
0.834804 0.352941 0.332353
0.934804 0.442402 0.371568
1.000000 0.437255 0.411765
0.248284 0.259804 0.482353
0.326471 0.257629 0.485784
0.464706 0.265135 0.486029
0.549295 0.260876 0.430974
0.593137 0.235784 0.330637
0.716330 0.297151 0.329749
0.834130 0.391544 0.362377
0.931556 0.471048 0.394577
1.000000 0.456618 0.425245
0.146569 0.371079 0.499020
0.244669 0.360600 0.497120
0.412378 0.355024 0.498774
0.542157 0.358333 0.469301
0.593873 0.343137 0.387500
0.720588 0.397059 0.402635
0.828922 0.464706 0.421814
0.931802 0.508578 0.434314
1.000000 0.494608 0.450000
0.215196 0.480637 0.525980
0.269118 0.483762 0.524602
0.362010 0.486152 0.521017
0.511857 0.470313 0.515257
0.598529 0.472181 0.486397
0.719914 0.513756 0.486795
0.829289 0.536397 0.482475
0.937010 0.549663 0.480392
1.000000 0.550000 0.487990
0.266667 0.565686 0.607843
0.316544 0.572181 0.606005
0.407598 0.588480 0.598039
0.507475 0.587010 0.566299
0.634804 0.601961 0.551471
0.717770 0.606618 0.554902
0.818872 0.617892 0.551961
0.927083 0.632353 0.551838
1.000000 0.641177 0.552941
0.406617 0.689461 0.650490
0.416820 0.688726 0.644761
0.430882 0.699326 0.633333
0.480086 0.731311 0.607537
0.662133 0.763113 0.626471
0.774234 0.725214 0.596048
0.870588 0.724571 0.614277
0.932690 0.727604 0.620741
1.000000 0.740931 0.627206
0.196078 0.791667 0.663725
0.156679 0.795772 0.654228
0.082843 0.798284 0.618628
0.226654 0.811029 0.566667
0.608088 0.910784 0.605637
0.830024 0.926470 0.658640
0.890687 0.834314 0.633578
0.992586 0.827880 0.660784
1.000000 0.823039 0.674020
0.000000 0.893382 0.661519
0.000000 0.894057 0.648284
0.000000 0.906802 0.610294
0.000000 0.948683 0.538664
0.093872 1.000000 0.476225
0.685753 1.000000 0.556373
0.922917 1.000000 0.657537
0.971599 0.923009 0.663236
1.000000 0.911520 0.696324
0.270589 0.964706 0.760784
0.268873 0.964706 0.753432
0.266667 0.964706 0.739706
0.262745 0.971814 0.713235
0.289216 0.999019 0.680392
0.459069 1.000000 0.651225
0.721568 1.000000 0.666667
0.912255 1.000000 0.674509
1.000000 0.988235 0.707843
0.390196 0.265686 0.601961
0.444791 0.265686 0.600184
0.550123 0.273162 0.600123
0.650980 0.293137 0.588664
0.699265 0.263971 0.497794
0.741605 0.235233 0.394118
0.830392 0.301348 0.372059
0.929596 0.423223 0.431679
1.000000 0.450980 0.494608
0.365686 0.309988 0.601777
0.421186 0.309260 0.602229
0.536887 0.312730 0.605392
0.647174 0.330392 0.594669
0.697396 0.307445 0.511121
0.737086 0.284934 0.413680
0.826792 0.351424 0.402681
0.927428 0.449142 0.454389
1.000000 0.473713 0.512255
0.283701 0.394608 0.609804
0.356679 0.394746 0.608471
0.488450 0.395527 0.609682
0.628477 0.405683 0.607123
0.689767 0.394363 0.540380
0.731372 0.380331 0.458272
0.820895 0.442678 0.465503
0.923484 0.507429 0.504841
1.000000 0.518137 0.546691
0.211826 0.530392 0.627022
0.269500 0.525513 0.625130
0.391559 0.507766 0.622917
0.571423 0.501815 0.621017
0.673039 0.500705 0.585754
0.718650 0.497549 0.528079
0.817295 0.547350 0.547932
0.923154 0.575306 0.565196
1.000000 0.575000 0.587255
0.350000 0.609559 0.652696
0.383823 0.613388 0.650981
0.450858 0.617034 0.646998
0.530392 0.618628 0.640441
0.648039 0.603064 0.631495
0.720098 0.606127 0.615472
0.823775 0.631311 0.614154
0.932108 0.636367 0.613082
1.000000 0.630147 0.616176
0.453860 0.682291 0.719056
0.474334 0.685049 0.719117
0.523330 0.693827 0.714445
0.584658 0.704534 0.703899
0.638205 0.689614 0.666636
0.756273 0.713274 0.666445
0.830469 0.713572 0.665855
0.928431 0.718022 0.662010
1.000000 0.725061 0.662316
0.542157 0.799877 0.770098
0.553998 0.797059 0.765778
0.572273 0.791942 0.754688
0.580545 0.787224 0.732858
0.574142 0.830454 0.700858
0.762944 0.885938 0.717387
0.882108 0.827635 0.703799
0.970266 0.829595 0.724372
1.000000 0.827451 0.725368
0.512745 0.871752 0.797243
0.509643 0.869715 0.791261
0.489859 0.873621 0.778263
0.408280 0.885608 0.744807
0.262469 0.920527 0.670435
0.571638 1.000000 0.621883
0.892142 1.000000 0.725827
0.969738 0.923308 0.732414
1.000000 0.916483 0.761581
0.495098 0.976471 0.855392
0.491176 0.976471 0.851471
0.480882 0.975491 0.837255
0.465196 0.971568 0.808823
0.450000 0.969362 0.765932
0.474571 0.998162 0.718750
0.688358 1.000000 0.711274
0.907046 1.000000 0.721078
1.000000 0.988235 0.771568
0.505883 0.344117 0.704902
0.546078 0.344117 0.707843
0.626471 0.350981 0.707843
0.726348 0.369485 0.704902
0.796569 0.383333 0.678921
0.832231 0.343627 0.585784
0.866421 0.321324 0.490932
0.934804 0.381618 0.467279
1.000000 0.464706 0.551961
0.487132 0.378799 0.706128
0.528048 0.378906 0.706250
0.611642 0.382445 0.708517
0.717172 0.399694 0.705576
0.790686 0.411581 0.682537
0.828906 0.377574 0.594960
0.861888 0.359559 0.507108
0.931281 0.418582 0.491774
1.000000 0.490686 0.570098
0.437500 0.453186 0.711029
0.481128 0.451715 0.709559
0.572794 0.453983 0.710723
0.689798 0.460815 0.711091
0.780515 0.473775 0.694731
0.819822 0.449510 0.615196
0.851409 0.438297 0.539767
0.921722 0.488235 0.540809
1.000000 0.532843 0.601225
0.328554 0.554411 0.719118
0.384666 0.548928 0.718796
0.498254 0.545037 0.715288
0.633946 0.546201 0.715655
0.754718 0.552145 0.708027
0.802711 0.537806 0.646078
0.837132 0.532904 0.589185
0.915242 0.571615 0.601777
1.000000 0.590196 0.643627
0.400000 0.666667 0.734314
0.423346 0.667464 0.733823
0.471569 0.661765 0.730392
0.551225 0.642218 0.725245
0.699020 0.629412 0.720588
0.787623 0.625919 0.691177
0.825490 0.625613 0.652696
0.922978 0.647120 0.665441
1.000000 0.648529 0.684804
0.495588 0.719240 0.761765
0.511060 0.721124 0.760340
0.548775 0.725000 0.758180
0.601854 0.728630 0.752083
0.662500 0.726716 0.742769
0.764537 0.707353 0.732353
0.830668 0.713266 0.717800
0.936351 0.718213 0.721645
1.000000 0.719730 0.725980
0.582598 0.779167 0.828676
0.595221 0.781373 0.827451
0.624203 0.787439 0.826716
0.667494 0.798376 0.823254
0.719363 0.811397 0.814706
0.755637 0.791176 0.767402
0.867096 0.817402 0.770895
0.936397 0.812776 0.766207
1.000000 0.818627 0.763970
0.645956 0.906862 0.896569
0.652895 0.903554 0.892770
0.671048 0.903278 0.885999
0.695359 0.900214 0.874295
0.706924 0.885049 0.842586
0.660677 0.890319 0.788848
0.814338 0.997212 0.796078
0.968750 0.926149 0.810355
1.000000 0.923162 0.830025
0.658824 0.980392 0.939216
0.662745 0.980392 0.938358
0.667402 0.980392 0.933088
0.670098 0.981372 0.922672
0.658333 0.980882 0.898039
0.621078 0.978064 0.838235
0.642647 0.999265 0.768137
0.884926 1.000000 0.776348
1.000000 0.988235 0.845098
0.617157 0.457353 0.809314
0.643260 0.457353 0.809314
0.700981 0.462010 0.809314
0.785110 0.473713 0.809804
0.869608 0.489951 0.798039
0.922365 0.486949 0.760294
0.951348 0.452451 0.678554
0.977513 0.445159 0.621630
1.000000 0.502451 0.628922
0.605393 0.483333 0.809314
0.629243 0.483770 0.806641
0.688940 0.486505 0.809742
0.775873 0.494279 0.809804
0.864216 0.509069 0.800214
0.918283 0.507008 0.764055
0.947549 0.475444 0.686336
0.971017 0.468620 0.626838
1.000000 0.522059 0.640258
0.571568 0.536887 0.809804
0.598621 0.537561 0.809360
0.659529 0.539859 0.809834
0.750490 0.540808 0.811949
0.848713 0.550919 0.807108
0.912668 0.551026 0.775046
0.939706 0.524448 0.700919
0.963174 0.517953 0.648836
1.000000 0.566666 0.662745
0.504902 0.604595 0.813419
0.534360 0.604373 0.813810
0.606603 0.604917 0.812270
0.704105 0.605997 0.813726
0.815931 0.605882 0.813971
0.899073 0.607284 0.792096
0.931250 0.589262 0.724510
0.953026 0.582820 0.678630
1.000000 0.620772 0.693628
0.458579 0.704167 0.829167
0.479166 0.700276 0.827206
0.528615 0.687439 0.825429
0.629565 0.675888 0.821967
0.754902 0.671201 0.820466
0.875398 0.670006 0.813144
0.919669 0.657108 0.757537
0.945282 0.655147 0.716912
1.000000 0.684559 0.737745
0.525307 0.780209 0.848530
0.538028 0.779941 0.846186
0.567111 0.778937 0.844929
0.611880 0.773644 0.841353
0.676133 0.754504 0.835692
0.812569 0.736948 0.830025
0.907337 0.732950 0.801517
0.935562 0.732698 0.767609
1.000000 0.752451 0.786458
0.595466 0.818995 0.874019
0.606802 0.821615 0.874050
0.632997 0.825490 0.874540
0.671431 0.829764 0.870328
0.723529 0.835846 0.865686
0.780745 0.838266 0.857751
0.876317 0.813940 0.844056
0.935677 0.818535 0.825996
1.000000 0.823407 0.837377
0.679902 0.867709 0.934375
0.690694 0.868406 0.931311
0.713296 0.874617 0.933287
0.746040 0.883601 0.932276
0.790748 0.895343 0.929381
0.842709 0.912255 0.926961
0.879534 0.911060 0.901547
0.958333 0.924334 0.889530
1.000000 0.919608 0.884743
0.753921 0.968137 0.984804
0.757843 0.971569 0.984375
0.769117 0.972426 0.983824
0.789706 0.977758 0.982353
0.819118 0.983824 0.979167
0.841361 0.986642 0.971752
0.836887 0.987867 0.941299
0.835233 0.983824 0.845527
1.000000 0.996078 0.938726
0.725490 0.600000 0.925490
0.740686 0.603432 0.928922
0.783333 0.603922 0.929412
0.850490 0.603922 0.929412
0.933334 0.607843 0.929412
1.000000 0.609314 0.909804
1.000000 0.596078 0.861765
1.000000 0.580392 0.803432
1.000000 0.576471 0.760784
0.714215 0.615196 0.925980
0.733272 0.614767 0.925919
0.774510 0.612623 0.926348
0.842831 0.615380 0.929596
0.927451 0.619118 0.929412
0.999694 0.620588 0.913235
1.000000 0.610294 0.867279
1.000000 0.592034 0.810723
1.000000 0.591667 0.768137
0.694118 0.645098 0.928432
0.710784 0.642647 0.926838
0.755147 0.645098 0.929412
0.820098 0.642157 0.931250
0.908823 0.642157 0.932353
0.991544 0.646079 0.919118
1.000000 0.634314 0.875735
1.000000 0.618137 0.818628
1.000000 0.614706 0.776471
0.646078 0.683334 0.929412
0.669118 0.687255 0.929718
0.713235 0.686642 0.931250
0.785294 0.684804 0.933333
0.874755 0.680147 0.934559
0.970588 0.680882 0.927941
1.000000 0.674142 0.892770
1.000000 0.656863 0.833027
1.000000 0.655882 0.794608
0.578431 0.743138 0.939215
0.597304 0.741177 0.939215
0.646568 0.737254 0.936765
0.721814 0.733333 0.936029
0.820588 0.730392 0.937255
0.933333 0.725491 0.939215
1.000000 0.723039 0.914216
1.000000 0.709313 0.859804
1.000000 0.705882 0.817647
0.570098 0.824020 0.950490
0.579228 0.824142 0.950613
0.604412 0.820098 0.950123
0.651961 0.807353 0.948958
0.740686 0.791176 0.945098
0.864216 0.784252 0.945650
0.987622 0.781618 0.941666
1.000000 0.771262 0.890686
1.000000 0.771568 0.852451
0.612745 0.882353 0.964706
0.620588 0.880760 0.962132
0.640932 0.883333 0.961029
0.677573 0.883946 0.961397
0.722549 0.882353 0.960784
0.781495 0.865196 0.957843
0.912500 0.849020 0.956863
1.000000 0.843015 0.930392
1.000000 0.842157 0.892157
0.672059 0.906372 0.980882
0.676409 0.906372 0.976961
0.697181 0.909314 0.976961
0.731250 0.916360 0.976655
0.773774 0.924265 0.975245
0.823530 0.935294 0.974326
0.881740 0.942524 0.973039
0.961764 0.926470 0.972120
1.000000 0.930883 0.946078
0.772549 0.929412 1.000000
0.780392 0.933333 1.000000
0.796078 0.937255 1.000000
0.819608 0.941176 1.000000
0.856863 0.952941 1.000000
0.904902 0.966176 1.000000
0.950981 0.981372 0.997059
0.980392 0.992157 0.996078
1.000000 1.000000 1.000000
