luts/stills/fujifake_classicchrome_rossandhisjpegs.cube
TITLE "Fujifake Classic Chrome" by rossandhisjpegs
#LUMIXPHOTOSTYLE STD
LUT_3D_SIZE 9
DOMAIN_MIN 0.0 0.0 0.0
DOMAIN_MAX 1.0 1.0 1.0
0.000000 0.000000 0.000000
0.111764 0.007353 0.015196
0.228432 0.011765 0.038235
0.350980 0.033824 0.066667
0.472549 0.084314 0.096078
0.595588 0.145588 0.148039
0.721569 0.205883 0.206863
0.849020 0.263725 0.267647
0.980392 0.329412 0.337255
0.042157 0.131372 0.011765
0.150919 0.134804 0.023529
0.269118 0.168260 0.026471
0.385478 0.176164 0.022733
0.501226 0.191667 0.069363
0.623039 0.223039 0.142524
0.744240 0.267157 0.209926
0.864706 0.314154 0.275490
0.992157 0.375491 0.349020
0.086275 0.258823 0.000000
0.169730 0.258823 0.008701
0.304902 0.276961 0.064951
0.421691 0.304534 0.094608
0.551961 0.357843 0.111765
0.676348 0.378431 0.125368
0.786520 0.392402 0.195343
0.902451 0.424020 0.276838
1.000000 0.471569 0.368627
0.105882 0.360294 0.000000
0.171385 0.362745 0.000000
0.290686 0.375000 0.039583
0.463235 0.424020 0.136765
0.593137 0.448530 0.183333
0.710846 0.513725 0.222610
0.831005 0.551593 0.251103
0.933823 0.569302 0.289400
1.000000 0.601961 0.406373
0.127451 0.460784 0.000000
0.179167 0.458823 0.000000
0.272549 0.460294 0.022059
0.429657 0.506127 0.110539
0.628432 0.577451 0.213726
0.753431 0.588480 0.274755
0.848039 0.639216 0.323039
0.954167 0.692647 0.385294
1.000000 0.723529 0.470588
0.187255 0.566667 0.066177
0.221753 0.566667 0.070956
0.294363 0.566299 0.085784
0.398591 0.575122 0.120650
0.583333 0.645343 0.209314
0.766667 0.710294 0.313297
0.886397 0.715931 0.382476
0.965012 0.754228 0.444914
1.000000 0.802941 0.524510
0.265686 0.665686 0.176471
0.291667 0.669485 0.180392
0.341176 0.665686 0.187500
0.418995 0.668137 0.198529
0.538726 0.696078 0.245098
0.724510 0.772917 0.341176
0.886274 0.824265 0.444118
0.989215 0.830882 0.517647
1.000000 0.852941 0.583333
0.375490 0.755392 0.316666
0.387745 0.755453 0.316728
0.421569 0.753309 0.320588
0.477145 0.756372 0.328738
0.557598 0.768137 0.346323
0.691177 0.817157 0.408456
0.858946 0.889584 0.506373
0.981863 0.926470 0.595037
1.000000 0.923040 0.660295
0.631373 0.968627 0.549020
0.639216 0.968627 0.549510
0.664706 0.971569 0.555883
0.700490 0.976471 0.563235
0.752941 0.976471 0.572549
0.827941 0.981863 0.597549
0.916666 0.992157 0.644118
0.996568 0.995588 0.702941
1.000000 0.988235 0.760784
0.011765 0.026961 0.092647
0.123039 0.019118 0.103921
0.227084 0.052206 0.126593
0.346875 0.071569 0.159988
0.470343 0.081372 0.169853
0.594118 0.166176 0.222059
0.718995 0.228922 0.275000
0.849510 0.283272 0.321998
0.980392 0.344608 0.382843
0.012562 0.135233 0.115748
0.137546 0.134161 0.126586
0.250169 0.146033 0.141513
0.369937 0.165196 0.162891
0.493413 0.198070 0.192616
0.617157 0.238886 0.234697
0.741927 0.286214 0.282399
0.867655 0.331924 0.331556
0.995159 0.390257 0.391177
0.047549 0.255883 0.100981
0.151792 0.255331 0.105698
0.293444 0.272794 0.152666
0.409268 0.306418 0.170941
0.543199 0.349081 0.180883
0.670052 0.369348 0.213726
0.783732 0.396967 0.275521
0.901961 0.434375 0.339767
1.000000 0.482353 0.410294
0.079228 0.361581 0.077941
0.157774 0.360133 0.083885
0.274648 0.365012 0.108103
0.456503 0.420098 0.196576
0.582751 0.446875 0.230392
0.704411 0.512370 0.262990
0.825812 0.546400 0.289170
0.933333 0.566812 0.331863
1.000000 0.605699 0.440993
0.110049 0.458578 0.076716
0.169179 0.458395 0.082353
0.262868 0.458149 0.095588
0.418229 0.500245 0.157200
0.621692 0.575490 0.255882
0.745833 0.587745 0.307353
0.841605 0.641176 0.351961
0.948775 0.690901 0.409835
1.000000 0.723284 0.491667
0.175980 0.565196 0.121753
0.217486 0.566322 0.126493
0.288848 0.565196 0.133211
0.391973 0.570343 0.157177
0.575000 0.640931 0.241023
0.764032 0.707728 0.342463
0.879289 0.713679 0.407675
0.959352 0.756212 0.469340
1.000000 0.805086 0.542157
0.261765 0.665686 0.207353
0.288573 0.666008 0.210677
0.339032 0.665686 0.214951
0.415212 0.667295 0.226210
0.531556 0.688419 0.264829
0.717479 0.768597 0.362270
0.885294 0.827022 0.466728
0.985524 0.830622 0.536335
1.000000 0.856495 0.597671
0.372487 0.752819 0.332292
0.389936 0.755132 0.335034
0.422258 0.753631 0.337224
0.475161 0.756372 0.343933
0.557353 0.767892 0.361703
0.687415 0.813396 0.421630
0.856250 0.888404 0.521461
0.981487 0.923897 0.606855
1.000000 0.923040 0.671140
0.631373 0.968627 0.564216
0.642647 0.969056 0.564216
0.665564 0.972426 0.567279
0.700490 0.974020 0.572243
0.752941 0.976471 0.580392
0.825613 0.981679 0.602757
0.916666 0.989583 0.649020
0.996568 0.995588 0.710294
1.000000 0.988235 0.764706
0.018627 0.065687 0.193137
0.138725 0.061765 0.212255
0.258088 0.066422 0.224510
0.348039 0.100000 0.221078
0.469118 0.150000 0.267647
0.590196 0.178921 0.303431
0.711764 0.202206 0.326716
0.845220 0.235417 0.357843
0.976471 0.316666 0.419608
0.072181 0.157108 0.204534
0.143459 0.154412 0.216606
0.260938 0.157475 0.234345
0.357093 0.176118 0.246262
0.474571 0.200429 0.284865
0.598453 0.224571 0.309865
0.729994 0.261305 0.342524
0.861581 0.324066 0.396063
0.989216 0.390564 0.455270
0.020833 0.271079 0.242157
0.133670 0.266391 0.241452
0.270405 0.266054 0.251532
0.394332 0.291391 0.278891
0.518505 0.316054 0.306373
0.647580 0.354228 0.346109
0.775000 0.400123 0.392095
0.898008 0.441636 0.436121
1.000000 0.488726 0.487990
0.003309 0.357475 0.201471
0.094194 0.360294 0.195849
0.249816 0.362714 0.203952
0.438526 0.411566 0.284681
0.560784 0.449081 0.311274
0.694746 0.501838 0.335845
0.814032 0.529044 0.366207
0.930408 0.560432 0.426777
1.000000 0.607966 0.511764
0.008334 0.452941 0.177451
0.122672 0.452758 0.180699
0.240319 0.451348 0.184804
0.384252 0.475184 0.220037
0.605882 0.565686 0.330882
0.727512 0.585601 0.373162
0.830270 0.643015 0.412745
0.943382 0.690870 0.466973
1.000000 0.719117 0.538725
0.144118 0.562745 0.203922
0.191084 0.561734 0.204672
0.277328 0.562378 0.210570
0.378064 0.562898 0.222671
0.552757 0.624571 0.295159
0.753983 0.703232 0.405071
0.867984 0.714920 0.464890
0.951517 0.760784 0.515686
1.000000 0.810784 0.583824
0.248529 0.662500 0.267647
0.276961 0.664706 0.270588
0.336336 0.664216 0.273775
0.409590 0.662225 0.278217
0.516421 0.677573 0.308211
0.707537 0.762255 0.407169
0.878983 0.824081 0.513051
0.978432 0.831250 0.577206
1.000000 0.860785 0.632353
0.371691 0.752084 0.373162
0.386933 0.752130 0.370910
0.423223 0.753738 0.374908
0.474924 0.756051 0.380270
0.550735 0.763603 0.392402
0.681189 0.810968 0.448897
0.855974 0.889094 0.551103
0.980515 0.926807 0.639982
1.000000 0.923040 0.697181
0.635294 0.969607 0.588235
0.643137 0.969975 0.588603
0.668137 0.975000 0.594363
0.703799 0.975858 0.598407
0.754412 0.977941 0.606372
0.827941 0.984314 0.627941
0.915196 0.992157 0.670833
0.995711 0.995098 0.728064
1.000000 0.988235 0.780392
0.045588 0.122549 0.300000
0.143444 0.122549 0.313051
0.292034 0.126471 0.346446
0.400490 0.132843 0.354350
0.471078 0.145833 0.328186
0.593199 0.221630 0.373101
0.717647 0.272549 0.426471
0.845404 0.294118 0.463052
0.972549 0.305392 0.488235
0.087929 0.185294 0.301470
0.154082 0.187477 0.315089
0.289216 0.194424 0.347503
0.397863 0.196883 0.357353
0.474663 0.207996 0.340104
0.597855 0.264637 0.389147
0.725720 0.304948 0.441222
0.851884 0.324227 0.471140
0.983824 0.345098 0.499510
0.146569 0.277941 0.316177
0.186029 0.275720 0.317877
0.274234 0.281128 0.342892
0.391728 0.289706 0.362745
0.493321 0.314461 0.380147
0.612745 0.347457 0.427068
0.736366 0.366574 0.455791
0.865334 0.385462 0.480408
0.999387 0.422917 0.517402
0.031005 0.398958 0.367586
0.127566 0.395152 0.365862
0.248652 0.385861 0.358640
0.405193 0.398039 0.379044
0.540380 0.435693 0.416360
0.677428 0.476448 0.464315
0.797917 0.506005 0.498529
0.914101 0.536964 0.534865
1.000000 0.579902 0.580821
0.030637 0.459804 0.338971
0.120527 0.459743 0.332445
0.202267 0.472426 0.307476
0.369608 0.481097 0.318628
0.583824 0.554289 0.423652
0.698009 0.587255 0.458578
0.818382 0.641299 0.498652
0.935049 0.673775 0.542065
1.000000 0.712500 0.613235
0.000000 0.550980 0.303063
0.089943 0.556059 0.301049
0.242325 0.559942 0.304473
0.362914 0.562194 0.310807
0.523744 0.605392 0.363205
0.738258 0.697549 0.489070
0.847503 0.716039 0.536994
0.938419 0.769110 0.582966
1.000000 0.813787 0.641115
0.215196 0.657353 0.347549
0.251593 0.660662 0.349387
0.321477 0.662500 0.351961
0.407154 0.664737 0.356173
0.502941 0.670282 0.368689
0.693490 0.752880 0.465303
0.870588 0.823989 0.576930
0.967678 0.833900 0.632292
1.000000 0.868628 0.677818
0.372549 0.760294 0.431373
0.391215 0.762477 0.434804
0.427129 0.764798 0.435646
0.485777 0.767639 0.439216
0.557108 0.773590 0.448284
0.673897 0.807169 0.490372
0.852375 0.891314 0.596752
0.975345 0.927121 0.682391
1.000000 0.926777 0.731556
0.639216 0.972549 0.633824
0.650490 0.976471 0.633824
0.671446 0.978309 0.639216
0.707414 0.980392 0.640747
0.756862 0.983579 0.648039
0.823468 0.985233 0.659743
0.912745 0.992525 0.699632
0.992954 0.995894 0.752267
1.000000 0.988235 0.803922
0.086275 0.178431 0.401960
0.161029 0.178431 0.413480
0.291177 0.183823 0.447549
0.455392 0.198039 0.490686
0.551961 0.198039 0.490196
0.604412 0.195098 0.447059
0.720098 0.281373 0.478922
0.847304 0.338235 0.534314
0.976471 0.376471 0.586275
0.114951 0.224510 0.400000
0.171293 0.224724 0.413235
0.287929 0.230760 0.445527
0.450184 0.247733 0.491115
0.548039 0.247917 0.491054
0.604320 0.243321 0.451379
0.725307 0.320037 0.493137
0.851195 0.367095 0.544087
0.982598 0.401471 0.595833
0.154412 0.299020 0.397549
0.193015 0.299693 0.405883
0.282844 0.308088 0.435539
0.438235 0.330882 0.487255
0.541422 0.333333 0.493627
0.609130 0.333762 0.469547
0.736520 0.391667 0.520588
0.860785 0.424448 0.568689
0.988725 0.447549 0.607843
0.207108 0.394118 0.428431
0.242004 0.394271 0.429657
0.304596 0.396079 0.435478
0.405607 0.410263 0.468382
0.527206 0.423039 0.491544
0.636336 0.456158 0.519884
0.755270 0.489829 0.568137
0.869700 0.499939 0.593872
0.997304 0.517892 0.620833
0.074510 0.515686 0.492157
0.149387 0.511887 0.489338
0.249265 0.502941 0.481373
0.363358 0.493995 0.468015
0.540196 0.530392 0.507353
0.672672 0.573162 0.550368
0.815686 0.622794 0.612500
0.932108 0.651226 0.649265
1.000000 0.678432 0.685294
0.171569 0.577451 0.480392
0.209865 0.573683 0.476716
0.283824 0.574448 0.470221
0.368903 0.611060 0.457904
0.523774 0.627574 0.468260
0.713511 0.685325 0.569148
0.822059 0.721324 0.610601
0.931036 0.773774 0.655300
1.000000 0.812255 0.711765
0.275000 0.673529 0.490196
0.284130 0.679657 0.484497
0.304412 0.691177 0.465441
0.416177 0.705208 0.469056
0.525490 0.709804 0.474755
0.680453 0.751287 0.530882
0.859559 0.822059 0.642892
0.953431 0.837316 0.691054
1.000000 0.879902 0.732843
0.375490 0.793382 0.525735
0.398070 0.794056 0.525980
0.443382 0.800551 0.529412
0.510233 0.806955 0.534099
0.583456 0.810294 0.537010
0.679963 0.823591 0.556832
0.848345 0.894914 0.649203
0.970098 0.930607 0.734344
1.000000 0.928922 0.775490
0.643137 0.976471 0.694117
0.654412 0.978677 0.694117
0.677451 0.982353 0.698039
0.714215 0.986274 0.700735
0.761765 0.989216 0.704902
0.824020 0.992157 0.712500
0.908823 0.994608 0.739215
0.989215 0.997794 0.788971
1.000000 0.988235 0.833333
0.123039 0.234314 0.507843
0.180392 0.233027 0.517831
0.294118 0.238235 0.546691
0.453922 0.251532 0.595098
0.616421 0.275490 0.638481
0.705392 0.271998 0.630882
0.744240 0.247304 0.571079
0.841667 0.320588 0.583027
0.976471 0.397549 0.638235
0.136765 0.267157 0.503921
0.188342 0.268467 0.515487
0.293505 0.274387 0.544960
0.447051 0.288595 0.591483
0.614277 0.313970 0.637347
0.700873 0.310309 0.629297
0.744424 0.287699 0.574954
0.845381 0.352267 0.589767
0.980392 0.423039 0.646078
0.167647 0.328922 0.496691
0.206556 0.329596 0.507000
0.291544 0.338970 0.533732
0.435018 0.358441 0.583257
0.607353 0.391422 0.635601
0.692938 0.388235 0.629871
0.740227 0.362745 0.580637
0.854856 0.422917 0.610646
0.986152 0.474387 0.667157
0.211826 0.406373 0.494608
0.236665 0.408640 0.499525
0.298300 0.412975 0.516146
0.410493 0.432353 0.561275
0.585049 0.476716 0.626716
0.678286 0.477880 0.626409
0.742325 0.464966 0.600475
0.866108 0.517647 0.647664
0.994240 0.549081 0.698591
0.253186 0.522794 0.552451
0.282353 0.522151 0.552543
0.339767 0.519424 0.551777
0.417157 0.516881 0.554381
0.535294 0.539706 0.594608
0.655606 0.556802 0.620343
0.757537 0.579841 0.641912
0.886551 0.618474 0.698774
1.000000 0.634069 0.735049
0.226654 0.628247 0.609252
0.257161 0.625727 0.607606
0.318398 0.619164 0.602328
0.392831 0.607269 0.590296
0.504626 0.624387 0.596446
0.668053 0.658333 0.637117
0.795680 0.699341 0.678401
0.934942 0.746439 0.740127
1.000000 0.784804 0.789645
0.326471 0.708333 0.621936
0.346078 0.706771 0.619731
0.385662 0.701838 0.615165
0.444807 0.699954 0.609145
0.533395 0.748529 0.612868
0.676608 0.773177 0.627160
0.839001 0.814583 0.711060
0.934666 0.845389 0.754090
1.000000 0.888236 0.794240
0.473529 0.797549 0.661275
0.484536 0.804473 0.664384
0.509635 0.818643 0.664859
0.533341 0.842831 0.655407
0.618719 0.865196 0.661182
0.711091 0.871875 0.664836
0.840640 0.898652 0.709743
0.964239 0.930990 0.790602
1.000000 0.935600 0.823530
0.640686 0.965686 0.755882
0.647059 0.967157 0.755882
0.673530 0.975491 0.762745
0.717095 0.985233 0.770037
0.767402 0.993382 0.775490
0.824632 0.996630 0.779044
0.902819 0.998897 0.790686
0.984988 0.999510 0.833027
1.000000 0.992157 0.872059
0.150000 0.291177 0.630392
0.203799 0.292157 0.637868
0.309804 0.298284 0.660785
0.454779 0.311397 0.699510
0.624510 0.341176 0.746078
0.770466 0.376961 0.775858
0.844853 0.367647 0.760784
0.886152 0.328431 0.703309
0.968627 0.372549 0.696079
0.157843 0.318995 0.627451
0.207521 0.319118 0.634973
0.307506 0.324418 0.655882
0.450184 0.340824 0.694302
0.620405 0.373039 0.743627
0.769256 0.410907 0.776118
0.842494 0.401103 0.760784
0.882674 0.359268 0.703585
0.971201 0.402084 0.700000
0.176471 0.370833 0.618137
0.219363 0.372549 0.625123
0.306679 0.380024 0.646324
0.440594 0.398437 0.686550
0.609927 0.435539 0.736275
0.762102 0.477543 0.775031
0.833150 0.466912 0.760784
0.875368 0.422090 0.704197
0.971814 0.456863 0.712010
0.190073 0.437255 0.600367
0.225184 0.439706 0.607843
0.302206 0.445282 0.626838
0.421569 0.463235 0.665518
0.586091 0.506373 0.721507
0.749510 0.555821 0.770098
0.821691 0.548499 0.759406
0.865870 0.503431 0.709436
0.981250 0.539093 0.736765
0.242157 0.522059 0.610294
0.265503 0.521875 0.610907
0.312990 0.520465 0.616054
0.394914 0.526287 0.634069
0.539706 0.559804 0.688235
0.725674 0.624448 0.761642
0.807598 0.622917 0.759682
0.868383 0.594546 0.726838
1.000000 0.640686 0.777941
0.295343 0.658823 0.681373
0.318061 0.655132 0.679948
0.369516 0.650889 0.677972
0.442616 0.640457 0.673530
0.524510 0.630514 0.669669
0.657475 0.661627 0.719240
0.786091 0.689767 0.751900
0.876348 0.694240 0.759758
1.000000 0.745588 0.830270
0.355392 0.748774 0.729167
0.371936 0.746936 0.729504
0.410049 0.742647 0.725674
0.466391 0.734896 0.719853
0.536029 0.731863 0.715196
0.657139 0.767371 0.739185
0.791422 0.783762 0.764767
0.913266 0.820650 0.805791
1.000000 0.855637 0.854657
0.489094 0.816666 0.744853
0.499908 0.813726 0.744500
0.522886 0.812224 0.743106
0.560692 0.808839 0.740824
0.619975 0.821017 0.746017
0.715227 0.883149 0.774464
0.825429 0.908486 0.786948
0.949740 0.929795 0.848805
1.000000 0.945711 0.877451
0.666667 0.913725 0.808823
0.674510 0.916667 0.808823
0.696814 0.928186 0.816666
0.732475 0.946569 0.829412
0.769608 0.970098 0.841667
0.834314 0.995465 0.857230
0.896814 1.000000 0.858579
0.977451 0.999632 0.880882
1.000000 0.992157 0.915686
0.205392 0.366177 0.763235
0.247549 0.366177 0.766667
0.339215 0.370098 0.782353
0.470282 0.384620 0.808333
0.623775 0.416912 0.842647
0.783824 0.464829 0.877451
0.900245 0.499510 0.895589
0.966667 0.487807 0.879963
1.000000 0.441667 0.830392
0.208395 0.385294 0.758824
0.251302 0.386053 0.763235
0.339522 0.392969 0.777895
0.468298 0.407353 0.804718
0.621845 0.440380 0.839430
0.779902 0.489362 0.877129
0.900230 0.522657 0.895696
0.963281 0.508211 0.876953
1.000000 0.464706 0.830392
0.213236 0.430515 0.751471
0.254902 0.431296 0.756143
0.338388 0.437898 0.770986
0.463541 0.456189 0.797687
0.614645 0.489216 0.834988
0.775658 0.537668 0.873529
0.895772 0.574847 0.894945
0.958808 0.560294 0.879197
1.000000 0.513725 0.833824
0.202635 0.488419 0.735968
0.244585 0.488932 0.741529
0.327696 0.495037 0.756281
0.446576 0.512875 0.782659
0.595895 0.547151 0.823039
0.760049 0.597488 0.867777
0.889400 0.639767 0.895589
0.948675 0.624403 0.880369
0.996568 0.571752 0.834008
0.187990 0.557598 0.722059
0.219302 0.557812 0.725521
0.292279 0.558027 0.733946
0.405300 0.566758 0.757598
0.553431 0.594730 0.797917
0.729504 0.650490 0.853340
0.878186 0.705637 0.893934
0.940502 0.694883 0.883609
0.990686 0.642647 0.839706
0.256863 0.651961 0.744424
0.276409 0.649816 0.742402
0.324525 0.646431 0.744347
0.389890 0.640311 0.744539
0.488787 0.642647 0.760202
0.662194 0.684436 0.818260
0.856066 0.765364 0.888358
0.929596 0.764706 0.886619
0.988725 0.718934 0.852451
0.336765 0.798039 0.816667
0.355760 0.797917 0.816590
0.400735 0.793535 0.815564
0.462117 0.782139 0.808517
0.540318 0.766421 0.800551
0.624204 0.749081 0.795634
0.780362 0.784773 0.845680
0.914292 0.826057 0.883793
0.999510 0.811274 0.880760
0.488297 0.857292 0.840258
0.499893 0.857230 0.837952
0.528294 0.856464 0.839170
0.568773 0.850804 0.835156
0.623254 0.850337 0.835938
0.706495 0.875697 0.853332
0.813434 0.904305 0.880928
0.911229 0.906924 0.894355
0.999571 0.930025 0.922182
0.686275 0.933333 0.863725
0.694547 0.933823 0.867647
0.715809 0.938113 0.870588
0.751961 0.947365 0.879412
0.802206 0.964706 0.895098
0.858333 0.976839 0.916176
0.914828 0.995588 0.938725
0.961764 0.999571 0.942157
1.000000 0.996078 0.965196
0.333333 0.482353 0.909804
0.363726 0.482353 0.909804
0.429412 0.489216 0.917647
0.528921 0.496569 0.929412
0.650980 0.515686 0.947059
0.786274 0.546569 0.966176
0.909804 0.586275 0.981372
1.000000 0.608333 0.984804
1.000000 0.596078 0.972549
0.337255 0.498039 0.906372
0.364645 0.498039 0.909375
0.429289 0.501471 0.913725
0.527635 0.511948 0.928125
0.650735 0.530882 0.945098
0.785968 0.563235 0.965870
0.909804 0.600613 0.981372
1.000000 0.626899 0.988174
1.000000 0.615196 0.975981
0.344118 0.535294 0.904902
0.368137 0.536274 0.905882
0.431618 0.539215 0.913725
0.523529 0.547059 0.924020
0.644608 0.564706 0.940686
0.778431 0.595956 0.962255
0.905883 0.635294 0.978432
0.993995 0.661765 0.985172
1.000000 0.649019 0.972549
0.333333 0.585294 0.898039
0.360294 0.585600 0.901961
0.420588 0.588235 0.907720
0.510784 0.596140 0.918566
0.628186 0.609559 0.934068
0.765686 0.640686 0.955882
0.896201 0.682475 0.978554
0.989215 0.710784 0.984314
1.000000 0.699020 0.975000
0.292157 0.649019 0.894118
0.318873 0.649019 0.895833
0.381372 0.646568 0.900980
0.476716 0.647058 0.909804
0.596079 0.658824 0.926470
0.739951 0.687745 0.950490
0.880392 0.732353 0.973039
0.983088 0.768628 0.986029
1.000000 0.756862 0.976471
0.273529 0.727451 0.895588
0.291177 0.725981 0.895711
0.339215 0.722059 0.899142
0.419117 0.716605 0.903431
0.538725 0.713480 0.915686
0.690686 0.732353 0.938725
0.852328 0.779902 0.967524
0.973529 0.830392 0.985784
1.000000 0.822549 0.980392
0.334313 0.826470 0.918627
0.346936 0.823897 0.918627
0.383579 0.818872 0.917892
0.441789 0.812868 0.918627
0.513235 0.803431 0.918627
0.612745 0.791789 0.926103
0.788971 0.814706 0.952941
0.954412 0.881250 0.984314
1.000000 0.888236 0.981372
0.422059 0.946569 0.961274
0.434253 0.943137 0.957782
0.466790 0.941789 0.957353
0.518995 0.935478 0.957537
0.582353 0.927941 0.955882
0.656863 0.915686 0.953921
0.742034 0.895588 0.950000
0.899081 0.907782 0.972549
1.000000 0.950000 0.984804
0.650980 0.988235 0.952941
0.658824 0.984804 0.952941
0.678431 0.988235 0.952941
0.712255 0.985784 0.952941
0.760784 0.988235 0.960784
0.830392 0.996078 0.970098
0.904902 1.000000 0.981372
0.965196 0.999510 0.992157
1.000000 1.000000 1.000000
