luts/stills/fujifake_astia_rossandhisjpegs.cube
TITLE "Fujifake Astia" by rossandhisjpegs
#LUMIXPHOTOSTYLE STD
LUT_3D_SIZE 9
DOMAIN_MIN 0.0 0.0 0.0
DOMAIN_MAX 1.0 1.0 1.0
0.000000 0.000000 0.000000
0.138725 0.003922 0.003432
0.286274 0.011765 0.003922
0.433333 0.029902 0.007843
0.580392 0.064706 0.025490
0.725000 0.104902 0.061765
0.847059 0.150981 0.103922
0.958824 0.204902 0.153921
1.000000 0.258824 0.215686
0.003432 0.131372 0.000000
0.139215 0.135723 0.000000
0.285294 0.154780 0.011642
0.431863 0.164890 0.021568
0.578431 0.180147 0.040686
0.726961 0.199510 0.071569
0.847059 0.226593 0.114338
0.959253 0.262255 0.162193
1.000000 0.304902 0.223529
0.004902 0.273529 0.000000
0.157843 0.273652 0.000000
0.282353 0.274509 0.000000
0.429044 0.296201 0.031863
0.579902 0.313235 0.077941
0.723529 0.328799 0.101838
0.847059 0.344608 0.140441
0.959314 0.366054 0.187868
1.000000 0.394117 0.247059
0.006373 0.420098 0.000000
0.171262 0.422243 0.000000
0.308333 0.420098 0.000000
0.430392 0.415257 0.000000
0.578431 0.436520 0.046324
0.720159 0.461336 0.124510
0.842525 0.472549 0.174142
0.954595 0.484988 0.223039
1.000000 0.505392 0.284804
0.043137 0.572549 0.000000
0.189951 0.574510 0.000000
0.334314 0.574510 0.000000
0.459559 0.567402 0.000000
0.576470 0.557843 0.000000
0.710539 0.574020 0.058578
0.831373 0.592647 0.177451
0.948530 0.609804 0.257843
1.000000 0.623529 0.331372
0.114216 0.709314 0.000000
0.216666 0.711948 0.000000
0.350123 0.713480 0.000000
0.479412 0.710784 0.000000
0.591667 0.699510 0.000000
0.698530 0.689154 0.000000
0.822059 0.700613 0.098775
0.939032 0.715993 0.243444
1.000000 0.733823 0.352941
0.174510 0.835295 0.000000
0.254044 0.839216 0.000000
0.368627 0.842157 0.000000
0.488848 0.839828 0.000000
0.602941 0.835785 0.000000
0.706740 0.824142 0.000000
0.809314 0.812500 0.003186
0.930025 0.815686 0.165564
1.000000 0.827451 0.320588
0.239706 0.946569 0.000490
0.289706 0.947059 0.001042
0.385294 0.947427 0.002819
0.497549 0.950491 0.011458
0.606128 0.946814 0.030392
0.712071 0.943137 0.037071
0.814706 0.933946 0.050368
0.923040 0.923468 0.126961
1.000000 0.919608 0.250980
0.278431 1.000000 0.164706
0.317157 1.000000 0.168627
0.400981 1.000000 0.175490
0.501471 1.000000 0.184314
0.605882 1.000000 0.190196
0.714216 1.000000 0.182843
0.823530 1.000000 0.154902
0.938726 1.000000 0.145588
1.000000 1.000000 0.239216
0.003432 0.011275 0.123529
0.135294 0.016115 0.116605
0.269363 0.030515 0.135049
0.424020 0.029902 0.135110
0.571078 0.062991 0.143137
0.719791 0.103615 0.159007
0.843137 0.150981 0.175981
0.955821 0.204902 0.211704
1.000000 0.262745 0.257844
0.026471 0.113051 0.123958
0.137599 0.138082 0.123154
0.280454 0.150383 0.130882
0.424510 0.161274 0.137745
0.574541 0.176471 0.145558
0.719768 0.195787 0.159474
0.843505 0.226532 0.183395
0.958341 0.262576 0.219011
1.000000 0.308824 0.268689
0.000000 0.270589 0.116544
0.138786 0.273636 0.097013
0.280638 0.274509 0.114675
0.422411 0.294654 0.147902
0.576042 0.312745 0.164032
0.722916 0.328753 0.177328
0.843444 0.342218 0.199020
0.957522 0.365196 0.236566
1.000000 0.396201 0.284804
0.000000 0.417463 0.060968
0.142096 0.419669 0.045320
0.300613 0.420098 0.057506
0.428860 0.415985 0.104235
0.574020 0.435447 0.154657
0.715870 0.459252 0.194064
0.839047 0.472947 0.227405
0.953983 0.488343 0.268199
1.000000 0.509130 0.319424
0.000000 0.568873 0.000000
0.160999 0.571048 0.000000
0.326348 0.574326 0.000000
0.458670 0.568137 0.013297
0.575490 0.557108 0.088113
0.707843 0.573223 0.160723
0.829657 0.592647 0.234314
0.945067 0.609988 0.297794
1.000000 0.625736 0.362010
0.058640 0.708150 0.000000
0.198775 0.711274 0.000000
0.344241 0.711811 0.000000
0.476471 0.710424 0.000000
0.591023 0.700245 0.009436
0.697480 0.689637 0.093451
0.819838 0.699648 0.179488
0.937148 0.717708 0.288726
1.000000 0.733823 0.383640
0.156372 0.835295 0.000000
0.238802 0.838848 0.000000
0.360999 0.839307 0.000000
0.486826 0.841360 0.002252
0.600919 0.835295 0.026654
0.706771 0.822641 0.069562
0.810784 0.812408 0.129718
0.927772 0.815748 0.223146
1.000000 0.827451 0.357965
0.228431 0.946997 0.132904
0.282299 0.946569 0.132904
0.382062 0.948116 0.138205
0.496400 0.950491 0.148407
0.607598 0.948744 0.154871
0.711803 0.942670 0.153102
0.814384 0.933517 0.155576
0.919983 0.923040 0.192211
1.000000 0.919118 0.292647
0.275000 1.000000 0.226471
0.316667 1.000000 0.226471
0.399633 1.000000 0.232966
0.501164 1.000000 0.241667
0.605882 1.000000 0.245833
0.713358 1.000000 0.237745
0.823530 1.000000 0.214583
0.935233 1.000000 0.206863
1.000000 1.000000 0.281373
0.000000 0.027451 0.243138
0.155270 0.033946 0.244118
0.270588 0.054657 0.233333
0.369240 0.114583 0.252574
0.541177 0.087255 0.267157
0.700245 0.086275 0.271691
0.828676 0.140196 0.280392
0.947181 0.201103 0.299632
1.000000 0.262745 0.334314
0.003432 0.146201 0.241912
0.135723 0.147748 0.243566
0.268873 0.154197 0.239124
0.389752 0.169531 0.257491
0.556373 0.160110 0.261458
0.705147 0.179841 0.270466
0.832261 0.215564 0.283058
0.948346 0.258441 0.304764
1.000000 0.308824 0.341789
0.087990 0.232843 0.247549
0.161611 0.247426 0.251716
0.275061 0.274509 0.244669
0.419822 0.288940 0.258915
0.568505 0.300000 0.267034
0.712040 0.315196 0.278278
0.835356 0.335110 0.293811
0.950491 0.362163 0.319118
1.000000 0.397059 0.357598
0.000000 0.404412 0.277819
0.043490 0.409268 0.250138
0.281373 0.419853 0.222825
0.424250 0.413312 0.240135
0.568076 0.434988 0.274020
0.708625 0.455944 0.295971
0.832721 0.470711 0.317218
0.946752 0.485800 0.345236
1.000000 0.509926 0.388358
0.000000 0.558823 0.230882
0.012868 0.562806 0.216605
0.294730 0.569730 0.202818
0.451655 0.567280 0.212193
0.571078 0.555392 0.237010
0.701226 0.570404 0.282414
0.824020 0.593015 0.330882
0.942647 0.612010 0.377941
1.000000 0.630392 0.426961
0.000000 0.701471 0.213726
0.114966 0.702543 0.206097
0.315656 0.708946 0.199602
0.468995 0.709314 0.203125
0.587868 0.699632 0.217218
0.694746 0.688005 0.242525
0.817984 0.699357 0.295680
0.931373 0.719837 0.376425
1.000000 0.738848 0.455883
0.067157 0.832108 0.227451
0.194761 0.835080 0.226563
0.341422 0.837500 0.222978
0.479565 0.838388 0.226256
0.600368 0.835662 0.234927
0.706189 0.824142 0.239920
0.807966 0.811764 0.260539
0.927053 0.817984 0.325490
1.000000 0.830392 0.435294
0.199510 0.946201 0.279412
0.262914 0.943137 0.278600
0.370527 0.946569 0.279841
0.492341 0.950092 0.286320
0.606556 0.946875 0.287561
0.712209 0.943014 0.286948
0.814063 0.933395 0.282078
0.919929 0.923254 0.300199
1.000000 0.922059 0.376103
0.256863 1.000000 0.326471
0.301961 1.000000 0.326838
0.390196 1.000000 0.332598
0.497549 1.000000 0.337255
0.605882 1.000000 0.341176
0.715686 1.000000 0.337867
0.825735 1.000000 0.320833
0.935171 1.000000 0.309804
1.000000 1.000000 0.361765
0.003922 0.071569 0.366667
0.154718 0.076777 0.364338
0.304779 0.101225 0.363112
0.399571 0.103860 0.347059
0.478432 0.167402 0.355882
0.628921 0.173039 0.384375
0.789706 0.153922 0.394485
0.926777 0.190993 0.407659
1.000000 0.258824 0.429412
0.012439 0.176654 0.360600
0.141399 0.172220 0.364821
0.300015 0.177405 0.366437
0.397059 0.174755 0.348238
0.485049 0.215288 0.362347
0.644715 0.205875 0.384306
0.803033 0.206020 0.395022
0.931066 0.246553 0.406518
1.000000 0.302267 0.434804
0.053431 0.268995 0.355882
0.147779 0.274341 0.359145
0.273683 0.281403 0.365931
0.396109 0.282123 0.357292
0.519301 0.292892 0.376409
0.683441 0.291529 0.385892
0.816268 0.315288 0.395312
0.935355 0.349157 0.416850
1.000000 0.390319 0.447059
0.139154 0.342524 0.361213
0.195772 0.352076 0.365487
0.292708 0.377436 0.375337
0.417095 0.409827 0.369462
0.559743 0.426716 0.387500
0.697549 0.442647 0.399855
0.823147 0.461014 0.417647
0.938726 0.480768 0.440081
1.000000 0.507843 0.472549
0.018382 0.526471 0.430637
0.070098 0.535294 0.421998
0.231495 0.548039 0.382598
0.431679 0.563756 0.357353
0.563725 0.551960 0.369608
0.692892 0.570833 0.407169
0.816422 0.593873 0.442525
0.931710 0.612653 0.474265
1.000000 0.631373 0.512010
0.000000 0.681863 0.399081
0.000000 0.686473 0.386780
0.245435 0.693628 0.369087
0.444753 0.702964 0.359398
0.583548 0.699050 0.363970
0.689154 0.685233 0.375429
0.808946 0.699923 0.421921
0.925414 0.724694 0.487439
1.000000 0.741667 0.543689
0.000000 0.819975 0.393628
0.069486 0.823392 0.391544
0.292525 0.828830 0.385784
0.459375 0.833272 0.381862
0.594240 0.835111 0.384865
0.703462 0.824142 0.385095
0.804657 0.811795 0.393750
0.921017 0.819072 0.446875
1.000000 0.834314 0.535784
0.113358 0.936581 0.422365
0.207414 0.938886 0.420772
0.337960 0.940962 0.419945
0.478248 0.946569 0.422250
0.604565 0.947365 0.425644
0.713963 0.942830 0.425176
0.813741 0.932904 0.416054
0.917172 0.922771 0.422419
1.000000 0.921262 0.483824
0.208334 1.000000 0.446568
0.264216 1.000000 0.449020
0.365564 1.000000 0.450858
0.484865 1.000000 0.452941
0.603921 1.000000 0.460049
0.715135 1.000000 0.457782
0.824632 1.000000 0.442280
0.934804 1.000000 0.427941
1.000000 1.000000 0.466176
0.015686 0.123529 0.484314
0.160539 0.127451 0.484314
0.312745 0.150000 0.488235
0.446568 0.166176 0.479902
0.523529 0.146079 0.453922
0.589461 0.207598 0.457108
0.707353 0.239706 0.483824
0.865441 0.239706 0.512500
1.000000 0.266667 0.537255
0.000000 0.210049 0.482353
0.143352 0.212255 0.482567
0.309007 0.221569 0.488174
0.446844 0.221017 0.482292
0.522427 0.199632 0.456495
0.592402 0.248131 0.463879
0.716483 0.267892 0.489890
0.874969 0.270313 0.516146
1.000000 0.301226 0.539215
0.077451 0.314706 0.476471
0.162990 0.315380 0.478432
0.274510 0.308823 0.484068
0.442953 0.313909 0.491360
0.523529 0.293137 0.463971
0.602206 0.324020 0.474448
0.743750 0.327573 0.498652
0.895649 0.337684 0.520282
1.000000 0.374020 0.543628
0.100245 0.381372 0.464216
0.170343 0.388235 0.467402
0.280760 0.401900 0.474204
0.407445 0.412377 0.487224
0.524755 0.410417 0.478554
0.643168 0.417616 0.495159
0.791544 0.428799 0.511152
0.917004 0.454749 0.530484
1.000000 0.486275 0.559314
0.185294 0.450980 0.471569
0.228432 0.456740 0.475368
0.313971 0.472794 0.483333
0.424020 0.510907 0.505147
0.550490 0.544118 0.495588
0.681373 0.565809 0.524019
0.805637 0.580882 0.543627
0.925123 0.600000 0.567770
1.000000 0.617647 0.594118
0.157353 0.630637 0.565931
0.194608 0.637990 0.565839
0.267096 0.656127 0.556985
0.392157 0.676440 0.520588
0.564093 0.694853 0.502696
0.680392 0.680852 0.506342
0.800735 0.700735 0.552757
0.919118 0.726808 0.599510
1.000000 0.743137 0.637500
0.000000 0.796568 0.579412
0.000000 0.800674 0.570956
0.220711 0.806005 0.551103
0.400552 0.817402 0.530208
0.575000 0.831373 0.526961
0.699510 0.825245 0.525306
0.798652 0.808946 0.524877
0.915686 0.819975 0.576471
1.000000 0.838235 0.647059
0.000000 0.927206 0.574510
0.027298 0.927236 0.569118
0.260049 0.931066 0.563664
0.430668 0.937439 0.560478
0.584681 0.941911 0.563603
0.710692 0.942892 0.566085
0.812561 0.934130 0.554657
0.915196 0.922825 0.553401
1.000000 0.923040 0.601716
0.025490 1.000000 0.582353
0.160539 1.000000 0.580637
0.305392 1.000000 0.582353
0.450245 1.000000 0.584314
0.587255 1.000000 0.589216
0.714216 1.000000 0.594118
0.823530 1.000000 0.581863
0.932843 1.000000 0.560539
1.000000 1.000000 0.584314
0.000000 0.175490 0.611275
0.156556 0.181556 0.611275
0.309436 0.194730 0.611887
0.464706 0.229902 0.614644
0.575980 0.216912 0.597549
0.642647 0.184252 0.565135
0.698162 0.240686 0.561152
0.798345 0.298713 0.593627
0.942157 0.328431 0.639706
0.000000 0.247059 0.605882
0.121553 0.252068 0.607192
0.303784 0.263051 0.611091
0.466353 0.285294 0.616958
0.576961 0.257353 0.599173
0.641981 0.225130 0.567471
0.700367 0.276838 0.565993
0.802244 0.323200 0.597488
0.949816 0.351471 0.643444
0.129044 0.371691 0.598039
0.186673 0.367432 0.598575
0.274234 0.348438 0.606955
0.453830 0.358165 0.621109
0.577390 0.340502 0.610110
0.643796 0.308793 0.573897
0.704350 0.345742 0.578217
0.811581 0.375490 0.604902
0.963848 0.397426 0.650000
0.103002 0.436765 0.590748
0.180224 0.441016 0.594922
0.295175 0.449510 0.598407
0.407514 0.441460 0.610723
0.575245 0.449755 0.625980
0.642095 0.413496 0.585723
0.712745 0.440855 0.596538
0.838718 0.451961 0.623154
0.990748 0.468199 0.659865
0.113971 0.490441 0.577206
0.178676 0.494853 0.578002
0.279044 0.503493 0.582537
0.398774 0.521538 0.592310
0.533578 0.540564 0.620221
0.639859 0.537714 0.608762
0.747855 0.544547 0.625490
0.891023 0.555637 0.650000
1.000000 0.580147 0.677696
0.203370 0.556801 0.586642
0.241973 0.559559 0.588480
0.320848 0.569899 0.593980
0.425490 0.593053 0.610210
0.541483 0.635233 0.641207
0.662830 0.671592 0.638726
0.790456 0.694056 0.673529
0.911466 0.710961 0.697741
1.000000 0.723529 0.721078
0.222304 0.724020 0.699510
0.252344 0.730653 0.702895
0.310570 0.746660 0.708303
0.388235 0.771752 0.706189
0.511520 0.799387 0.677819
0.679672 0.822580 0.669746
0.788143 0.806311 0.661887
0.906189 0.823039 0.711075
1.000000 0.842157 0.755883
0.000000 0.905576 0.760478
0.000000 0.909865 0.756373
0.126210 0.914277 0.744623
0.346400 0.920604 0.720098
0.526808 0.930239 0.703033
0.693268 0.939836 0.706993
0.808318 0.936136 0.701057
0.907682 0.921753 0.687132
1.000000 0.924326 0.728248
0.000000 1.000000 0.746078
0.000000 1.000000 0.742463
0.151961 1.000000 0.733333
0.377389 1.000000 0.719546
0.544118 1.000000 0.719608
0.699081 1.000000 0.728003
0.822059 1.000000 0.726471
0.927144 1.000000 0.700980
1.000000 1.000000 0.710294
0.000000 0.224510 0.752942
0.125368 0.228431 0.752942
0.298284 0.239951 0.752942
0.460539 0.266177 0.756862
0.603921 0.304412 0.757353
0.699510 0.258334 0.729289
0.760539 0.221323 0.690932
0.810172 0.281863 0.683211
0.901961 0.364706 0.727451
0.000000 0.285785 0.746446
0.064813 0.287133 0.746446
0.281495 0.297641 0.749969
0.457583 0.318459 0.756434
0.605392 0.345282 0.760601
0.698912 0.292050 0.732430
0.759835 0.257598 0.694118
0.810248 0.308885 0.689553
0.905882 0.386397 0.731373
0.081128 0.414951 0.734314
0.138358 0.404779 0.736305
0.260601 0.390257 0.744546
0.447243 0.401287 0.757475
0.600123 0.410049 0.764828
0.697427 0.360294 0.738327
0.757659 0.325061 0.698836
0.810141 0.370588 0.695129
0.906127 0.429657 0.736519
0.145098 0.492770 0.730392
0.205086 0.494654 0.733992
0.304687 0.494976 0.735692
0.398591 0.474632 0.748192
0.577941 0.487255 0.768382
0.692034 0.458333 0.749510
0.754780 0.421568 0.708058
0.809988 0.457889 0.708992
0.916667 0.492157 0.746936
0.043137 0.550490 0.723039
0.149694 0.552267 0.725797
0.276103 0.559926 0.729412
0.409069 0.572610 0.737561
0.524264 0.567647 0.751470
0.685846 0.575674 0.771201
0.748162 0.531005 0.723039
0.817095 0.555147 0.732598
0.945098 0.571079 0.765686
0.034559 0.597059 0.703309
0.135325 0.597151 0.705438
0.254933 0.604994 0.709589
0.377221 0.619118 0.715319
0.500735 0.637500 0.729534
0.638343 0.663419 0.766039
0.742923 0.656035 0.748866
0.846691 0.661887 0.765043
0.995956 0.679412 0.796569
0.163970 0.660785 0.714461
0.208916 0.662715 0.715717
0.293873 0.669056 0.718443
0.397886 0.681709 0.726103
0.516299 0.707230 0.747059
0.638082 0.753278 0.780882
0.768566 0.796814 0.789583
0.898958 0.819608 0.823254
1.000000 0.829657 0.842402
0.211397 0.827819 0.833334
0.242402 0.831051 0.834207
0.307230 0.839063 0.840043
0.392907 0.859145 0.845358
0.487745 0.885846 0.847855
0.622993 0.915640 0.832108
0.799418 0.935079 0.832138
0.899663 0.919546 0.814614
1.000000 0.927819 0.846569
0.000000 1.000000 0.904902
0.000000 1.000000 0.901103
0.000000 1.000000 0.897794
0.239338 1.000000 0.881495
0.453921 1.000000 0.858333
0.653922 1.000000 0.843137
0.820343 1.000000 0.851716
0.924020 1.000000 0.831863
1.000000 0.996078 0.830392
0.000000 0.279411 0.892647
0.106434 0.283333 0.892157
0.289584 0.292402 0.893015
0.454105 0.315870 0.895098
0.606372 0.348039 0.898284
0.736091 0.373039 0.896569
0.823039 0.301961 0.868138
0.884804 0.267709 0.837316
0.934804 0.336765 0.829412
0.000000 0.328493 0.888236
0.027834 0.329412 0.888619
0.272181 0.339935 0.888665
0.447021 0.359314 0.894953
0.606587 0.389982 0.900030
0.736198 0.405576 0.899839
0.822718 0.328906 0.871155
0.884796 0.295091 0.838166
0.934804 0.360233 0.829902
0.000000 0.435784 0.876593
0.000000 0.427865 0.877374
0.236183 0.428278 0.881648
0.438128 0.443398 0.892233
0.604167 0.459314 0.903493
0.734283 0.461673 0.903064
0.821415 0.388082 0.874479
0.881525 0.354902 0.841115
0.934313 0.415686 0.836765
0.164706 0.542831 0.868812
0.220672 0.543382 0.870489
0.295282 0.533579 0.874786
0.396216 0.515135 0.885233
0.575980 0.527696 0.899908
0.721500 0.534321 0.906242
0.815610 0.473820 0.881740
0.877390 0.435922 0.845565
0.930576 0.485478 0.843321
0.090196 0.606618 0.868873
0.177941 0.608793 0.870588
0.296752 0.613358 0.870833
0.414614 0.617310 0.875398
0.515686 0.599510 0.887255
0.694516 0.616023 0.907843
0.807598 0.576961 0.891667
0.872763 0.535049 0.853155
0.934068 0.574019 0.858089
0.000000 0.657353 0.859314
0.000000 0.660968 0.859475
0.212086 0.665518 0.863235
0.366177 0.676961 0.867157
0.507108 0.693229 0.875000
0.626961 0.689277 0.889040
0.799050 0.696507 0.907950
0.864974 0.643750 0.864668
0.937745 0.674694 0.873529
0.000000 0.704902 0.841667
0.000000 0.705270 0.842035
0.161029 0.712408 0.845465
0.321768 0.720496 0.847426
0.460049 0.736826 0.853799
0.596615 0.760463 0.869516
0.745619 0.785784 0.900245
0.856863 0.772135 0.884222
0.962622 0.781250 0.897059
0.000000 0.771017 0.853002
0.031044 0.774448 0.853691
0.204948 0.778416 0.856097
0.336136 0.786520 0.857453
0.462224 0.798223 0.861214
0.596653 0.824265 0.877612
0.742356 0.869164 0.904289
0.888182 0.914392 0.919064
0.996078 0.927451 0.938235
0.191177 0.940196 0.949510
0.229412 0.943627 0.952941
0.301960 0.950490 0.952451
0.393934 0.959804 0.954718
0.500490 0.975491 0.959069
0.614889 0.994975 0.957537
0.766544 1.000000 0.945711
0.934865 1.000000 0.949571
1.000000 0.999510 0.942157
0.094118 0.360784 1.000000
0.194117 0.368137 1.000000
0.332353 0.380392 1.000000
0.482843 0.406373 1.000000
0.633333 0.441176 1.000000
0.774510 0.479902 1.000000
0.882353 0.464706 1.000000
0.970098 0.383334 0.992157
1.000000 0.360784 0.972549
0.000980 0.395588 1.000000
0.155883 0.402513 1.000000
0.313235 0.414706 1.000000
0.475184 0.439399 1.000000
0.633088 0.471814 1.000000
0.774203 0.505085 1.000000
0.884069 0.486519 1.000000
0.970036 0.405882 0.995527
1.000000 0.383334 0.976471
0.000000 0.476471 0.992157
0.043382 0.472917 0.992157
0.283578 0.486274 0.996078
0.461765 0.505392 1.000000
0.625490 0.529412 1.000000
0.769975 0.547427 1.000000
0.881372 0.529411 1.000000
0.967034 0.448897 0.995588
1.000000 0.425490 0.976471
0.231863 0.594118 0.981863
0.264032 0.591666 0.984314
0.320220 0.578799 0.988235
0.434253 0.570527 0.996078
0.599510 0.585294 1.000000
0.750000 0.599448 1.000000
0.875245 0.592892 1.000000
0.961948 0.516360 0.995772
1.000000 0.489706 0.978922
0.207844 0.656863 0.982353
0.253922 0.658824 0.982108
0.341667 0.661765 0.983334
0.440932 0.661029 0.984314
0.541176 0.644118 0.994117
0.713970 0.661520 1.000000
0.860785 0.667647 1.000000
0.958088 0.604412 0.999510
1.000000 0.570588 0.980392
0.000000 0.710294 0.976471
0.046262 0.712561 0.976777
0.246201 0.716667 0.980024
0.402390 0.728431 0.981863
0.535049 0.737009 0.984314
0.649939 0.727451 0.993627
0.830882 0.748407 1.000000
0.950184 0.706373 1.000000
1.000000 0.667157 0.984314
0.000000 0.761764 0.967647
0.000000 0.762745 0.968627
0.000000 0.765931 0.967892
0.280025 0.777451 0.971569
0.459314 0.791176 0.975491
0.624020 0.810907 0.981495
0.753432 0.811274 0.991912
0.934804 0.822059 1.000000
1.000000 0.776471 0.988235
0.000000 0.816666 0.960784
0.000000 0.816666 0.960784
0.000000 0.819608 0.959804
0.193015 0.826654 0.960784
0.391912 0.834559 0.960784
0.549326 0.852941 0.964400
0.711642 0.876471 0.976471
0.876900 0.907353 0.992586
0.999510 0.900000 0.988235
0.000000 0.894118 0.976471
0.000000 0.894608 0.976471
0.005882 0.899020 0.977451
0.267157 0.903431 0.976471
0.425490 0.911764 0.976471
0.577451 0.926961 0.977941
0.750980 0.950981 0.985294
0.915686 0.984804 0.996078
1.000000 1.000000 1.000000
