luts/stills/fujifake_classicchrome_rossandhisjpegs.cube
TITLE "Fujifake Classic Chrome" by rossandhisjpegs
#LUMIXPHOTOSTYLE STD
LUT_3D_SIZE 5
DOMAIN_MIN 0.0 0.0 0.0
DOMAIN_MAX 1.0 1.0 1.0
0.000000 0.000000 0.000000
0.228432 0.011765 0.038235
0.472549 0.084314 0.096078
0.721569 0.205883 0.206863
0.980392 0.329412 0.337255
0.086275 0.258823 0.000000
0.304902 0.276961 0.064951
0.551961 0.357843 0.111765
0.786520 0.392402 0.195343
1.000000 0.471569 0.368627
0.127451 0.460784 0.000000
0.272549 0.460294 0.022059
0.628432 0.577451 0.213726
0.848039 0.639216 0.323039
1.000000 0.723529 0.470588
0.265686 0.665686 0.176471
0.341176 0.665686 0.187500
0.538726 0.696078 0.245098
0.886274 0.824265 0.444118
1.000000 0.852941 0.583333
0.631373 0.968627 0.549020
0.664706 0.971569 0.555883
0.752941 0.976471 0.572549
0.916666 0.992157 0.644118
1.000000 0.988235 0.760784
0.018627 0.065687 0.193137
0.258088 0.066422 0.224510
0.469118 0.150000 0.267647
0.711764 0.202206 0.326716
0.976471 0.316666 0.419608
0.020833 0.271079 0.242157
0.270405 0.266054 0.251532
0.518505 0.316054 0.306373
0.775000 0.400123 0.392095
1.000000 0.488726 0.487990
0.008334 0.452941 0.177451
0.240319 0.451348 0.184804
0.605882 0.565686 0.330882
0.830270 0.643015 0.412745
1.000000 0.719117 0.538725
0.248529 0.662500 0.267647
0.336336 0.664216 0.273775
0.516421 0.677573 0.308211
0.878983 0.824081 0.513051
1.000000 0.860785 0.632353
0.635294 0.969607 0.588235
0.668137 0.975000 0.594363
0.754412 0.977941 0.606372
0.915196 0.992157 0.670833
1.000000 0.988235 0.780392
0.086275 0.178431 0.401960
0.291177 0.183823 0.447549
0.551961 0.198039 0.490196
0.720098 0.281373 0.478922
0.976471 0.376471 0.586275
0.154412 0.299020 0.397549
0.282844 0.308088 0.435539
0.541422 0.333333 0.493627
0.736520 0.391667 0.520588
0.988725 0.447549 0.607843
0.074510 0.515686 0.492157
0.249265 0.502941 0.481373
0.540196 0.530392 0.507353
0.815686 0.622794 0.612500
1.000000 0.678432 0.685294
0.275000 0.673529 0.490196
0.304412 0.691177 0.465441
0.525490 0.709804 0.474755
0.859559 0.822059 0.642892
1.000000 0.879902 0.732843
0.643137 0.976471 0.694117
0.677451 0.982353 0.698039
0.761765 0.989216 0.704902
0.908823 0.994608 0.739215
1.000000 0.988235 0.833333
0.150000 0.291177 0.630392
0.309804 0.298284 0.660785
0.624510 0.341176 0.746078
0.844853 0.367647 0.760784
0.968627 0.372549 0.696079
0.176471 0.370833 0.618137
0.306679 0.380024 0.646324
0.609927 0.435539 0.736275
0.833150 0.466912 0.760784
0.971814 0.456863 0.712010
0.242157 0.522059 0.610294
0.312990 0.520465 0.616054
0.539706 0.559804 0.688235
0.807598 0.622917 0.759682
1.000000 0.640686 0.777941
0.355392 0.748774 0.729167
0.410049 0.742647 0.725674
0.536029 0.731863 0.715196
0.791422 0.783762 0.764767
1.000000 0.855637 0.854657
0.666667 0.913725 0.808823
0.696814 0.928186 0.816666
0.769608 0.970098 0.841667
0.896814 1.000000 0.858579
1.000000 0.992157 0.915686
0.333333 0.482353 0.909804
0.429412 0.489216 0.917647
0.650980 0.515686 0.947059
0.909804 0.586275 0.981372
1.000000 0.596078 0.972549
0.344118 0.535294 0.904902
0.431618 0.539215 0.913725
0.644608 0.564706 0.940686
0.905883 0.635294 0.978432
1.000000 0.649019 0.972549
0.292157 0.649019 0.894118
0.381372 0.646568 0.900980
0.596079 0.658824 0.926470
0.880392 0.732353 0.973039
1.000000 0.756862 0.976471
0.334313 0.826470 0.918627
0.383579 0.818872 0.917892
0.513235 0.803431 0.918627
0.788971 0.814706 0.952941
1.000000 0.888236 0.981372
0.650980 0.988235 0.952941
0.678431 0.988235 0.952941
0.760784 0.988235 0.960784
0.904902 1.000000 0.981372
1.000000 1.000000 1.000000
