luts/stills/fujifake_astia_rossandhisjpegs.cube
TITLE "Fujifake Astia" by rossandhisjpegs
#LUMIXPHOTOSTYLE STD
LUT_3D_SIZE 5
DOMAIN_MIN 0.0 0.0 0.0
DOMAIN_MAX 1.0 1.0 1.0
0.000000 0.000000 0.000000
0.286274 0.011765 0.003922
0.580392 0.064706 0.025490
0.847059 0.150981 0.103922
1.000000 0.258824 0.215686
0.004902 0.273529 0.000000
0.282353 0.274509 0.000000
0.579902 0.313235 0.077941
0.847059 0.344608 0.140441
1.000000 0.394117 0.247059
0.043137 0.572549 0.000000
0.334314 0.574510 0.000000
0.576470 0.557843 0.000000
0.831373 0.592647 0.177451
1.000000 0.623529 0.331372
0.174510 0.835295 0.000000
0.368627 0.842157 0.000000
0.602941 0.835785 0.000000
0.809314 0.812500 0.003186
1.000000 0.827451 0.320588
0.278431 1.000000 0.164706
0.400981 1.000000 0.175490
0.605882 1.000000 0.190196
0.823530 1.000000 0.154902
1.000000 1.000000 0.239216
0.000000 0.027451 0.243138
0.270588 0.054657 0.233333
0.541177 0.087255 0.267157
0.828676 0.140196 0.280392
1.000000 0.262745 0.334314
0.087990 0.232843 0.247549
0.275061 0.274509 0.244669
0.568505 0.300000 0.267034
0.835356 0.335110 0.293811
1.000000 0.397059 0.357598
0.000000 0.558823 0.230882
0.294730 0.569730 0.202818
0.571078 0.555392 0.237010
0.824020 0.593015 0.330882
1.000000 0.630392 0.426961
0.067157 0.832108 0.227451
0.341422 0.837500 0.222978
0.600368 0.835662 0.234927
0.807966 0.811764 0.260539
1.000000 0.830392 0.435294
0.256863 1.000000 0.326471
0.390196 1.000000 0.332598
0.605882 1.000000 0.341176
0.825735 1.000000 0.320833
1.000000 1.000000 0.361765
0.015686 0.123529 0.484314
0.312745 0.150000 0.488235
0.523529 0.146079 0.453922
0.707353 0.239706 0.483824
1.000000 0.266667 0.537255
0.077451 0.314706 0.476471
0.274510 0.308823 0.484068
0.523529 0.293137 0.463971
0.743750 0.327573 0.498652
1.000000 0.374020 0.543628
0.185294 0.450980 0.471569
0.313971 0.472794 0.483333
0.550490 0.544118 0.495588
0.805637 0.580882 0.543627
1.000000 0.617647 0.594118
0.000000 0.796568 0.579412
0.220711 0.806005 0.551103
0.575000 0.831373 0.526961
0.798652 0.808946 0.524877
1.000000 0.838235 0.647059
0.025490 1.000000 0.582353
0.305392 1.000000 0.582353
0.587255 1.000000 0.589216
0.823530 1.000000 0.581863
1.000000 1.000000 0.584314
0.000000 0.224510 0.752942
0.298284 0.239951 0.752942
0.603921 0.304412 0.757353
0.760539 0.221323 0.690932
0.901961 0.364706 0.727451
0.081128 0.414951 0.734314
0.260601 0.390257 0.744546
0.600123 0.410049 0.764828
0.757659 0.325061 0.698836
0.906127 0.429657 0.736519
0.043137 0.550490 0.723039
0.276103 0.559926 0.729412
0.524264 0.567647 0.751470
0.748162 0.531005 0.723039
0.945098 0.571079 0.765686
0.163970 0.660785 0.714461
0.293873 0.669056 0.718443
0.516299 0.707230 0.747059
0.768566 0.796814 0.789583
1.000000 0.829657 0.842402
0.000000 1.000000 0.904902
0.000000 1.000000 0.897794
0.453921 1.000000 0.858333
0.820343 1.000000 0.851716
1.000000 0.996078 0.830392
0.094118 0.360784 1.000000
0.332353 0.380392 1.000000
0.633333 0.441176 1.000000
0.882353 0.464706 1.000000
1.000000 0.360784 0.972549
0.000000 0.476471 0.992157
0.283578 0.486274 0.996078
0.625490 0.529412 1.000000
0.881372 0.529411 1.000000
1.000000 0.425490 0.976471
0.207844 0.656863 0.982353
0.341667 0.661765 0.983334
0.541176 0.644118 0.994117
0.860785 0.667647 1.000000
1.000000 0.570588 0.980392
0.000000 0.761764 0.967647
0.000000 0.765931 0.967892
0.459314 0.791176 0.975491
0.753432 0.811274 0.991912
1.000000 0.776471 0.988235
0.000000 0.894118 0.976471
0.005882 0.899020 0.977451
0.425490 0.911764 0.976471
0.750980 0.950981 0.985294
1.000000 1.000000 1.000000
