luts/stills/fujifake_classicnegative_rossandhisjpegs.cube
TITLE "Fujifake Classic Negative" by rossandhisjpegs
#LUMIXPHOTOSTYLE STD
LUT_3D_SIZE 33
DOMAIN_MIN 0.0 0.0 0.0
DOMAIN_MAX 1.0 1.0 1.0
0.000000 0.000000 0.000000
0.030883 0.003799 0.000000
0.061765 0.007598 0.000000
0.096568 0.011765 0.000000
0.127451 0.019118 0.000000
0.165563 0.030147 0.000000
0.200245 0.038481 0.000000
0.238848 0.050122 0.000000
0.273529 0.057843 0.000000
0.312132 0.069485 0.000000
0.350735 0.077206 0.000000
0.389338 0.088848 0.000000
0.429412 0.100490 0.000000
0.470466 0.108211 0.000000
0.512991 0.119853 0.000000
0.551593 0.131495 0.000000
0.590196 0.139215 0.000000
0.630637 0.152696 0.000000
0.665687 0.166421 0.000000
0.702083 0.179657 0.000000
0.736765 0.195098 0.000000
0.766176 0.206618 0.000000
0.799755 0.225980 0.000000
0.826838 0.241422 0.000000
0.850981 0.253921 0.000000
0.877941 0.272304 0.000000
0.904902 0.287746 0.000000
0.931250 0.303186 0.000000
0.954902 0.318627 0.000000
0.981863 0.334068 0.000000
1.000000 0.349265 0.000000
1.000000 0.361029 0.000000
1.000000 0.372549 0.000000
0.000000 0.027083 0.011642
0.026608 0.038247 0.003922
0.061520 0.038481 0.003685
0.085283 0.046213 0.011175
0.119256 0.057369 0.011060
0.157249 0.064970 0.007720
0.192547 0.073307 0.003822
0.234927 0.081005 0.000831
0.269700 0.088817 0.000000
0.308333 0.096569 0.000000
0.346898 0.104289 0.000000
0.388032 0.112132 0.000000
0.427941 0.119853 0.000000
0.468922 0.131372 0.000000
0.509069 0.139093 0.000000
0.551593 0.146936 0.000000
0.588296 0.158456 0.000000
0.628857 0.168137 0.000000
0.665687 0.181863 0.000000
0.700490 0.191299 0.000000
0.736719 0.208042 0.000000
0.766257 0.220833 0.000000
0.797059 0.237538 0.000000
0.824020 0.251872 0.000000
0.850031 0.264583 0.000000
0.878010 0.280024 0.000000
0.904266 0.295566 0.000000
0.928044 0.310907 0.000000
0.954534 0.325873 0.000000
0.981851 0.341777 0.000000
1.000000 0.353309 0.000000
1.000000 0.365066 0.000000
1.000000 0.380269 0.000000
0.000000 0.057844 0.030638
0.007835 0.061887 0.019003
0.057154 0.072595 0.007598
0.096446 0.070174 0.007475
0.120068 0.077420 0.011520
0.153838 0.088274 0.018788
0.188526 0.093628 0.012255
0.227084 0.104289 0.012079
0.265870 0.112009 0.004596
0.304534 0.119731 0.001034
0.343061 0.127451 0.000000
0.384153 0.135172 0.000000
0.424020 0.142892 0.000000
0.466544 0.150613 0.000000
0.507460 0.158333 0.000000
0.547917 0.166299 0.000000
0.588112 0.175736 0.000000
0.626846 0.187385 0.000000
0.663618 0.197304 0.000000
0.698307 0.206764 0.000000
0.732996 0.221967 0.000000
0.764912 0.233740 0.000000
0.796890 0.249020 0.000000
0.822917 0.263427 0.000000
0.850062 0.276042 0.000000
0.877084 0.291613 0.000000
0.904167 0.307062 0.000000
0.928148 0.318627 0.000000
0.954657 0.334068 0.000000
0.981840 0.349487 0.000000
1.000000 0.361029 0.000000
1.000000 0.372664 0.000000
1.000000 0.384314 0.000000
0.000000 0.088725 0.046324
0.000000 0.088614 0.038247
0.023728 0.096446 0.026593
0.091613 0.107633 0.011731
0.134605 0.107966 0.004244
0.162443 0.112009 0.011887
0.189583 0.115878 0.018643
0.226716 0.127451 0.022794
0.262041 0.135447 0.019148
0.299736 0.145814 0.018873
0.339223 0.150613 0.012255
0.380273 0.158333 0.010788
0.420328 0.166054 0.004887
0.462772 0.173775 0.000000
0.505147 0.181288 0.000000
0.544117 0.189216 0.000000
0.584498 0.196936 0.000000
0.625050 0.206691 0.000000
0.661925 0.216299 0.000000
0.694826 0.225831 0.000000
0.732705 0.241054 0.000000
0.762496 0.251593 0.000000
0.793137 0.266904 0.000000
0.822653 0.278535 0.000000
0.847059 0.291421 0.000000
0.874307 0.303229 0.000000
0.901279 0.318681 0.000000
0.927386 0.330270 0.000000
0.951302 0.345665 0.000000
0.978275 0.357529 0.000000
1.000000 0.372304 0.000000
1.000000 0.384180 0.000000
1.000000 0.395710 0.000000
0.000000 0.119118 0.065196
0.000000 0.119026 0.057369
0.000919 0.120068 0.046079
0.050566 0.131173 0.027083
0.126532 0.146140 0.012194
0.179887 0.146569 0.004336
0.208088 0.146661 0.010876
0.234804 0.151256 0.021921
0.265196 0.161275 0.030270
0.297902 0.166544 0.034452
0.337745 0.177543 0.034314
0.377574 0.185417 0.033823
0.418628 0.191360 0.029596
0.458701 0.198529 0.023361
0.501225 0.206158 0.017432
0.542142 0.214430 0.012132
0.580637 0.220098 0.005147
0.621446 0.231740 0.000000
0.657629 0.240962 0.000000
0.694531 0.249066 0.000000
0.727451 0.262745 0.000000
0.760003 0.272135 0.000000
0.791728 0.285846 0.000000
0.818995 0.297672 0.000000
0.846201 0.309436 0.000000
0.873162 0.322197 0.000000
0.900643 0.334222 0.000000
0.927328 0.348652 0.000000
0.950981 0.360355 0.000000
0.977896 0.372304 0.000000
1.000000 0.384069 0.000000
1.000000 0.399142 0.000000
1.000000 0.407353 0.000000
0.000000 0.150490 0.077818
0.000000 0.150387 0.072710
0.000000 0.150490 0.065687
0.013496 0.154967 0.053799
0.091866 0.173652 0.034850
0.165563 0.185171 0.015169
0.222044 0.185792 0.000620
0.254412 0.185037 0.007353
0.280668 0.188266 0.021507
0.308528 0.190759 0.037623
0.341858 0.200245 0.048721
0.376961 0.208579 0.053274
0.415947 0.218367 0.055515
0.455143 0.225364 0.054408
0.497649 0.233188 0.050245
0.537990 0.241219 0.045833
0.578737 0.247181 0.038113
0.617360 0.256660 0.030392
0.653776 0.267647 0.020197
0.690319 0.275609 0.011891
0.725827 0.285524 0.004136
0.756564 0.298686 0.000000
0.787990 0.309191 0.000000
0.816617 0.320833 0.000000
0.842463 0.329688 0.000000
0.870098 0.341054 0.000000
0.896936 0.353071 0.000000
0.923407 0.367402 0.000000
0.947672 0.376226 0.000000
0.974575 0.387745 0.000000
1.000000 0.399058 0.000000
1.000000 0.411275 0.000000
1.000000 0.422916 0.000000
0.000000 0.184559 0.092647
0.000000 0.187669 0.088036
0.000000 0.185493 0.081128
0.000666 0.189147 0.077627
0.047273 0.193688 0.064706
0.136374 0.217746 0.044723
0.207353 0.224372 0.016146
0.267517 0.226961 0.000697
0.303309 0.223223 0.004228
0.328347 0.221116 0.022426
0.357598 0.227206 0.044347
0.385294 0.232835 0.059567
0.419822 0.241912 0.070374
0.458403 0.251103 0.073039
0.497304 0.260217 0.076225
0.535907 0.268237 0.075490
0.574878 0.275858 0.071936
0.615541 0.285172 0.067502
0.651716 0.294608 0.062669
0.686833 0.302643 0.053256
0.721875 0.312530 0.045098
0.752803 0.322542 0.037125
0.784298 0.334544 0.028922
0.812783 0.343995 0.021936
0.839399 0.352696 0.015135
0.866176 0.364055 0.009559
0.893137 0.375000 0.006372
0.922787 0.386642 0.006372
0.947304 0.395496 0.003187
0.973721 0.407108 0.006671
1.000000 0.417693 0.012944
1.000000 0.430025 0.022526
1.000000 0.438481 0.034069
0.000000 0.223162 0.105024
0.000000 0.226130 0.100272
0.000000 0.227084 0.093505
0.000000 0.230637 0.099878
0.016728 0.230147 0.088603
0.096312 0.239204 0.075881
0.186106 0.261068 0.052696
0.250425 0.265441 0.022671
0.313511 0.265655 0.001532
0.351597 0.260175 0.002091
0.381127 0.261520 0.022426
0.407157 0.262941 0.048652
0.435217 0.269608 0.070420
0.466931 0.277838 0.083824
0.502191 0.285907 0.092885
0.538971 0.295255 0.095466
0.574510 0.302880 0.096323
0.611677 0.312132 0.097093
0.647794 0.321569 0.094232
0.682985 0.329676 0.089093
0.717923 0.339537 0.084436
0.749042 0.349410 0.078627
0.780415 0.359436 0.075980
0.808950 0.370837 0.072181
0.835509 0.378156 0.065441
0.862255 0.387190 0.061332
0.889913 0.398162 0.059927
0.918761 0.409080 0.059804
0.943505 0.418382 0.060662
0.970098 0.429247 0.064951
0.996323 0.436941 0.068750
1.000000 0.448556 0.080419
1.000000 0.457108 0.089829
0.000000 0.265686 0.116667
0.000000 0.268536 0.108854
0.000000 0.269792 0.105147
0.000000 0.273437 0.112377
0.000858 0.273039 0.111397
0.064461 0.270895 0.099786
0.152206 0.288235 0.090135
0.239124 0.307199 0.061918
0.296814 0.304902 0.029657
0.360631 0.306005 0.003309
0.405943 0.303248 0.001348
0.434160 0.300337 0.022059
0.461887 0.303431 0.055270
0.488725 0.308211 0.078952
0.516667 0.314645 0.096691
0.547549 0.320251 0.106985
0.581372 0.329902 0.115686
0.614675 0.340073 0.118628
0.649449 0.350184 0.118628
0.682476 0.358456 0.117647
0.715686 0.366544 0.113726
0.746201 0.377451 0.112377
0.776532 0.386213 0.109497
0.804289 0.396354 0.108701
0.831618 0.405147 0.105147
0.858333 0.412837 0.104902
0.886091 0.421323 0.101777
0.914277 0.431679 0.103922
0.939706 0.441544 0.104902
0.965901 0.452328 0.109191
0.992647 0.460049 0.112990
1.000000 0.468842 0.120833
1.000000 0.476470 0.129412
0.000000 0.313848 0.120466
0.000000 0.318750 0.113848
0.000000 0.318804 0.112622
0.000000 0.322427 0.122652
0.000000 0.324295 0.129810
0.046446 0.319313 0.120416
0.123736 0.319033 0.114545
0.217034 0.341422 0.103186
0.299479 0.356434 0.076715
0.344780 0.348219 0.038906
0.412308 0.349364 0.006342
0.459226 0.345600 0.001448
0.491667 0.344148 0.025567
0.515851 0.343057 0.059681
0.540564 0.346193 0.086022
0.566326 0.351130 0.106645
0.593873 0.360294 0.119608
0.623434 0.367961 0.129630
0.656258 0.377696 0.136902
0.684804 0.386520 0.138970
0.715686 0.396002 0.140732
0.745220 0.403810 0.139717
0.774288 0.413258 0.139461
0.803619 0.420531 0.139893
0.828278 0.429044 0.140411
0.857476 0.440445 0.140445
0.882475 0.446117 0.138396
0.911202 0.456128 0.143065
0.934942 0.463986 0.143643
0.963254 0.472833 0.147691
0.988970 0.480323 0.152627
1.000000 0.487132 0.159314
1.000000 0.495833 0.167034
0.000000 0.363971 0.121569
0.000000 0.368911 0.116375
0.000000 0.369041 0.121492
0.000000 0.371561 0.128929
0.000000 0.372304 0.141820
0.043397 0.372005 0.142226
0.114951 0.364200 0.134804
0.184612 0.364147 0.129925
0.291789 0.399571 0.123958
0.360416 0.404044 0.091812
0.397029 0.390410 0.051225
0.462293 0.391720 0.011374
0.513450 0.391422 0.001532
0.543260 0.385899 0.026210
0.569164 0.386029 0.062837
0.590809 0.386029 0.093712
0.615931 0.390563 0.115564
0.639622 0.396936 0.133739
0.665441 0.406525 0.145588
0.693022 0.413603 0.152811
0.719608 0.423009 0.159804
0.745220 0.430813 0.161029
0.772304 0.440303 0.164951
0.799732 0.447526 0.167233
0.827696 0.456128 0.168566
0.853554 0.463580 0.171301
0.878676 0.471569 0.171569
0.907299 0.481564 0.174456
0.931036 0.487163 0.178340
0.959444 0.495841 0.183218
0.985049 0.502451 0.187424
1.000000 0.510294 0.194033
1.000000 0.517892 0.201715
0.000000 0.411520 0.117647
0.000000 0.415318 0.123939
0.000000 0.415602 0.128064
0.000000 0.419237 0.136761
0.000000 0.422105 0.149433
0.043118 0.423285 0.158823
0.124755 0.418268 0.153554
0.175709 0.405097 0.149950
0.256035 0.418198 0.151808
0.368061 0.455549 0.140698
0.419608 0.450368 0.106074
0.447235 0.432476 0.063086
0.513143 0.435891 0.022748
0.563963 0.434248 0.006020
0.596178 0.431128 0.029535
0.619099 0.427838 0.067421
0.642341 0.429841 0.100123
0.662377 0.432476 0.125226
0.684214 0.438871 0.145366
0.706372 0.443260 0.159502
0.728554 0.450981 0.171829
0.751716 0.457816 0.179044
0.775804 0.463848 0.186343
0.801616 0.473418 0.191065
0.826470 0.480300 0.194025
0.853259 0.490637 0.198530
0.878064 0.495826 0.200360
0.903799 0.504623 0.206373
0.929871 0.510340 0.209283
0.955633 0.519114 0.214457
0.982391 0.525613 0.219646
1.000000 0.533333 0.226184
1.000000 0.538480 0.233824
0.000000 0.455392 0.120098
0.000000 0.461642 0.129243
0.000000 0.463235 0.135539
0.000000 0.463235 0.143260
0.000000 0.469301 0.153615
0.014063 0.469608 0.166161
0.141820 0.466422 0.173805
0.188526 0.455316 0.166222
0.242769 0.450000 0.172549
0.333732 0.473483 0.174923
0.444945 0.508762 0.161703
0.473530 0.493153 0.120849
0.495895 0.475368 0.079412
0.557828 0.477329 0.037286
0.612653 0.479167 0.018015
0.643827 0.475368 0.037056
0.668137 0.473530 0.076961
0.686688 0.472227 0.109114
0.705974 0.473621 0.135478
0.723805 0.477467 0.158594
0.742647 0.480944 0.175490
0.761044 0.484819 0.188113
0.782139 0.490472 0.200061
0.805760 0.498652 0.209927
0.829412 0.505760 0.217280
0.851317 0.511320 0.221124
0.877175 0.521813 0.227696
0.903799 0.525996 0.233946
0.927144 0.533517 0.237929
0.954044 0.541054 0.245328
0.978830 0.546232 0.250796
1.000000 0.554994 0.259482
1.000000 0.560294 0.268628
0.000000 0.495589 0.129412
0.000000 0.497867 0.135612
0.000000 0.503232 0.143260
0.000000 0.503432 0.152424
0.000000 0.505760 0.162423
0.000000 0.509317 0.173652
0.148285 0.509681 0.187201
0.208371 0.503205 0.186416
0.249142 0.492770 0.186397
0.308418 0.494037 0.194118
0.413205 0.526210 0.198415
0.512527 0.557698 0.182705
0.520726 0.532720 0.137255
0.542946 0.514549 0.096446
0.602819 0.519118 0.059597
0.658713 0.521446 0.035482
0.690135 0.519056 0.053370
0.710539 0.512010 0.087734
0.729779 0.511397 0.122465
0.744451 0.510627 0.149441
0.761994 0.511275 0.173039
0.777508 0.515196 0.192459
0.795841 0.519615 0.209796
0.813480 0.525287 0.223694
0.832721 0.529534 0.233487
0.855882 0.534578 0.241318
0.879044 0.543382 0.251294
0.902455 0.549138 0.258942
0.924924 0.557889 0.266100
0.951934 0.564216 0.274020
0.975023 0.568015 0.280147
1.000000 0.578041 0.291839
1.000000 0.581128 0.299510
0.000000 0.530392 0.137255
0.000000 0.534260 0.143329
0.000000 0.538128 0.150980
0.000000 0.539790 0.160256
0.000000 0.541943 0.168627
0.000000 0.545466 0.181373
0.138235 0.546078 0.194607
0.228707 0.543015 0.204305
0.264461 0.535784 0.201042
0.308831 0.528064 0.208816
0.377313 0.538143 0.218183
0.485639 0.575100 0.220420
0.564859 0.596416 0.202666
0.563557 0.569118 0.154611
0.586474 0.551930 0.115181
0.645343 0.558892 0.084735
0.698039 0.561152 0.064828
0.728607 0.555323 0.076226
0.750735 0.552206 0.107368
0.767563 0.547587 0.138396
0.782108 0.544362 0.166912
0.796791 0.546078 0.191521
0.810785 0.547794 0.214216
0.828562 0.552336 0.230277
0.843934 0.554350 0.245037
0.863228 0.559559 0.258449
0.882843 0.566422 0.270833
0.906005 0.571936 0.282085
0.928462 0.577236 0.291238
0.951838 0.585171 0.301103
0.973529 0.591176 0.308961
1.000000 0.598828 0.321010
1.000000 0.604412 0.330392
0.000000 0.559191 0.147182
0.000000 0.561274 0.151046
0.000000 0.566919 0.158701
0.000000 0.570588 0.168087
0.000000 0.570726 0.176225
0.000000 0.572426 0.187048
0.124617 0.574877 0.200958
0.225613 0.574877 0.214426
0.282138 0.572181 0.218995
0.318899 0.564461 0.219336
0.365234 0.562538 0.231005
0.443363 0.581005 0.240112
0.548147 0.618168 0.243535
0.605840 0.629335 0.219520
0.602543 0.601945 0.170994
0.628056 0.589817 0.136638
0.683946 0.594608 0.110662
0.733690 0.594731 0.095715
0.765809 0.590809 0.105270
0.784670 0.586140 0.129879
0.801348 0.581495 0.159972
0.816073 0.578328 0.187642
0.830147 0.576961 0.213358
0.845588 0.579385 0.234682
0.857567 0.579780 0.253462
0.874843 0.583176 0.270466
0.892647 0.589070 0.286152
0.911887 0.595098 0.299836
0.930653 0.600245 0.312408
0.954044 0.604534 0.324632
0.975483 0.610417 0.334183
1.000000 0.618137 0.347909
1.000000 0.623775 0.359191
0.000000 0.586275 0.154902
0.000000 0.586275 0.158762
0.000000 0.590073 0.166421
0.000000 0.597672 0.175919
0.000000 0.596078 0.181863
0.000000 0.597733 0.192892
0.103064 0.601593 0.206372
0.217586 0.602389 0.221384
0.293627 0.601471 0.235294
0.330331 0.597181 0.231924
0.368383 0.593382 0.239338
0.420588 0.596017 0.250919
0.503922 0.620833 0.262010
0.600919 0.657169 0.266299
0.644241 0.660049 0.236887
0.641177 0.634927 0.190502
0.666667 0.622549 0.158823
0.717708 0.625368 0.139461
0.767402 0.627451 0.128554
0.798100 0.621936 0.135355
0.819363 0.616176 0.156863
0.834743 0.611091 0.183150
0.849510 0.609191 0.210172
0.864400 0.607843 0.236642
0.876470 0.607353 0.257843
0.889522 0.608272 0.278186
0.905392 0.612133 0.296323
0.922794 0.614338 0.314951
0.940441 0.621568 0.330147
0.959926 0.627635 0.345833
0.979167 0.631495 0.359069
1.000000 0.637439 0.370834
1.000000 0.645098 0.386274
0.000000 0.605515 0.158701
0.000000 0.611454 0.164641
0.000000 0.613113 0.172304
0.000000 0.619167 0.180197
0.000000 0.619102 0.189583
0.000000 0.622672 0.198775
0.075574 0.622894 0.210294
0.206549 0.625579 0.225735
0.284559 0.624663 0.240717
0.338086 0.623625 0.247330
0.374877 0.622465 0.247595
0.414235 0.617279 0.258682
0.470987 0.627038 0.274188
0.557242 0.656373 0.284536
0.646048 0.691950 0.286436
0.680756 0.691054 0.255155
0.675981 0.663848 0.209865
0.701340 0.652443 0.183824
0.749617 0.655323 0.169294
0.799177 0.655649 0.161385
0.831771 0.650858 0.167770
0.852225 0.645853 0.186274
0.866789 0.639338 0.209436
0.882231 0.636711 0.235785
0.895374 0.634865 0.261765
0.908387 0.634402 0.284279
0.922449 0.636887 0.306005
0.936071 0.638970 0.326677
0.953677 0.642907 0.345833
0.967452 0.646986 0.361275
0.986772 0.652704 0.378439
1.000000 0.656617 0.392214
1.000000 0.664338 0.409436
0.000000 0.628676 0.166421
0.000000 0.630813 0.170818
0.000000 0.632491 0.176226
0.000000 0.638519 0.184107
0.000000 0.640227 0.191667
0.000000 0.642035 0.202696
0.017923 0.642647 0.212423
0.186880 0.646568 0.226593
0.269669 0.644914 0.241176
0.339231 0.647181 0.257851
0.378033 0.647595 0.260386
0.412868 0.644363 0.264561
0.456128 0.644363 0.279412
0.519079 0.659681 0.294562
0.605653 0.691667 0.306847
0.689147 0.725613 0.304657
0.713358 0.719853 0.273407
0.709827 0.693911 0.233020
0.733042 0.680346 0.209758
0.781580 0.682682 0.199142
0.827267 0.682751 0.194271
0.859536 0.677451 0.199410
0.880928 0.671323 0.214951
0.898170 0.666920 0.237018
0.912561 0.663971 0.262317
0.924134 0.661389 0.287125
0.938235 0.660049 0.312010
0.951616 0.662255 0.334827
0.965196 0.664461 0.355852
0.978922 0.666337 0.375161
0.995864 0.671952 0.392294
1.000000 0.675858 0.411519
1.000000 0.681863 0.426961
0.000000 0.647917 0.168627
0.000000 0.650172 0.174805
0.000000 0.653922 0.178654
0.000000 0.657870 0.187867
0.000000 0.659482 0.195297
0.000000 0.662010 0.205274
0.000000 0.662010 0.214215
0.150812 0.665422 0.226593
0.253861 0.667126 0.241176
0.324142 0.666422 0.258291
0.380009 0.667525 0.271683
0.411822 0.665931 0.269788
0.449020 0.665074 0.280009
0.495466 0.671534 0.298775
0.563113 0.691176 0.315809
0.651973 0.728454 0.327229
0.727022 0.757721 0.323652
0.748050 0.749644 0.293750
0.742548 0.720657 0.255875
0.765127 0.709279 0.237745
0.809559 0.708333 0.230024
0.855082 0.708333 0.225980
0.888121 0.703684 0.230760
0.910784 0.697714 0.245711
0.929044 0.693995 0.267861
0.941808 0.688377 0.290951
0.953677 0.687133 0.316230
0.967161 0.686884 0.340437
0.980347 0.687133 0.363848
0.992007 0.689392 0.385199
1.000000 0.693382 0.406005
1.000000 0.695098 0.425417
1.000000 0.701225 0.444730
0.000000 0.667157 0.166176
0.000000 0.669532 0.171002
0.000000 0.669608 0.174847
0.000000 0.673529 0.184834
0.000000 0.677145 0.191667
0.000000 0.681372 0.203309
0.000000 0.681372 0.213021
0.093214 0.681372 0.224265
0.231617 0.686397 0.237868
0.303309 0.684605 0.252987
0.372028 0.688450 0.273744
0.408823 0.685800 0.276823
0.445098 0.687684 0.281434
0.483808 0.689216 0.298177
0.535447 0.700644 0.319516
0.607721 0.724831 0.336351
0.697794 0.764706 0.346078
0.768475 0.793244 0.342141
0.780729 0.778523 0.314063
0.774326 0.748560 0.281893
0.795956 0.734743 0.265074
0.837485 0.734789 0.259942
0.882077 0.731372 0.257874
0.915273 0.728508 0.263266
0.939583 0.723162 0.279044
0.954213 0.716835 0.296247
0.969118 0.715411 0.321324
0.983946 0.713603 0.346553
0.995404 0.711581 0.371568
1.000000 0.711627 0.394501
1.000000 0.714216 0.415349
1.000000 0.716712 0.437056
1.000000 0.722059 0.457843
0.000000 0.686397 0.160784
0.000000 0.686397 0.167199
0.000000 0.688810 0.170956
0.000000 0.692892 0.177455
0.000000 0.696492 0.188649
0.000000 0.698162 0.195465
0.000000 0.698162 0.205760
0.018095 0.700735 0.217402
0.188572 0.704320 0.231985
0.280492 0.704657 0.246078
0.347863 0.705201 0.265985
0.405787 0.707694 0.280541
0.439369 0.708119 0.284467
0.476961 0.709926 0.293007
0.517011 0.712722 0.316422
0.574774 0.730534 0.338951
0.653370 0.762745 0.355576
0.742808 0.805185 0.367318
0.805722 0.829665 0.363657
0.810417 0.809134 0.335351
0.804243 0.776302 0.306480
0.825421 0.762676 0.293436
0.866981 0.760907 0.291667
0.908701 0.758333 0.291667
0.940840 0.754075 0.295864
0.963848 0.746568 0.308283
0.982728 0.742164 0.328561
0.995657 0.738515 0.351995
1.000000 0.734804 0.375368
1.000000 0.734678 0.398529
1.000000 0.734720 0.422955
1.000000 0.737377 0.444853
1.000000 0.741299 0.465441
0.000000 0.705637 0.151716
0.000000 0.705637 0.155637
0.000000 0.708164 0.162010
0.000000 0.712255 0.168620
0.000000 0.715839 0.177451
0.000000 0.717402 0.186397
0.000000 0.717402 0.196814
0.000000 0.720098 0.208456
0.118321 0.723714 0.223039
0.250191 0.724901 0.238480
0.324617 0.725245 0.255147
0.388113 0.727014 0.275858
0.435478 0.729626 0.286734
0.469738 0.731993 0.290702
0.508379 0.733624 0.309068
0.554741 0.742609 0.335087
0.617280 0.765319 0.358823
0.697710 0.803186 0.374716
0.787684 0.848667 0.388128
0.844171 0.866958 0.383609
0.843168 0.838970 0.358333
0.835011 0.804917 0.333647
0.852421 0.788833 0.322166
0.890097 0.784949 0.321668
0.931863 0.781066 0.320894
0.966322 0.777183 0.327918
0.989935 0.772794 0.341176
1.000000 0.765495 0.359926
1.000000 0.761275 0.380392
1.000000 0.757843 0.406250
1.000000 0.757766 0.426807
1.000000 0.759268 0.452573
1.000000 0.760539 0.475735
0.000000 0.724878 0.135049
0.000000 0.727730 0.138970
0.000000 0.727696 0.145466
0.000000 0.731721 0.153186
0.000000 0.735324 0.161045
0.000000 0.737573 0.173039
0.000000 0.740564 0.181373
0.000000 0.741180 0.195217
0.014798 0.744209 0.210417
0.192681 0.744485 0.223039
0.296714 0.748407 0.241521
0.364227 0.748407 0.262266
0.426716 0.754090 0.284681
0.463767 0.755105 0.290196
0.501838 0.757353 0.301830
0.540809 0.762255 0.326961
0.593321 0.777267 0.353799
0.658946 0.804289 0.376742
0.744003 0.847174 0.396071
0.831449 0.892398 0.409842
0.879029 0.903248 0.404749
0.873541 0.870577 0.381997
0.863772 0.833012 0.360685
0.879404 0.815866 0.350303
0.914032 0.808058 0.350214
0.955024 0.804170 0.353186
0.989016 0.802252 0.360907
1.000000 0.796396 0.373430
1.000000 0.788373 0.387990
1.000000 0.784700 0.411048
1.000000 0.780814 0.433211
1.000000 0.779780 0.459104
1.000000 0.780883 0.479534
0.000000 0.740196 0.108823
0.000000 0.744087 0.113695
0.000000 0.746875 0.120404
0.000000 0.750889 0.128952
0.000000 0.754412 0.136764
0.000000 0.758211 0.147794
0.000000 0.763541 0.160846
0.000000 0.765135 0.176379
0.000000 0.767647 0.190441
0.087377 0.768352 0.203401
0.247672 0.772242 0.222059
0.335539 0.775122 0.244975
0.405269 0.778922 0.270588
0.459099 0.782721 0.289982
0.494669 0.784865 0.296324
0.533088 0.790319 0.316176
0.577451 0.798039 0.348039
0.631372 0.815778 0.375000
0.702451 0.848775 0.399510
0.789706 0.895251 0.418872
0.873775 0.936520 0.429779
0.911765 0.942310 0.426072
0.903493 0.904412 0.406128
0.890472 0.861979 0.387010
0.902451 0.836520 0.377206
0.936213 0.831158 0.379412
0.976655 0.829657 0.383517
1.000000 0.823376 0.392249
1.000000 0.819118 0.402574
1.000000 0.811764 0.418750
1.000000 0.807598 0.437929
1.000000 0.805791 0.463021
1.000000 0.802941 0.483333
0.000000 0.762500 0.066789
0.000000 0.763235 0.072372
0.000000 0.763358 0.079221
0.000000 0.766912 0.087745
0.000000 0.771093 0.100138
0.000000 0.773786 0.111275
0.000000 0.781372 0.127412
0.000000 0.786700 0.143015
0.000000 0.789951 0.159436
0.000000 0.796691 0.180396
0.160041 0.801348 0.196814
0.292865 0.804289 0.220538
0.373698 0.807889 0.250046
0.445485 0.814112 0.279657
0.489461 0.818635 0.292402
0.526137 0.822828 0.305059
0.566667 0.826287 0.334007
0.613446 0.839917 0.367682
0.673514 0.861757 0.398162
0.748897 0.900264 0.422285
0.837500 0.949556 0.442249
0.916962 0.986225 0.453554
0.946025 0.978937 0.447350
0.928428 0.932468 0.430875
0.908027 0.884865 0.410938
0.921373 0.859486 0.403914
0.955476 0.854128 0.407231
0.991935 0.850490 0.411887
1.000000 0.846078 0.422565
1.000000 0.841502 0.433537
1.000000 0.834559 0.448407
1.000000 0.827029 0.464897
1.000000 0.826961 0.487133
0.000000 0.785785 0.056862
0.000000 0.786397 0.017969
0.000000 0.786566 0.012623
0.000000 0.790142 0.018520
0.000000 0.791176 0.034252
0.000000 0.797051 0.052083
0.000000 0.801471 0.074648
0.000000 0.809191 0.096530
0.000000 0.811581 0.115258
0.000000 0.816789 0.140357
0.000000 0.824510 0.160539
0.180714 0.835057 0.186527
0.323621 0.844332 0.219608
0.410869 0.849579 0.251539
0.482123 0.861933 0.285064
0.511252 0.861007 0.295320
0.557721 0.865564 0.318505
0.602451 0.874410 0.358234
0.653676 0.886933 0.392571
0.717279 0.915755 0.423951
0.794822 0.956587 0.448284
0.885179 0.997909 0.466912
0.943627 1.000000 0.470328
0.967172 0.996416 0.468635
0.939767 0.951470 0.450735
