luts/stills/KA CineTeal.cube
TITLE "Generated by Resolve"
LUT_3D_SIZE 33
0 0.024033 0.0293889
0.00772107 0.0288853 0.0359045
0.022385 0.032929 0.0415961
0.0417334 0.035996 0.0462043
0.0649729 0.0378119 0.0493782
0.0916609 0.0387427 0.0515145
0.121355 0.0389258 0.0527352
0.153765 0.038468 0.0531624
0.188769 0.0375525 0.0529488
0.22536 0.0364233 0.052369
0.261967 0.03505 0.0513161
0.298528 0.0336919 0.0501259
0.335744 0.0321355 0.0486458
0.373602 0.0302434 0.0468605
0.409445 0.0281071 0.0448463
0.445121 0.025803 0.0426642
0.480354 0.0232395 0.040238
0.51693 0.0206149 0.0377661
0.554162 0.0178531 0.0351568
0.59382 0.0148013 0.0322576
0.636835 0.0117647 0.0294041
0.679408 0.0087892 0.0265812
0.719936 0.0062562 0.0242008
0.757702 0.00459297 0.0226139
0.792844 0.00331121 0.0213931
0.826566 0.002533 0.0206607
0.859205 0.00201419 0.0201572
0.89102 0.00157168 0.0197604
0.922347 0.0012665 0.0194705
0.953216 0.00111391 0.0193179
0.984024 0.00103761 0.0192416
1 0.00117494 0.019379
1 0.00115969 0.0193637
0 0.0485084 0.0452125
0.00996414 0.0512551 0.0496681
0.0287022 0.0542306 0.0539712
0.0492561 0.056733 0.0543526
0.0741894 0.0581369 0.054551
0.102052 0.0588083 0.0544747
0.132067 0.0589914 0.0541543
0.164019 0.0590066 0.0538186
0.196902 0.0586862 0.0533303
0.229862 0.0583658 0.0529335
0.263798 0.0577554 0.0523384
0.299397 0.0567483 0.0513771
0.33669 0.0552987 0.0500191
0.374823 0.053666 0.0485237
0.41059 0.0515602 0.0465858
0.446235 0.0492256 0.0444648
0.481636 0.0467536 0.0422065
0.51841 0.0442359 0.0399176
0.555825 0.0415656 0.0374914
0.595789 0.0386664 0.0348516
0.638758 0.0354467 0.0319219
0.681422 0.0325017 0.0292363
0.722072 0.0300298 0.0270237
0.759991 0.0282139 0.025391
0.795392 0.0271 0.0244297
0.829221 0.0263523 0.0238193
0.861891 0.0258183 0.0235142
0.893889 0.0254978 0.0233768
0.925429 0.02533 0.0233005
0.956497 0.0252995 0.0233463
0.987655 0.0254826 0.0235142
1 0.0256199 0.023621
1 0.025742 0.0237888
0 0.0749371 0.0530098
0.00354009 0.0766461 0.0512551
0.0371099 0.0755627 0.0564279
0.0641642 0.0758068 0.0611734
0.0879988 0.0773175 0.0607462
0.113085 0.078706 0.058854
0.140642 0.0797894 0.0576791
0.16965 0.080354 0.0568093
0.20058 0.0806287 0.0560769
0.232654 0.0805982 0.0553292
0.266117 0.0802014 0.0544137
0.301381 0.0793927 0.0532387
0.338643 0.0783093 0.0518959
0.37644 0.0766918 0.0501564
0.412039 0.0747845 0.0482032
0.4477 0.0726482 0.046067
0.483207 0.0703593 0.0438544
0.520119 0.0680552 0.0416266
0.557717 0.0655833 0.0393072
0.59762 0.0626688 0.0365454
0.640757 0.0595712 0.0336461
0.683436 0.0567178 0.0309758
0.724147 0.0543374 0.0287785
0.762402 0.0528267 0.0274052
0.797818 0.0517739 0.0264591
0.831678 0.0510872 0.0258793
0.864469 0.0506752 0.0255283
0.896605 0.0504768 0.0254063
0.928435 0.0505684 0.0255589
0.959884 0.0508583 0.0258946
0.991089 0.0511177 0.0261845
1 0.0513771 0.0264897
1 0.051667 0.0268101
0 0.100999 0.0552224
0 0.101839 0.0519722
0.0366522 0.0995193 0.0508583
0.0732433 0.0971389 0.0578622
0.103883 0.0962692 0.0639963
0.130312 0.0971542 0.0661631
0.154925 0.0986648 0.0652018
0.18088 0.100099 0.0633707
0.209262 0.101091 0.0616617
0.239384 0.101625 0.06009
0.271778 0.101869 0.0587472
0.306127 0.101472 0.0571145
0.342504 0.100542 0.0552529
0.379812 0.0992294 0.053254
0.414908 0.097612 0.051133
0.450431 0.0957504 0.0489204
0.486259 0.0939498 0.0468757
0.523201 0.0918441 0.0446326
0.560693 0.0894179 0.0421454
0.600687 0.0866255 0.0393378
0.644038 0.0836805 0.0364538
0.686824 0.0810559 0.0338903
0.72781 0.0790112 0.0319066
0.765896 0.0774395 0.0303807
0.801389 0.0765087 0.0294957
0.835431 0.0760357 0.0290227
0.868467 0.0758526 0.0288701
0.900877 0.0759594 0.0289769
0.932891 0.0762493 0.0292515
0.96437 0.0766308 0.0296025
0.995865 0.0771344 0.0301061
1 0.0777142 0.0306859
1 0.0782635 0.0312505
0 0.125521 0.0552834
0 0.125353 0.0524605
0.0334325 0.123445 0.0489052
0.0762951 0.120241 0.0525673
0.112383 0.118029 0.0603647
0.143908 0.116976 0.0670481
0.171969 0.11722 0.070634
0.198215 0.11841 0.0710765
0.224155 0.119951 0.0695354
0.251652 0.121447 0.0674449
0.281498 0.122271 0.0651255
0.314 0.122499 0.0627451
0.34902 0.122148 0.0603037
0.385245 0.12134 0.0578927
0.419486 0.12015 0.0554665
0.454795 0.118853 0.0532235
0.490486 0.117189 0.0508583
0.527398 0.115434 0.0485695
0.564996 0.113344 0.0460975
0.605097 0.110765 0.0432288
0.648585 0.108019 0.0402991
0.691524 0.105745 0.0378729
0.732418 0.103777 0.0358129
0.770657 0.102464 0.0344091
0.806271 0.101747 0.0336156
0.840421 0.101442 0.0332189
0.873899 0.101717 0.033402
0.906493 0.102037 0.0336309
0.938659 0.102525 0.0340429
0.970382 0.103136 0.0345769
1 0.103868 0.0352483
1 0.104845 0.0361334
1 0.105959 0.0371862
0 0.148135 0.0559854
0 0.147906 0.0535134
0.0311894 0.146914 0.0497139
0.0749218 0.144106 0.0489967
0.115984 0.141054 0.0548562
0.151675 0.138979 0.0628367
0.184283 0.137835 0.0699474
0.214221 0.137728 0.0746014
0.241886 0.138735 0.0765393
0.268467 0.140169 0.0757305
0.296162 0.141604 0.0734112
0.326207 0.142626 0.0704051
0.359075 0.143008 0.0672618
0.392996 0.143069 0.0643931
0.42652 0.14255 0.0615549
0.460914 0.141619 0.0588083
0.496574 0.140398 0.056199
0.533227 0.139025 0.0537575
0.570825 0.137346 0.0512093
0.611353 0.135332 0.0485084
0.654932 0.132906 0.0455329
0.697566 0.130678 0.0428931
0.73843 0.128939 0.0408179
0.776761 0.127916 0.0395056
0.812634 0.127565 0.0388952
0.847257 0.12781 0.0388952
0.880629 0.128099 0.0389868
0.913405 0.128664 0.0393683
0.945891 0.129503 0.0400244
0.978042 0.130571 0.0408942
1 0.131762 0.0419013
1 0.13312 0.0430915
1 0.134401 0.0442206
0 0.170779 0.0566415
0 0.170764 0.0544747
0.0302281 0.170138 0.0508583
0.0714885 0.16817 0.0478523
0.115785 0.165026 0.0502174
0.155734 0.162341 0.0572366
0.192096 0.16051 0.0655833
0.225727 0.15938 0.0731975
0.256519 0.15903 0.0786755
0.285496 0.159533 0.0814527
0.313695 0.160708 0.0814832
0.342473 0.162127 0.0793317
0.373312 0.163439 0.0761273
0.403983 0.164187 0.0725414
0.436118 0.16437 0.0691234
0.469398 0.164157 0.0659342
0.504891 0.163622 0.063035
0.541146 0.162799 0.0603799
0.578836 0.161791 0.0578622
0.619257 0.159976 0.0548104
0.66276 0.157961 0.0517739
0.705348 0.156176 0.0491646
0.746197 0.154803 0.0471199
0.784527 0.154055 0.0458381
0.820768 0.154253 0.0455482
0.855406 0.154711 0.0455634
0.889113 0.155459 0.0459449
0.922148 0.156405 0.0465248
0.954833 0.157549 0.0473335
0.987594 0.159228 0.0486915
1 0.160845 0.0500038
1 0.162539 0.0514076
1 0.164218 0.0528115
0 0.19379 0.0570077
0 0.193744 0.054902
0.0296483 0.193423 0.051667
0.0682994 0.192279 0.0480964
0.112703 0.189776 0.0473487
0.156527 0.186908 0.0520333
0.196612 0.184588 0.0598459
0.233112 0.182742 0.0684367
0.267216 0.18146 0.0764477
0.299443 0.180896 0.0826581
0.330205 0.181125 0.086305
0.360433 0.182254 0.0872816
0.389838 0.183627 0.08542
0.418494 0.184985 0.0821546
0.448936 0.186007 0.0783551
0.480903 0.186603 0.0746166
0.516045 0.186954 0.0715343
0.551797 0.186969 0.0686961
0.589059 0.18645 0.0658122
0.629587 0.185153 0.0625467
0.672587 0.183581 0.0593118
0.714946 0.182269 0.0566415
0.756085 0.181674 0.0549325
0.794553 0.18146 0.0538033
0.830564 0.181796 0.0533761
0.865278 0.182605 0.0534981
0.899214 0.183795 0.0540932
0.932662 0.185306 0.0550088
0.966049 0.187213 0.0563973
0.998734 0.189014 0.0577096
1 0.190951 0.0591897
1 0.193057 0.060853
1 0.195224 0.0625925
0 0.217197 0.0568551
0 0.217243 0.0548867
0.0290227 0.217136 0.0520027
0.0656901 0.216632 0.0485695
0.108537 0.215183 0.0462654
0.154162 0.212604 0.0479591
0.197894 0.209918 0.0540169
0.237644 0.20766 0.0623331
0.274556 0.205829 0.0713664
0.309972 0.204578 0.0800183
0.343999 0.203967 0.087068
0.376593 0.203937 0.0914931
0.406287 0.204654 0.0929427
0.435325 0.206073 0.0916457
0.464866 0.207691 0.0886854
0.496681 0.209247 0.0851606
0.530404 0.210376 0.0815747
0.565286 0.211093 0.0783551
0.602213 0.211398 0.0752728
0.642878 0.210956 0.0718853
0.68513 0.21004 0.0684672
0.727245 0.209476 0.0658427
0.767849 0.209186 0.063859
0.806287 0.209537 0.0628367
0.842481 0.210513 0.0626688
0.877317 0.21181 0.0629435
0.911315 0.213397 0.0636454
0.945205 0.215549 0.0649577
0.978515 0.217685 0.0663157
1 0.220005 0.0679332
1 0.222354 0.0696269
1 0.22475 0.071397
1 0.227527 0.0735637
0 0.241276 0.0560769
0 0.241489 0.0543221
0.0280613 0.241642 0.0518044
0.0635996 0.241688 0.0487984
0.103944 0.240864 0.0457618
0.149264 0.239063 0.0451209
0.195819 0.236637 0.0487831
0.239292 0.234195 0.0559243
0.279362 0.23212 0.0649271
0.317494 0.230411 0.0746471
0.35433 0.228946 0.0838788
0.389395 0.228077 0.0915999
0.421347 0.227893 0.096788
0.452384 0.228611 0.0989395
0.483284 0.23035 0.0986343
0.515587 0.232258 0.0962539
0.548653 0.23415 0.0930953
0.582757 0.235752 0.0897536
0.619211 0.236881 0.0863661
0.65951 0.237415 0.0829633
0.701045 0.237491 0.0795148
0.742321 0.237522 0.0766003
0.782406 0.237812 0.0744945
0.820447 0.238666 0.0733501
0.856458 0.240162 0.0731823
0.89163 0.242298 0.0738537
0.925795 0.244511 0.0747692
0.959335 0.246799 0.0759136
0.992615 0.249287 0.0773175
1 0.251987 0.0790112
1 0.254795 0.0808881
1 0.257923 0.0831311
1 0.260716 0.0850843
0 0.266361 0.0545052
0 0.266926 0.0531319
0.0264744 0.267323 0.0509651
0.0610056 0.267613 0.0482338
0.0994583 0.267445 0.0452277
0.143053 0.266499 0.0432593
0.19057 0.264744 0.0444495
0.23772 0.26276 0.0498207
0.281376 0.260548 0.0579385
0.322377 0.258473 0.0675822
0.361807 0.256535 0.0778821
0.398917 0.254917 0.0879225
0.434195 0.254017 0.0965591
0.468254 0.254108 0.102754
0.502327 0.254932 0.105821
0.536248 0.256565 0.106218
0.569986 0.258808 0.104707
0.604456 0.261189 0.102281
0.641413 0.263355 0.0993668
0.680095 0.264729 0.0957046
0.720088 0.265492 0.091783
0.760479 0.266285 0.0887617
0.799878 0.267414 0.0865644
0.8374 0.26894 0.085359
0.873213 0.271153 0.0852674
0.90782 0.273594 0.0857099
0.941711 0.276234 0.0865797
0.975189 0.279072 0.0878004
1 0.281971 0.08925
1 0.284993 0.0909133
1 0.288411 0.0930495
1 0.291554 0.0950179
1 0.294697 0.0970169
0 0.292882 0.0522469
0 0.2934 0.0508583
0.0235599 0.294011 0.0489967
0.0576181 0.294682 0.0467231
0.0948806 0.29514 0.0440986
0.136522 0.295048 0.0417639
0.183337 0.294377 0.0413367
0.232349 0.292775 0.0440986
0.279576 0.290852 0.0505837
0.324376 0.288853 0.059678
0.366934 0.286839 0.0702068
0.406149 0.284855 0.0814221
0.444465 0.283299 0.0925307
0.481743 0.282429 0.101946
0.519875 0.282521 0.108965
0.556848 0.283528 0.1131
0.593179 0.285328 0.114656
0.629877 0.28806 0.114473
0.666911 0.290593 0.112627
0.704646 0.292622 0.109499
0.743435 0.294133 0.105669
0.7823 0.295689 0.102281
0.820645 0.297658 0.0999008
0.857618 0.300038 0.0987716
0.892576 0.302693 0.0984207
0.926513 0.305562 0.0986343
0.959838 0.308629 0.099321
0.992844 0.311849 0.100389
1 0.315419 0.101991
1 0.318944 0.103685
1 0.322347 0.105425
1 0.32575 0.10724
1 0.329091 0.109087
0 0.320562 0.0487831
0 0.321386 0.0477302
0.0196689 0.322255 0.0461891
0.0533913 0.323232 0.0443122
0.0900435 0.324392 0.0423285
0.130129 0.325124 0.0401923
0.175097 0.325261 0.0388037
0.224338 0.32459 0.0395666
0.274128 0.323232 0.0437476
0.322698 0.321508 0.0513924
0.369421 0.319921 0.061799
0.411444 0.317922 0.0733654
0.452201 0.315785 0.0855116
0.492927 0.314076 0.0972152
0.534615 0.313268 0.107439
0.57557 0.313527 0.115434
0.616098 0.3149 0.120928
0.655772 0.316808 0.123674
0.693904 0.319081 0.124254
0.731853 0.321294 0.122683
0.770169 0.323339 0.119814
0.808255 0.325673 0.116915
0.845457 0.328298 0.114565
0.880919 0.331121 0.112963
0.914809 0.334356 0.112337
0.947875 0.337819 0.112337
0.980575 0.341344 0.112947
1 0.345159 0.113985
1 0.348959 0.115206
1 0.352697 0.116564
1 0.356435 0.11809
1 0.360098 0.119677
1 0.363668 0.121279
0 0.349569 0.0449531
0 0.350683 0.0442206
0.0155795 0.35198 0.0431373
0.0495766 0.353597 0.0419776
0.08542 0.354986 0.0402686
0.124331 0.356283 0.0384222
0.167529 0.357321 0.0369573
0.215991 0.357794 0.0366674
0.266835 0.357427 0.0388495
0.318563 0.356558 0.0446632
0.368719 0.354925 0.0534524
0.414221 0.353033 0.064683
0.45803 0.350942 0.0772869
0.502037 0.348882 0.0902419
0.546899 0.34725 0.102647
0.591852 0.346746 0.113741
0.636713 0.34699 0.122438
0.6795 0.34815 0.128695
0.720043 0.349783 0.132448
0.759777 0.351446 0.133654
0.799115 0.353704 0.132998
0.836942 0.356146 0.131197
0.873442 0.358968 0.129396
0.907942 0.36228 0.127962
0.940841 0.365927 0.127306
0.973022 0.369909 0.12726
1 0.374105 0.127703
1 0.378149 0.128267
1 0.382193 0.129046
1 0.386236 0.130022
1 0.390127 0.13135
1 0.394186 0.132723
1 0.398077 0.134066
0 0.380194 0.0413062
0 0.381582 0.0408179
0.0119173 0.383459 0.0403449
0.0458534 0.385351 0.0395361
0.0815747 0.387304 0.0384375
0.119753 0.389166 0.0370489
0.161425 0.390845 0.0357061
0.208637 0.392386 0.0351415
0.259174 0.393133 0.0360113
0.312215 0.392996 0.0395666
0.365438 0.391943 0.0464637
0.414572 0.390234 0.0564431
0.461662 0.388128 0.0687114
0.509392 0.386328 0.0823682
0.557214 0.384283 0.0959335
0.605356 0.38265 0.108736
0.654093 0.381888 0.119982
0.69987 0.382055 0.129198
0.743404 0.382834 0.136172
0.786007 0.384024 0.14078
0.82707 0.385351 0.142779
0.866102 0.387381 0.143236
0.902785 0.390158 0.142763
0.937133 0.393561 0.142275
0.969604 0.397528 0.142168
1 0.401877 0.142412
1 0.406104 0.142641
1 0.410361 0.143008
1 0.414618 0.143542
1 0.418891 0.144228
1 0.423239 0.145159
1 0.427451 0.146075
1 0.431327 0.146807
0 0.412558 0.0383612
0 0.414511 0.0384222
0.00901808 0.416464 0.0380865
0.0430304 0.418662 0.0376287
0.0786603 0.421012 0.0370031
0.116472 0.423438 0.0361791
0.157565 0.425956 0.0354162
0.202869 0.427985 0.0346532
0.252125 0.42948 0.0345922
0.305089 0.430259 0.0364843
0.360342 0.430106 0.0413519
0.412757 0.428946 0.0496071
0.463447 0.427314 0.0610819
0.514305 0.425132 0.0741436
0.565225 0.422919 0.0880446
0.616617 0.420829 0.101869
0.668452 0.419211 0.114824
0.717006 0.418387 0.126207
0.763638 0.418387 0.135973
0.808682 0.418265 0.143252
0.852369 0.418723 0.148318
0.8934 0.420066 0.151476
0.93164 0.422217 0.153368
0.966964 0.425589 0.154681
0.99939 0.429267 0.155505
1 0.43328 0.156176
1 0.437507 0.156802
1 0.441794 0.157458
1 0.44622 0.157961
1 0.450767 0.158709
1 0.455024 0.159243
1 0.459236 0.159762
1 0.463416 0.160327
0 0.446082 0.0364385
0 0.44831 0.036759
0.00759899 0.450706 0.0368811
0.0418097 0.453254 0.0368353
0.077348 0.455894 0.0365606
0.115114 0.45893 0.0363775
0.155261 0.461707 0.0357824
0.19939 0.464271 0.0351263
0.247166 0.466423 0.0347906
0.299046 0.467918 0.0355077
0.354849 0.468757 0.0386816
0.409812 0.468391 0.0449531
0.463035 0.46688 0.0545663
0.517205 0.46479 0.0667582
0.571359 0.462409 0.0803998
0.626078 0.460044 0.0944533
0.680629 0.458137 0.108461
0.731579 0.456428 0.121233
0.780224 0.4551 0.132494
0.827955 0.454017 0.142153
0.874296 0.453452 0.149889
0.917632 0.453834 0.155688
0.957977 0.455558 0.160159
0.994369 0.457938 0.163241
1 0.461051 0.165774
1 0.464668 0.167605
1 0.468574 0.169024
1 0.472724 0.17023
1 0.477272 0.171481
1 0.481743 0.172457
1 0.486259 0.173602
1 0.490974 0.174334
1 0.495552 0.175128
0 0.480613 0.0359197
0 0.48307 0.0364691
0.00781262 0.485725 0.0368811
0.0424506 0.488746 0.0373541
0.0782788 0.49189 0.0376135
0.115419 0.494881 0.0374914
0.15491 0.497887 0.0371405
0.198001 0.500786 0.0366522
0.244419 0.503395 0.0362707
0.295201 0.505699 0.0365301
0.350118 0.507073 0.0381476
0.405951 0.50724 0.042298
0.461219 0.506203 0.0498817
0.518196 0.504326 0.0606394
0.575555 0.50193 0.073518
0.633936 0.499611 0.0876326
0.690532 0.497078 0.101518
0.743313 0.494652 0.114778
0.794064 0.492439 0.127214
0.844144 0.490517 0.138582
0.892927 0.489036 0.148425
0.938933 0.488792 0.156771
0.98085 0.48925 0.163119
1 0.490776 0.16817
1 0.493263 0.17232
1 0.496391 0.175814
1 0.500328 0.179263
1 0.504433 0.181811
1 0.508797 0.184024
1 0.513359 0.185946
1 0.518059 0.187625
1 0.522896 0.189151
1 0.528069 0.190753
0 0.516014 0.0361791
0 0.51873 0.0370031
0.00918593 0.521675 0.0377203
0.0439612 0.52491 0.0384527
0.0795758 0.528069 0.0388495
0.116564 0.531304 0.0390326
0.155566 0.534508 0.0389258
0.197757 0.537575 0.0385595
0.243305 0.540719 0.0383307
0.292165 0.54313 0.0380255
0.345678 0.544884 0.0384985
0.401495 0.545586 0.0408637
0.457832 0.545022 0.0462654
0.516884 0.543572 0.0552682
0.577173 0.541283 0.0669261
0.638376 0.53846 0.0800336
0.697444 0.535546 0.0936599
0.752438 0.53283 0.107088
0.805081 0.530114 0.120134
0.857496 0.527611 0.132845
0.908476 0.525292 0.144259
0.956283 0.523873 0.154147
1 0.523644 0.162585
1 0.524697 0.169802
1 0.526864 0.176059
1 0.530053 0.181796
1 0.533425 0.186542
1 0.537255 0.190723
1 0.541375 0.194583
1 0.545907 0.197818
1 0.550622 0.200641
1 0.555718 0.203326
1 0.560494 0.205295
0 0.552361 0.0362554
0 0.555566 0.0375677
0.0103914 0.558618 0.0384375
0.0449989 0.561776 0.0391699
0.0804761 0.565011 0.0396887
0.117159 0.568292 0.0400092
0.155779 0.571664 0.0401465
0.197406 0.575051 0.0400702
0.241398 0.577981 0.0395056
0.288609 0.580545 0.0388495
0.340475 0.582437 0.0384527
0.395651 0.583429 0.0392309
0.451987 0.583413 0.0426032
0.512078 0.582223 0.0492866
0.574365 0.579873 0.0590066
0.638346 0.576928 0.0709239
0.700252 0.5738 0.0839857
0.757778 0.570871 0.0973526
0.813016 0.568246 0.110933
0.867399 0.565301 0.124315
0.920806 0.562509 0.137148
0.97113 0.560708 0.148821
1 0.560006 0.159167
1 0.560555 0.168276
1 0.5626 0.176699
1 0.565103 0.184009
1 0.5682 0.190585
1 0.57171 0.196445
1 0.57554 0.201663
1 0.579965 0.206592
1 0.584237 0.21062
1 0.588571 0.214237
1 0.593072 0.217121
0 0.589715 0.0366217
0 0.592721 0.0377508
0.0110323 0.595834 0.0387579
0.0456855 0.599084 0.0395819
0.0810407 0.602365 0.0402228
0.11754 0.605722 0.0406958
0.155779 0.609171 0.041001
0.196307 0.612238 0.0406958
0.23917 0.615091 0.0400244
0.285039 0.617609 0.0390631
0.335027 0.619562 0.0380865
0.389517 0.620996 0.0378882
0.444739 0.621012 0.0391089
0.504433 0.619898 0.0432898
0.568231 0.617807 0.0508888
0.634638 0.615091 0.061387
0.700084 0.612375 0.0739452
0.761013 0.609873 0.0874647
0.81886 0.607233 0.101183
0.875685 0.604288 0.115023
0.931258 0.601282 0.128695
0.983841 0.599039 0.141665
1 0.598215 0.153765
1 0.598489 0.164599
1 0.599771 0.174304
1 0.601755 0.183108
1 0.604257 0.191135
1 0.607187 0.198413
1 0.610742 0.20531
1 0.614313 0.211292
1 0.617975 0.21651
1 0.621668 0.221012
1 0.625406 0.224826
0 0.62652 0.0376898
0 0.629541 0.03888
0.0129091 0.632639 0.0399176
0.0474098 0.635813 0.0407416
0.0829175 0.639323 0.0416571
0.118975 0.642527 0.0420691
0.156466 0.64567 0.0421454
0.196292 0.648676 0.041825
0.238163 0.651423 0.0410468
0.28275 0.65388 0.0398718
0.331365 0.656046 0.0386358
0.384512 0.657252 0.0373541
0.438437 0.657633 0.037232
0.497597 0.657099 0.0396887
0.562646 0.655634 0.0454871
0.631113 0.653544 0.0546426
0.699626 0.651179 0.0662699
0.763317 0.648692 0.0791638
0.824002 0.64622 0.0928817
0.883497 0.643442 0.107057
0.941421 0.640513 0.121248
0.996124 0.638254 0.135134
1 0.63679 0.148074
1 0.636408 0.159823
1 0.63711 0.170581
1 0.638544 0.180514
1 0.640482 0.189685
1 0.643061 0.198337
1 0.645548 0.205951
1 0.64831 0.212848
1 0.651286 0.219104
1 0.654322 0.224643
1 0.657557 0.229633
0 0.662699 0.0400854
0 0.665675 0.0412451
0.0163119 0.668711 0.0422217
0.0510414 0.672145 0.0433204
0.0859388 0.675242 0.0439155
0.12163 0.678309 0.0442359
0.158587 0.6813 0.0442359
0.197787 0.684184 0.0438544
0.238972 0.686946 0.0430915
0.283009 0.689754 0.0422065
0.330526 0.691966 0.0407416
0.382437 0.693584 0.0392767
0.435355 0.694408 0.0383764
0.493614 0.694347 0.0394446
0.559213 0.693721 0.0438544
0.629038 0.692042 0.0513313
0.69987 0.689921 0.0616617
0.766262 0.687694 0.0738537
0.82948 0.685283 0.0871748
0.891463 0.682551 0.10132
0.95169 0.679698 0.115785
1 0.677043 0.129717
1 0.675105 0.143008
1 0.674174 0.155367
1 0.67422 0.166705
1 0.67509 0.177386
1 0.676432 0.187304
1 0.678019 0.19646
1 0.67982 0.204837
1 0.681743 0.212421
1 0.683742 0.219257
1 0.686122 0.225681
1 0.688411 0.231281
0 0.697932 0.0441596
0 0.70106 0.0454414
0.0221256 0.704005 0.0463722
0.0562448 0.706981 0.0470588
0.0909133 0.709987 0.0476081
0.126482 0.713085 0.0480049
0.163424 0.716258 0.0482185
0.202991 0.719692 0.0484169
0.243732 0.722698 0.0479133
0.286854 0.725444 0.0469368
0.333455 0.72784 0.0455177
0.384146 0.729732 0.043946
0.435981 0.730968 0.0426032
0.493767 0.731701 0.0430457
0.558755 0.731212 0.0457313
0.629496 0.729854 0.0515908
0.701823 0.727932 0.0604868
0.770214 0.725795 0.0716106
0.835676 0.723491 0.0843366
0.899901 0.720806 0.0982223
0.961746 0.71751 0.112306
1 0.714504 0.126101
1 0.712123 0.139315
1 0.710643 0.151812
1 0.710277 0.163638
1 0.71043 0.174624
1 0.710796 0.184649
1 0.711482 0.194018
1 0.712489 0.202808
1 0.71371 0.210941
1 0.715236 0.218555
1 0.716442 0.225147
1 0.717678 0.231083
0 0.732219 0.0498054
0 0.735119 0.0508736
0.0297551 0.738109 0.0518502
0.0640879 0.741299 0.0527657
0.0990311 0.744595 0.0536202
0.134768 0.747921 0.0542763
0.172152 0.751553 0.054963
0.21117 0.754849 0.0550851
0.251484 0.758053 0.0548104
0.294133 0.761044 0.054078
0.339971 0.763653 0.052781
0.388952 0.765759 0.0510872
0.44004 0.767361 0.0496223
0.496574 0.767956 0.0488899
0.560952 0.767697 0.050309
0.632013 0.766598 0.0546883
0.705409 0.764874 0.0621195
0.77557 0.762997 0.0723278
0.842435 0.760372 0.0839094
0.907973 0.757153 0.0968032
0.97142 0.753597 0.110445
1 0.750271 0.12401
1 0.747509 0.137087
1 0.745632 0.149508
1 0.744366 0.160998
1 0.743694 0.171908
1 0.74342 0.182132
1 0.743358 0.191623
1 0.743557 0.200565
1 0.744045 0.208957
1 0.744595 0.216663
1 0.74522 0.223789
1 0.745846 0.230259
0 0.766278 0.0567178
0.00547799 0.76939 0.0579843
0.0397803 0.77258 0.0591592
0.0742809 0.775906 0.0602426
0.109651 0.779583 0.0614786
0.145663 0.78323 0.0624552
0.182849 0.78677 0.0631266
0.221576 0.790219 0.0634165
0.261341 0.793469 0.0632334
0.303258 0.796445 0.0624857
0.34844 0.799329 0.0614023
0.395758 0.801419 0.0595254
0.445335 0.802777 0.0574502
0.500969 0.803418 0.0559701
0.564401 0.803159 0.0561685
0.635203 0.801999 0.0589914
0.709392 0.800504 0.0651408
0.780056 0.798306 0.0737011
0.848234 0.795529 0.084184
0.915038 0.791928 0.0960708
0.979614 0.787823 0.108873
1 0.784039 0.12195
1 0.781018 0.13489
1 0.77847 0.146883
1 0.776593 0.158038
1 0.775113 0.168612
1 0.774075 0.178729
1 0.77351 0.188464
1 0.773236 0.197681
1 0.773007 0.206165
1 0.772931 0.21416
1 0.773007 0.221653
1 0.773175 0.228641
0 0.800656 0.0649424
0.0169985 0.803937 0.066392
0.0515908 0.807355 0.0677806
0.0865492 0.811109 0.069276
0.121859 0.814786 0.0705425
0.157671 0.818341 0.0714733
0.194766 0.821836 0.0721294
0.232807 0.825223 0.0724041
0.271992 0.828428 0.0722057
0.313497 0.831617 0.0716716
0.357336 0.834089 0.0701915
0.402716 0.835904 0.0679332
0.450935 0.837003 0.0653697
0.505653 0.837507 0.0631266
0.568093 0.837217 0.0622873
0.638712 0.836286 0.0639811
0.712169 0.834241 0.0681621
0.783185 0.831708 0.0750896
0.852262 0.828656 0.0842756
0.920333 0.824811 0.0951858
0.98645 0.8206 0.107424
1 0.816159 0.119692
1 0.812222 0.131792
1 0.809201 0.143404
1 0.806958 0.154437
1 0.805188 0.16495
1 0.803876 0.175204
1 0.80264 0.184833
1 0.80174 0.194095
1 0.801114 0.202869
1 0.80061 0.21117
1 0.80029 0.219059
1 0.800137 0.226581
0 0.835492 0.0742962
0.0298924 0.838849 0.0758068
0.0648356 0.842573 0.0775158
0.099443 0.846052 0.0787823
0.134493 0.849561 0.079881
0.170184 0.853071 0.0808118
0.207019 0.856458 0.0813916
0.244434 0.859815 0.0816815
0.282902 0.862837 0.0813306
