luts/stills/KA CineTeal.cube
TITLE "Generated by Resolve"
LUT_3D_SIZE 9
0 0.024033 0.0293889
0.0649729 0.0378119 0.0493782
0.188769 0.0375525 0.0529488
0.335744 0.0321355 0.0486458
0.480354 0.0232395 0.040238
0.636835 0.0117647 0.0294041
0.792844 0.00331121 0.0213931
0.922347 0.0012665 0.0194705
1 0.00115969 0.0193637
0 0.125521 0.0552834
0.112383 0.118029 0.0603647
0.224155 0.119951 0.0695354
0.34902 0.122148 0.0603037
0.490486 0.117189 0.0508583
0.648585 0.108019 0.0402991
0.806271 0.101747 0.0336156
0.938659 0.102525 0.0340429
1 0.105959 0.0371862
0 0.217197 0.0568551
0.108537 0.215183 0.0462654
0.274556 0.205829 0.0713664
0.406287 0.204654 0.0929427
0.530404 0.210376 0.0815747
0.68513 0.21004 0.0684672
0.842481 0.210513 0.0626688
0.978515 0.217685 0.0663157
1 0.227527 0.0735637
0 0.320562 0.0487831
0.0900435 0.324392 0.0423285
0.274128 0.323232 0.0437476
0.452201 0.315785 0.0855116
0.616098 0.3149 0.120928
0.770169 0.323339 0.119814
0.914809 0.334356 0.112337
1 0.348959 0.115206
1 0.363668 0.121279
0 0.446082 0.0364385
0.077348 0.455894 0.0365606
0.247166 0.466423 0.0347906
0.463035 0.46688 0.0545663
0.680629 0.458137 0.108461
0.874296 0.453452 0.149889
1 0.461051 0.165774
1 0.477272 0.171481
1 0.495552 0.175128
0 0.589715 0.0366217
0.0810407 0.602365 0.0402228
0.23917 0.615091 0.0400244
0.444739 0.621012 0.0391089
0.700084 0.612375 0.0739452
0.931258 0.601282 0.128695
1 0.599771 0.174304
1 0.610742 0.20531
1 0.625406 0.224826
0 0.732219 0.0498054
0.0990311 0.744595 0.0536202
0.251484 0.758053 0.0548104
0.44004 0.767361 0.0496223
0.705409 0.764874 0.0621195
0.97142 0.753597 0.110445
1 0.744366 0.160998
1 0.743557 0.200565
1 0.745846 0.230259
0.00883497 0.870268 0.084062
0.146975 0.883726 0.089128
0.292714 0.895827 0.0895857
0.461372 0.901503 0.0794385
0.713695 0.896056 0.072694
0.993057 0.880247 0.102022
1 0.864668 0.146426
1 0.857389 0.190356
1 0.869459 0.350042
0.0531624 1 0.116381
0.183047 1 0.115587
0.316884 1 0.110369
0.470603 1 0.0949874
0.706554 1 0.0772564
0.989654 0.988312 0.113298
1 0.970077 0.464164
1 0.995758 0.949584
1 1 1
0 0.0300298 0.0712596
0.0678874 0.038468 0.119722
0.19173 0.0361334 0.138537
0.335424 0.0312352 0.137987
0.48101 0.0224918 0.131182
0.63859 0.0110323 0.121889
0.795453 0.00257877 0.115068
0.925597 0.000488289 0.114199
1 0.000350958 0.115099
0 0.127626 0.138277
0.0727855 0.127275 0.138567
0.194476 0.127245 0.138537
0.335821 0.124926 0.136355
0.483757 0.119234 0.130968
0.644572 0.110872 0.123064
0.803479 0.104662 0.117189
0.936721 0.105714 0.118196
1 0.109529 0.121798
0 0.21883 0.13817
0.0775769 0.22002 0.141405
0.234989 0.213764 0.148333
0.362387 0.216541 0.155947
0.501503 0.219654 0.14786
0.66833 0.21883 0.143374
0.83209 0.218326 0.141497
0.971603 0.22533 0.147524
1 0.234806 0.156191
0 0.322744 0.131365
0.0734569 0.327718 0.137377
0.224765 0.331655 0.131029
0.419043 0.323659 0.162387
0.572671 0.327077 0.191028
0.729488 0.341131 0.18616
0.885222 0.350286 0.182147
1 0.363073 0.1879
1 0.376318 0.196292
0 0.450065 0.121065
0.0676585 0.460716 0.131899
0.213779 0.472068 0.132372
0.424094 0.47631 0.13579
0.644266 0.468666 0.187732
0.838621 0.469551 0.229267
0.986191 0.479805 0.237095
1 0.49662 0.239078
1 0.514366 0.242481
0 0.594675 0.122469
0.0742504 0.607858 0.135622
0.218143 0.620233 0.138293
0.405875 0.628901 0.132311
0.662882 0.625925 0.156786
0.900816 0.616464 0.212558
1 0.615686 0.256947
1 0.627466 0.28426
1 0.643275 0.299428
0 0.736721 0.135393
0.0933242 0.750256 0.148806
0.236591 0.763684 0.153017
0.4103 0.774166 0.147738
0.660121 0.776761 0.14905
0.937407 0.767712 0.193225
1 0.758038 0.243366
1 0.756451 0.282032
1 0.759045 0.31014
0.0136721 0.875502 0.170459
0.141436 0.889158 0.183886
0.279042 0.90016 0.186084
0.435447 0.905577 0.176486
0.663966 0.903563 0.162051
0.951339 0.891386 0.183169
1 0.876387 0.226795
1 0.869963 0.283024
1 0.886244 0.462272
0.055314 1 0.200839
0.175006 1 0.208133
0.302831 1 0.20473
0.447242 1 0.190768
0.658564 1 0.169116
0.943358 0.996674 0.201999
1 0.977584 0.570367
1 1 0.993454
1 1 1
0 0.0354925 0.126421
0.0572061 0.039353 0.206867
0.191562 0.0345922 0.228077
0.332799 0.0299382 0.226932
0.479088 0.0216526 0.2206
0.637156 0.0108797 0.211994
0.794491 0.00280766 0.205539
0.924941 0.000976577 0.204913
1 0.00106813 0.206027
0 0.131563 0.223056
0.0487678 0.130861 0.229374
0.192615 0.126253 0.228748
0.334127 0.123354 0.227207
0.483146 0.117784 0.223423
0.646403 0.110735 0.218311
0.806485 0.104768 0.214084
0.940703 0.106065 0.216403
1 0.11014 0.221256
0 0.221439 0.226246
0.0710307 0.222248 0.227619
0.194507 0.223346 0.229297
0.337865 0.222782 0.228748
0.491051 0.222187 0.228199
0.663554 0.222705 0.228687
0.830594 0.22327 0.229221
0.971328 0.230564 0.236103
1 0.240513 0.245548
0 0.326299 0.21619
0.0725109 0.330663 0.222904
0.197955 0.337087 0.230915
0.384878 0.332006 0.24213
0.526146 0.340017 0.256275
0.696834 0.353338 0.256199
0.867399 0.362448 0.260304
1 0.373587 0.269017
1 0.385931 0.279622
0 0.454566 0.207309
0.0706645 0.465217 0.219638
0.20061 0.476982 0.231739
0.379675 0.483818 0.225711
0.602945 0.476265 0.267048
0.793942 0.482643 0.305745
0.941878 0.499168 0.308248
1 0.514961 0.309377
1 0.531395 0.315572
0 0.599649 0.209873
0.0782177 0.612634 0.224048
0.208759 0.624979 0.236637
0.373022 0.63267 0.231189
0.615671 0.635096 0.239155
0.866255 0.629664 0.297887
1 0.631952 0.342931
1 0.645197 0.364981
1 0.661982 0.374334
0 0.74168 0.223117
0.097734 0.755245 0.237568
0.229801 0.769253 0.251713
0.388968 0.778592 0.248768
0.609262 0.785565 0.241215
0.89987 0.781216 0.278538
1 0.77145 0.32961
1 0.769589 0.367666
1 0.772671 0.393805
0.0177005 0.880751 0.258839
0.145357 0.893751 0.272862
0.271397 0.904372 0.283696
0.416373 0.907988 0.275837
0.614374 0.907835 0.257313
0.904356 0.901488 0.267491
1 0.887861 0.310628
1 0.883116 0.384421
1 0.903304 0.573388
0.0567178 1 0.287648
0.176043 1 0.295384
0.293629 1 0.300771
0.429938 1 0.289052
0.614771 1 0.266178
0.892241 1 0.286061
1 0.984009 0.665095
1 1 1
1 1 1
0 0.0392767 0.199084
0.0250095 0.0414588 0.311391
0.177386 0.0313725 0.350072
0.327321 0.0263218 0.337545
0.473594 0.0174716 0.330388
0.631876 0.00775158 0.322515
0.79028 0.000564584 0.316732
0.921355 0 0.316609
1 0 0.318105
0 0.134356 0.328252
0.0138552 0.131319 0.340414
0.166033 0.124315 0.351247
0.328115 0.119295 0.337346
0.477134 0.113222 0.332906
0.641764 0.108156 0.329549
0.803677 0.1037 0.326635
0.938918 0.105867 0.32987
1 0.110658 0.335576
0 0.222599 0.333074
0.0361181 0.224643 0.331624
0.161578 0.225528 0.342031
0.333989 0.219989 0.341405
0.487541 0.218769 0.341695
0.662409 0.220859 0.345312
0.833021 0.223651 0.349493
0.974853 0.231296 0.358129
1 0.241581 0.36936
0 0.328847 0.328069
0.0602731 0.333974 0.333654
0.190311 0.340322 0.340444
0.338521 0.343282 0.344137
0.495674 0.346456 0.347234
0.679805 0.356237 0.356741
0.860044 0.367895 0.368139
1 0.379278 0.379324
1 0.391333 0.391333
0 0.459693 0.315038
0.0637675 0.470176 0.327016
0.199695 0.480919 0.340185
0.346426 0.488075 0.349691
0.550622 0.481971 0.364187
0.725704 0.494224 0.38854
0.889006 0.514061 0.392676
1 0.530663 0.403037
1 0.544976 0.413962
0 0.604883 0.317067
0.076173 0.616892 0.331716
0.209491 0.628229 0.345571
0.352956 0.635111 0.354055
0.548363 0.639078 0.343725
0.810544 0.635584 0.396719
0.995621 0.645365 0.444205
1 0.665446 0.46099
1 0.682429 0.464118
0 0.746303 0.33077
0.0979934 0.759518 0.346426
0.231815 0.773083 0.362036
0.374807 0.781781 0.372015
0.551766 0.786877 0.360113
0.840604 0.789715 0.379767
1 0.783505 0.436408
1 0.783612 0.475715
1 0.788052 0.496605
0.0163424 0.885023 0.367712
0.145327 0.897032 0.382223
0.271427 0.906416 0.39379
0.402487 0.909285 0.397864
0.567071 0.90721 0.379232
0.836271 0.908537 0.373892
1 0.899962 0.416297
1 0.897108 0.506966
1 0.920638 0.688853
0.0534981 1 0.39588
0.173831 1 0.404089
0.291661 1 0.410208
0.415991 1 0.410498
0.574868 1 0.388998
0.82153 1 0.382269
1 0.988876 0.735958
1 1 1
1 1 1
0 0.0424353 0.299092
0 0.0427405 0.442313
0.12932 0.0304875 0.507744
0.311177 0.0198215 0.488869
0.465339 0.0106661 0.470069
0.621836 0.00111391 0.461662
0.781186 0 0.456367
0.913039 0 0.456901
1 0 0.459449
0 0.134447 0.467308
0 0.129519 0.48101
0.113237 0.122515 0.496483
0.305104 0.11162 0.489662
0.467826 0.105425 0.471687
0.629999 0.0999161 0.467643
0.794614 0.097673 0.466835
0.931685 0.101381 0.471763
1 0.107881 0.479484
0 0.222766 0.45919
0 0.22266 0.463981
0.113024 0.221607 0.480522
0.299672 0.213687 0.495094
0.478096 0.211139 0.48101
0.651331 0.213138 0.484596
0.8262 0.219516 0.492531
0.970321 0.229068 0.503365
1 0.240665 0.516106
0 0.328389 0.465858
0.0252537 0.333654 0.46865
0.143801 0.340368 0.471595
0.298451 0.34342 0.486854
0.489769 0.341588 0.491127
0.672618 0.35021 0.50135
0.85626 0.363989 0.516579
1 0.378149 0.531823
1 0.390326 0.54493
0 0.462867 0.459602
0.0487526 0.47396 0.471366
0.184787 0.485206 0.483299
0.337301 0.491493 0.49044
0.492302 0.492119 0.492119
0.671931 0.498527 0.498497
0.857145 0.514366 0.514305
1 0.534249 0.534096
1 0.550942 0.550713
0 0.609888 0.456458
0.0607309 0.621714 0.469993
0.19707 0.632181 0.482612
0.348669 0.637812 0.491753
0.499458 0.64007 0.497612
0.734432 0.636454 0.515618
0.907301 0.652949 0.547677
1 0.679606 0.560388
1 0.69955 0.572396
0 0.751278 0.467887
0.0870527 0.764233 0.483696
0.224979 0.776593 0.499352
0.372778 0.783871 0.510536
0.51873 0.785397 0.514595
0.745418 0.787366 0.503258
0.984558 0.783185 0.553552
1 0.790814 0.594141
1 0.80502 0.61033
0.00445563 0.88922 0.504875
0.135744 0.89984 0.518624
0.26482 0.907622 0.529671
0.399039 0.909041 0.534447
0.53814 0.904372 0.531746
0.741512 0.902586 0.512032
1 0.903319 0.537621
1 0.905257 0.622965
1 0.935744 0.791501
0.0411383 1 0.530571
0.163912 1 0.538476
0.284718 1 0.544701
0.411749 1 0.546044
0.548836 1 0.540749
0.741009 1 0.518898
0.986877 0.991119 0.749798
1 1 1
1 1 1
0 0.0465553 0.421485
0 0.0451362 0.588174
0.0794995 0.0328374 0.661433
0.271717 0.0169223 0.653529
0.453574 0.00389105 0.623117
0.612146 0 0.606668
0.771145 0 0.601312
0.90312 0 0.601923
1 0 0.604929
0 0.136995 0.615518
0 0.130465 0.62826
0.0645609 0.122148 0.642512
0.253574 0.107729 0.647852
0.452598 0.0966201 0.62446
0.618555 0.0918135 0.611109
0.783169 0.0896162 0.6103
0.921263 0.0941939 0.615915
1 0.102068 0.624674
0 0.22504 0.599817
0 0.221653 0.607752
0.0631418 0.217884 0.623194
0.243641 0.20882 0.641199
0.457969 0.201053 0.634287
0.638697 0.20412 0.626551
0.812696 0.209781 0.633509
0.959548 0.221637 0.646281
1 0.235325 0.660822
0 0.329122 0.597116
0 0.332006 0.597375
0.0806592 0.335653 0.605066
0.246784 0.336049 0.625788
0.458534 0.331594 0.645869
0.65919 0.340398 0.64213
0.840925 0.352667 0.655482
0.994339 0.370138 0.673625
1 0.385199 0.689326
0 0.464027 0.606683
0.0220188 0.47425 0.615671
0.151003 0.484123 0.62327
0.292454 0.488731 0.623301
0.453346 0.489784 0.635828
0.66215 0.491035 0.643183
0.845899 0.504997 0.658167
1 0.52723 0.68098
1 0.548104 0.702419
0 0.613153 0.608225
0.0458686 0.624994 0.620584
0.181033 0.635355 0.631479
0.334432 0.641993 0.638865
0.490867 0.643748 0.641627
0.664332 0.644617 0.643549
0.843748 0.655421 0.654231
1 0.676997 0.675563
1 0.698146 0.696468
0 0.755947 0.615228
0.0701305 0.769345 0.629419
0.208286 0.781582 0.642695
0.35967 0.788128 0.651011
0.512688 0.787106 0.653559
0.678706 0.783932 0.654185
0.897795 0.777554 0.667124
1 0.789822 0.694926
1 0.811399 0.702998
0 0.893919 0.647776
0.117311 0.903746 0.659098
0.247822 0.910399 0.667689
0.388098 0.910384 0.670848
0.53225 0.903609 0.668818
0.692103 0.896086 0.66424
0.905898 0.894957 0.653376
1 0.894301 0.700618
1 0.921172 0.808713
0.0210422 1 0.668711
0.144884 1 0.674998
0.269215 1 0.680262
0.402228 1 0.681239
0.543008 1 0.677256
0.701152 0.998856 0.670802
0.907225 0.988052 0.721325
1 1 1
1 1 1
0 0.0508583 0.549157
0 0.0480507 0.730282
0.0383917 0.0364843 0.798108
0.227771 0.0191653 0.798352
0.432502 6.10361e-05 0.770672
0.602533 0 0.742367
0.763577 0 0.731655
0.895445 0 0.732204
1 0 0.735271
0 0.140475 0.749477
0 0.133944 0.762768
0.0265965 0.12578 0.777234
0.209522 0.11043 0.786725
0.425147 0.0925154 0.772045
0.607324 0.0856336 0.746929
0.775143 0.084184 0.740246
0.913375 0.0889448 0.745998
1 0.0971084 0.755062
0 0.229191 0.731167
0 0.225696 0.741939
0.0260319 0.221027 0.757366
0.201648 0.210239 0.774487
0.421424 0.196277 0.778775
0.624857 0.196963 0.762631
0.803769 0.203632 0.762768
0.950332 0.21529 0.775326
1 0.229252 0.790112
0 0.333486 0.718593
0 0.336034 0.723781
0.0369268 0.337087 0.73489
0.202731 0.332891 0.753796
0.412985 0.325139 0.778103
0.638727 0.330053 0.777234
0.828641 0.343664 0.78201
0.979965 0.359411 0.798459
1 0.37554 0.815198
0 0.466529 0.729335
0 0.475486 0.734462
0.0920577 0.481437 0.736294
0.230686 0.481117 0.736339
0.409567 0.478935 0.756405
0.627192 0.478233 0.778866
0.831434 0.494148 0.782925
0.988052 0.514397 0.803708
1 0.537606 0.827405
0 0.615686 0.742565
0.0280613 0.626749 0.753506
0.160128 0.63621 0.762493
0.309316 0.641016 0.765911
0.45597 0.640162 0.760494
0.621454 0.641657 0.771725
0.834653 0.648554 0.784146
0.989242 0.666773 0.803265
1 0.688289 0.825589
0 0.760098 0.752514
0.0593423 0.773632 0.766552
0.196979 0.785855 0.779293
0.34844 0.792157 0.786374
0.500511 0.790768 0.786007
0.668177 0.785855 0.782208
0.830686 0.782254 0.779614
0.971633 0.78967 0.786954
1 0.804883 0.801984
0 0.897993 0.781826
0.101946 0.907057 0.791577
0.231815 0.913375 0.798688
0.37293 0.913146 0.799664
0.518135 0.905989 0.794446
0.683787 0.896483 0.78822
0.839246 0.89041 0.785718
1 0.886641 0.797269
1 0.905089 0.838087
0.00334173 1 0.798459
0.126284 1 0.803388
0.251164 1 0.807309
0.387625 1 0.806363
0.530861 1 0.800397
0.696834 0.997497 0.79556
0.863691 0.983963 0.817533
0.994141 0.987427 0.922927
1 1 1
0 0.0556344 0.672526
0 0.0514839 0.852796
0.00849927 0.0406195 0.906645
0.194156 0.0230869 0.910887
0.409354 0.000823987 0.89099
0.591394 0 0.857801
0.758389 0 0.839506
0.891707 0 0.837476
1 0 0.840711
0 0.144472 0.857145
0 0.138003 0.870756
0 0.130083 0.885451
0.178042 0.114916 0.896788
0.398428 0.0942397 0.890486
0.593652 0.0830549 0.86331
0.770138 0.0817426 0.848783
0.91046 0.0875105 0.851957
1 0.0958724 0.861173
0 0.233967 0.838041
0 0.23061 0.850385
3.0518e-05 0.226246 0.866499
0.174395 0.2159 0.88423
0.393866 0.200107 0.894286
0.607172 0.194675 0.880354
0.798764 0.201419 0.872038
0.94728 0.213748 0.881163
1 0.227359 0.895582
0 0.339605 0.820996
0 0.342275 0.829969
0.0107118 0.343709 0.844297
0.177813 0.339132 0.86389
0.386206 0.327825 0.886259
0.609003 0.324849 0.892332
0.819959 0.338857 0.889647
0.973739 0.355184 0.901701
1 0.370489 0.917617
0 0.472068 0.82623
0 0.480446 0.830686
0.0521401 0.485985 0.834516
0.194522 0.482521 0.837995
0.378027 0.473976 0.855604
0.581979 0.469596 0.88278
0.816342 0.485496 0.888701
0.978607 0.507469 0.904311
1 0.528298 0.925612
0 0.619638 0.845701
0.00370794 0.629419 0.853925
0.130175 0.637858 0.859937
0.269184 0.638697 0.856443
0.411048 0.631785 0.845853
0.580392 0.631968 0.866133
0.809598 0.638758 0.891783
0.97734 0.657954 0.901869
1 0.675456 0.920195
0 0.764996 0.86305
0.0511177 0.77789 0.876188
0.187472 0.789654 0.88809
0.337072 0.794476 0.892989
0.484367 0.79028 0.888167
0.636866 0.78233 0.876707
0.796506 0.779614 0.880995
0.963943 0.783841 0.889616
1 0.796109 0.9028
0 0.902281 0.892332
0.0944076 0.910719 0.90132
0.223621 0.916503 0.907698
0.364736 0.915938 0.907973
0.50927 0.908415 0.901549
0.672938 0.899275 0.893584
0.831617 0.892515 0.887861
0.962646 0.891417 0.887541
1 0.901991 0.898482
0 1 0.905623
0.115419 1 0.909987
0.240085 1 0.913252
0.377264 1 0.911345
0.519585 1 0.903517
0.690867 0.99881 0.895949
0.869368 0.983368 0.905852
0.975692 0.984466 0.946288
1 1 1
0 0.0603647 0.798245
0 0.0551003 0.970642
0 0.0447395 1
0.163714 0.027451 1
0.384817 0.00358587 1
0.575891 0 0.970321
0.751415 0 0.946151
0.888243 0 0.939483
1 0 0.940658
0 0.148623 0.958877
0 0.142229 0.972717
0 0.134356 0.987701
0.150301 0.119738 1
0.371939 0.0981308 1
0.575067 0.0829023 0.976577
0.762585 0.0801862 0.956512
0.90779 0.0866865 0.95494
1 0.0958572 0.962142
0 0.238865 0.939498
0 0.235752 0.953002
0 0.231724 0.969711
0.150378 0.222034 0.988357
0.369314 0.205859 1
0.584161 0.195392 0.994079
0.790005 0.200092 0.980972
0.944595 0.213031 0.984588
1 0.227054 0.99649
0 0.346212 0.920226
0 0.349126 0.932097
0 0.350912 0.948516
0.156619 0.346731 0.969131
0.365286 0.335286 0.992157
0.580179 0.32668 1
0.805508 0.335363 0.998154
0.96791 0.352087 1
1 0.367956 1
0 0.478996 0.91902
0 0.486976 0.924834
0.0205844 0.492439 0.932204
0.169177 0.48954 0.940688
0.354467 0.477394 0.956725
0.548257 0.467323 0.980941
0.787228 0.476417 0.993286
0.96788 0.500862 1
1 0.522423 1
0 0.624308 0.939773
0 0.633097 0.945617
0.0941482 0.640818 0.949325
0.229206 0.640345 0.944274
0.37615 0.62797 0.934981
0.543297 0.622705 0.954772
0.760906 0.626261 0.986587
0.958343 0.646494 0.998611
1 0.665049 1
0 0.769802 0.963653
0.0365606 0.782055 0.975372
0.168902 0.792386 0.984802
0.31342 0.794507 0.985153
0.450431 0.783749 0.970275
0.581109 0.768841 0.950774
0.751522 0.766522 0.965881
0.933928 0.771557 0.98819
1 0.785565 0.993545
0 0.906004 0.995987
0.0858015 0.913558 1
0.213901 0.918593 1
0.354269 0.917174 1
0.49633 0.907942 0.999344
0.651987 0.896376 0.987015
0.79733 0.887144 0.973709
0.928908 0.887617 0.981598
1 0.896956 0.983948
0 1 1
0.107286 1 1
0.231907 1 1
0.369329 1 1
0.511772 1 1
0.691325 0.998779 0.991684
0.874235 0.984222 0.979828
0.980621 0.988846 0.987366
1 1 1
