luts/stills/KA CineTeal.cube
TITLE "Generated by Resolve"
LUT_3D_SIZE 5
0 0.024033 0.0293889
0.188769 0.0375525 0.0529488
0.480354 0.0232395 0.040238
0.792844 0.00331121 0.0213931
1 0.00115969 0.0193637
0 0.217197 0.0568551
0.274556 0.205829 0.0713664
0.530404 0.210376 0.0815747
0.842481 0.210513 0.0626688
1 0.227527 0.0735637
0 0.446082 0.0364385
0.247166 0.466423 0.0347906
0.680629 0.458137 0.108461
1 0.461051 0.165774
1 0.495552 0.175128
0 0.732219 0.0498054
0.251484 0.758053 0.0548104
0.705409 0.764874 0.0621195
1 0.744366 0.160998
1 0.745846 0.230259
0.0531624 1 0.116381
0.316884 1 0.110369
0.706554 1 0.0772564
1 0.970077 0.464164
1 1 1
0 0.0354925 0.126421
0.191562 0.0345922 0.228077
0.479088 0.0216526 0.2206
0.794491 0.00280766 0.205539
1 0.00106813 0.206027
0 0.221439 0.226246
0.194507 0.223346 0.229297
0.491051 0.222187 0.228199
0.830594 0.22327 0.229221
1 0.240513 0.245548
0 0.454566 0.207309
0.20061 0.476982 0.231739
0.602945 0.476265 0.267048
0.941878 0.499168 0.308248
1 0.531395 0.315572
0 0.74168 0.223117
0.229801 0.769253 0.251713
0.609262 0.785565 0.241215
1 0.77145 0.32961
1 0.772671 0.393805
0.0567178 1 0.287648
0.293629 1 0.300771
0.614771 1 0.266178
1 0.984009 0.665095
1 1 1
0 0.0424353 0.299092
0.12932 0.0304875 0.507744
0.465339 0.0106661 0.470069
0.781186 0 0.456367
1 0 0.459449
0 0.222766 0.45919
0.113024 0.221607 0.480522
0.478096 0.211139 0.48101
0.8262 0.219516 0.492531
1 0.240665 0.516106
0 0.462867 0.459602
0.184787 0.485206 0.483299
0.492302 0.492119 0.492119
0.857145 0.514366 0.514305
1 0.550942 0.550713
0 0.751278 0.467887
0.224979 0.776593 0.499352
0.51873 0.785397 0.514595
0.984558 0.783185 0.553552
1 0.80502 0.61033
0.0411383 1 0.530571
0.284718 1 0.544701
0.548836 1 0.540749
0.986877 0.991119 0.749798
1 1 1
0 0.0508583 0.549157
0.0383917 0.0364843 0.798108
0.432502 6.10361e-05 0.770672
0.763577 0 0.731655
1 0 0.735271
0 0.229191 0.731167
0.0260319 0.221027 0.757366
0.421424 0.196277 0.778775
0.803769 0.203632 0.762768
1 0.229252 0.790112
0 0.466529 0.729335
0.0920577 0.481437 0.736294
0.409567 0.478935 0.756405
0.831434 0.494148 0.782925
1 0.537606 0.827405
0 0.760098 0.752514
0.196979 0.785855 0.779293
0.500511 0.790768 0.786007
0.830686 0.782254 0.779614
1 0.804883 0.801984
0.00334173 1 0.798459
0.251164 1 0.807309
0.530861 1 0.800397
0.863691 0.983963 0.817533
1 1 1
0 0.0603647 0.798245
0 0.0447395 1
0.384817 0.00358587 1
0.751415 0 0.946151
1 0 0.940658
0 0.238865 0.939498
0 0.231724 0.969711
0.369314 0.205859 1
0.790005 0.200092 0.980972
1 0.227054 0.99649
0 0.478996 0.91902
0.0205844 0.492439 0.932204
0.354467 0.477394 0.956725
0.787228 0.476417 0.993286
1 0.522423 1
0 0.769802 0.963653
0.168902 0.792386 0.984802
0.450431 0.783749 0.970275
0.751522 0.766522 0.965881
1 0.785565 0.993545
0 1 1
0.231907 1 1
0.511772 1 1
0.874235 0.984222 0.979828
1 1 1
