luts/stills/KA JFilm.cube
TITLE "KA JFilm - converted with Color.io - Created with Color.io"
LUT_3D_SIZE 9
DOMAIN_MIN 0.0 0.0 0.0
DOMAIN_MAX 1.0 1.0 1.0
0.070300 0.070300 0.070300
0.071133 0.070300 0.070328
0.152450 0.070350 0.074200
0.287875 0.070400 0.080275
0.476294 0.070400 0.083846
0.671275 0.079550 0.090525
0.836200 0.101350 0.104150
0.941142 0.131978 0.129911
0.993800 0.171300 0.160200
0.070300 0.071411 0.071411
0.080667 0.084774 0.071053
0.159342 0.104204 0.070400
0.294467 0.109415 0.071819
0.477214 0.114915 0.079273
0.670255 0.122837 0.088747
0.835172 0.137460 0.104075
0.940541 0.164298 0.130889
0.993572 0.202350 0.161203
0.076950 0.112050 0.112450
0.094025 0.115480 0.118008
0.137250 0.149459 0.097602
0.281075 0.170912 0.077725
0.469540 0.188270 0.075388
0.664991 0.198386 0.086036
0.831985 0.213835 0.104020
0.939099 0.241164 0.132748
0.993000 0.278600 0.163300
0.104250 0.162650 0.162625
0.118422 0.165087 0.167311
0.143044 0.181450 0.179644
0.229749 0.246027 0.127512
0.447159 0.272265 0.091853
0.654140 0.313098 0.080060
0.826141 0.336841 0.100193
0.936407 0.364937 0.133818
0.991975 0.399375 0.165500
0.139094 0.236102 0.233089
0.152427 0.238235 0.237509
0.183905 0.244993 0.248362
0.220299 0.295588 0.264480
0.372466 0.383331 0.157439
0.631346 0.407596 0.099181
0.813550 0.466870 0.106043
0.932651 0.513410 0.132604
0.990713 0.546840 0.165260
0.187525 0.336275 0.327475
0.201349 0.338125 0.331458
0.236170 0.342909 0.340959
0.290136 0.357110 0.357920
0.335879 0.452135 0.362302
0.538845 0.545786 0.191800
0.796563 0.564869 0.124356
0.925761 0.632046 0.153088
0.989125 0.688700 0.170000
0.253200 0.458800 0.443200
0.267506 0.460253 0.446736
0.303065 0.463815 0.455100
0.359977 0.472200 0.469750
0.418936 0.512382 0.493569
0.479387 0.632244 0.476606
0.708569 0.717565 0.269690
0.923942 0.729263 0.152132
0.988700 0.788950 0.187200
0.340019 0.597100 0.577603
0.354223 0.598458 0.580859
0.389342 0.601953 0.588745
0.446089 0.609265 0.602521
0.518652 0.623296 0.622353
0.568987 0.694916 0.647988
0.646201 0.810864 0.598519
0.865722 0.873490 0.340196
0.994211 0.875192 0.140725
0.448600 0.741200 0.719300
0.461431 0.742753 0.722108
0.493200 0.746450 0.728950
0.546300 0.753100 0.740575
0.615040 0.764967 0.757454
0.685700 0.791250 0.779600
0.726650 0.870650 0.791800
0.814903 0.943439 0.714003
0.966900 0.970900 0.432800
0.070300 0.070300 0.070300
0.084632 0.070300 0.086696
0.161059 0.070400 0.112121
0.296818 0.070400 0.122972
0.484216 0.070580 0.127784
0.676360 0.082354 0.133314
0.839093 0.104773 0.143864
0.942167 0.135583 0.166167
0.994550 0.172758 0.192483
0.070300 0.086591 0.087639
0.094545 0.102865 0.109288
0.176763 0.105098 0.113374
0.310600 0.108633 0.118735
0.490921 0.113407 0.123627
0.680158 0.121246 0.129067
0.841072 0.135942 0.139492
0.943009 0.163078 0.162381
0.994803 0.200608 0.189936
0.074371 0.128265 0.123823
0.101504 0.131257 0.132054
0.150567 0.163256 0.125260
0.298460 0.179883 0.115141
0.483085 0.189215 0.119426
0.675085 0.198122 0.126047
0.837853 0.213310 0.138762
0.941456 0.240700 0.163681
0.994128 0.277542 0.191869
0.105647 0.176246 0.172651
0.122794 0.178458 0.178225
0.156685 0.190062 0.192845
0.244006 0.258515 0.149361
0.461049 0.283479 0.122528
0.664004 0.317932 0.119824
0.831441 0.338245 0.135718
0.938826 0.365385 0.163693
0.993104 0.399478 0.193819
0.141480 0.249490 0.242926
0.156460 0.251266 0.247665
0.191607 0.258006 0.259618
0.236407 0.301191 0.279786
0.385127 0.393194 0.177671
0.640144 0.417551 0.128499
0.819080 0.474434 0.135842
0.935096 0.516252 0.160453
0.991715 0.547842 0.193232
0.190531 0.348545 0.336444
0.205552 0.350050 0.340511
0.242339 0.354771 0.350522
0.301018 0.366522 0.367839
0.349855 0.456224 0.378396
0.547486 0.552741 0.212185
0.800794 0.572767 0.151862
0.928168 0.637960 0.177195
0.990075 0.691856 0.195701
0.256328 0.469423 0.451095
0.271264 0.470631 0.454650
0.307519 0.474193 0.463335
0.366700 0.482178 0.478262
0.431172 0.516369 0.502377
0.489867 0.635344 0.491951
0.714325 0.722308 0.288575
0.925788 0.734369 0.175771
0.989150 0.792881 0.215850
0.343486 0.605715 0.584262
0.358133 0.606971 0.587546
0.393311 0.610515 0.595649
0.451628 0.617356 0.609276
0.525220 0.631108 0.629175
0.579120 0.697237 0.655653
0.653331 0.812777 0.611375
0.868602 0.875768 0.358051
0.994475 0.877696 0.170527
0.451608 0.747889 0.724436
0.464779 0.749250 0.727217
0.496367 0.753037 0.734112
0.550358 0.759367 0.745586
0.619694 0.770843 0.762338
0.693656 0.793343 0.784086
0.734417 0.871398 0.798021
0.818919 0.944089 0.724388
0.967675 0.971550 0.451444
0.070300 0.076600 0.128550
0.095545 0.070355 0.153799
0.166690 0.070400 0.178899
0.304700 0.070400 0.200319
0.492108 0.070672 0.209925
0.683630 0.086370 0.217716
0.843580 0.110585 0.229700
0.943623 0.143078 0.252084
0.995350 0.180100 0.276100
0.070397 0.105161 0.143844
0.084549 0.101720 0.179029
0.175447 0.104175 0.193579
0.318051 0.109323 0.204249
0.500833 0.115317 0.210045
0.689466 0.125294 0.216628
0.846171 0.141919 0.227517
0.944792 0.171395 0.249987
0.996020 0.207449 0.273405
0.070400 0.160319 0.164799
0.085147 0.174602 0.182458
0.179099 0.190831 0.206443
0.329409 0.190817 0.205729
0.512707 0.192658 0.206195
0.697305 0.198976 0.209676
0.850887 0.213347 0.220351
0.947022 0.240104 0.241706
0.997020 0.275373 0.265343
0.088294 0.228087 0.199737
0.120574 0.229310 0.209533
0.187063 0.237943 0.235381
0.289660 0.296812 0.218904
0.496245 0.312055 0.194422
0.686076 0.326051 0.199580
0.843992 0.341816 0.215524
0.944569 0.366796 0.239201
0.995781 0.399806 0.266400
0.142555 0.290342 0.269453
0.162191 0.291539 0.275640
0.210412 0.297234 0.291263
0.283226 0.322756 0.318874
0.420733 0.422004 0.236718
0.662358 0.443947 0.196953
0.832087 0.490813 0.207549
0.940635 0.521016 0.233057
0.994189 0.550211 0.264867
0.195527 0.382707 0.360059
0.212905 0.383975 0.364718
0.256635 0.387464 0.376043
0.325821 0.398562 0.395710
0.388395 0.468527 0.418580
0.570717 0.571826 0.267943
0.812223 0.593095 0.218687
0.933968 0.652945 0.239513
0.992325 0.698655 0.261975
0.261461 0.498146 0.471630
0.278402 0.498806 0.475291
0.318668 0.501311 0.484454
0.383676 0.508362 0.500319
0.461394 0.529419 0.524864
0.518272 0.643412 0.530458
0.729318 0.734655 0.337426
0.930323 0.747515 0.237138
0.990800 0.802365 0.280185
0.350855 0.628291 0.601290
0.366674 0.629216 0.604571
0.404104 0.632031 0.612715
0.464869 0.638390 0.626512
0.541187 0.651297 0.646687
0.604651 0.703761 0.674232
0.672196 0.817364 0.642925
0.875860 0.881392 0.402660
0.995096 0.884025 0.244365
0.458350 0.764800 0.737250
0.472078 0.765928 0.739931
0.505180 0.769160 0.746710
0.559837 0.775231 0.758175
0.631449 0.785490 0.774511
0.709874 0.803045 0.795309
0.753580 0.873396 0.812809
0.829181 0.945572 0.750313
0.969700 0.972950 0.496950
0.070400 0.091900 0.232700
0.090458 0.070427 0.275148
0.169594 0.070400 0.292550
0.305213 0.070400 0.321887
0.499671 0.070710 0.345514
0.689182 0.088895 0.355025
0.846514 0.116020 0.367605
0.945026 0.153412 0.388823
0.996425 0.191950 0.408875
0.070400 0.119349 0.243912
0.075784 0.105647 0.297072
0.169749 0.101706 0.315335
0.314975 0.107042 0.332935
0.507167 0.115213 0.348900
0.694411 0.127066 0.356178
0.849585 0.147899 0.368308
0.946763 0.181261 0.388237
0.997003 0.219539 0.407372
0.070400 0.178137 0.264444
0.072744 0.182038 0.299906
0.165436 0.181623 0.335412
0.327986 0.186438 0.346258
0.520487 0.194121 0.353670
0.705269 0.204124 0.357806
0.856186 0.223779 0.369424
0.950114 0.251729 0.385126
0.998431 0.287731 0.402462
0.070400 0.279849 0.288249
0.089488 0.293335 0.303830
0.173744 0.315706 0.329602
0.339269 0.335197 0.357870
0.533658 0.334998 0.353946
0.716004 0.338581 0.354427
0.862144 0.350896 0.362869
0.953326 0.369818 0.373609
0.999849 0.401429 0.391967
0.096720 0.395839 0.313702
0.132100 0.396124 0.323325
0.211619 0.396421 0.348905
0.352426 0.406823 0.394173
0.491036 0.479244 0.369895
0.699217 0.491776 0.336062
0.852116 0.510075 0.346243
0.949264 0.528250 0.364487
0.998218 0.554488 0.387678
0.188383 0.456657 0.403057
0.211675 0.456635 0.409136
0.270223 0.457734 0.424235
0.365856 0.465442 0.450548
0.467043 0.500234 0.487442
0.617000 0.611578 0.382097
0.834051 0.630821 0.341160
0.943515 0.677807 0.353829
0.996100 0.708656 0.378572
0.263602 0.553787 0.508693
0.283901 0.553863 0.512977
0.332307 0.554806 0.523582
0.410356 0.559756 0.542196
0.504877 0.574937 0.569319
0.574667 0.660607 0.594798
0.757727 0.757985 0.426858
0.938017 0.771093 0.349478
0.993975 0.818568 0.386000
0.360724 0.669829 0.631386
0.377847 0.670513 0.634807
0.418884 0.672634 0.643224
0.485347 0.677421 0.657653
0.568539 0.688421 0.678104
0.649754 0.718528 0.704970
0.707492 0.826146 0.695581
0.888808 0.891443 0.480709
0.996278 0.894965 0.369198
0.466025 0.795350 0.759625
0.480888 0.796201 0.762254
0.517425 0.798237 0.768700
0.575512 0.802888 0.779887
0.651115 0.811277 0.795459
0.733020 0.825357 0.815155
0.786330 0.877792 0.836163
0.847672 0.948086 0.792254
0.973350 0.975725 0.566875
0.070400 0.105573 0.390516
0.078647 0.070838 0.446177
0.169895 0.070400 0.456028
0.308543 0.070400 0.474030
0.496534 0.070656 0.502546
0.693478 0.093406 0.523177
0.849477 0.124363 0.536966
0.946961 0.158906 0.550794
0.996800 0.202940 0.565827
0.070400 0.132104 0.398780
0.072882 0.112943 0.453512
0.165105 0.102052 0.477878
0.313192 0.103721 0.488685
0.502704 0.113273 0.508101
0.698200 0.129950 0.526275
0.851997 0.155338 0.538766
0.948385 0.187081 0.551467
0.997478 0.231338 0.565925
0.070400 0.193596 0.414780
0.070973 0.187131 0.457489
0.158156 0.178470 0.493872
0.317917 0.178350 0.505997
0.514808 0.189364 0.518491
0.708303 0.206735 0.533020
0.857634 0.230780 0.542394
0.951418 0.259532 0.552668
0.999063 0.301868 0.565723
0.070400 0.301477 0.438123
0.072901 0.308425 0.464826
0.155800 0.317470 0.494296
0.318000 0.318669 0.528515
0.531581 0.328090 0.532554
0.719999 0.343278 0.540595
0.866300 0.360574 0.545708
0.955701 0.383761 0.552817
1.000000 0.421784 0.564689
0.070973 0.446933 0.455253
0.108635 0.454207 0.463360
0.183150 0.471145 0.481992
0.330226 0.501080 0.515556
0.540482 0.521528 0.545084
0.728610 0.523821 0.542693
0.874308 0.528369 0.541128
0.959149 0.540235 0.543346
1.000000 0.567669 0.556826
0.107474 0.591429 0.462994
0.137837 0.594732 0.468357
0.215542 0.596437 0.487192
0.364024 0.594359 0.527196
0.551452 0.602051 0.584233
0.689852 0.674574 0.558482
0.863389 0.684372 0.519268
0.954366 0.700946 0.523562
0.999973 0.719352 0.540961
0.235639 0.649905 0.562127
0.261838 0.649210 0.567671
0.326677 0.647581 0.581518
0.431474 0.647581 0.605133
0.558888 0.657190 0.638498
0.667739 0.696591 0.677508
0.802831 0.795432 0.563762
0.948370 0.805745 0.510947
0.998402 0.841083 0.530583
0.358753 0.736237 0.674837
0.378779 0.736370 0.678581
0.426314 0.737365 0.687772
0.504986 0.739406 0.703224
0.603540 0.746194 0.724602
0.703900 0.762157 0.750598
0.765230 0.839603 0.765565
0.907456 0.906168 0.593209
0.999048 0.910437 0.519794
0.471552 0.839394 0.790867
0.488420 0.839775 0.793507
0.528577 0.840899 0.799906
0.592286 0.843957 0.810784
0.675554 0.849021 0.825567
0.762933 0.859159 0.843822
0.831381 0.887182 0.864972
0.875356 0.951388 0.846260
0.978600 0.979713 0.660521
0.070400 0.115875 0.577525
0.074958 0.078156 0.626361
0.169782 0.070400 0.637089
0.311745 0.070400 0.647060
0.499335 0.070757 0.664550
0.689788 0.097200 0.685325
0.849419 0.134525 0.703612
0.948954 0.170272 0.716697
0.997350 0.218975 0.725025
0.070400 0.142694 0.582997
0.071503 0.119205 0.630092
0.163077 0.104121 0.653174
0.311746 0.102713 0.661052
0.503298 0.111868 0.670226
0.693305 0.131553 0.688808
0.851978 0.164247 0.706079
0.950074 0.198709 0.717884
0.997975 0.247079 0.725588
0.070400 0.206616 0.594055
0.070440 0.193208 0.633525
0.155608 0.179416 0.665186
0.310586 0.176132 0.675568
0.510368 0.184579 0.681348
0.701087 0.205329 0.696714
0.858280 0.236896 0.711783
0.952557 0.270802 0.720365
0.999325 0.316330 0.726691
0.070400 0.321893 0.607507
0.070400 0.319760 0.636606
0.152184 0.315533 0.666022
0.302228 0.307711 0.693534
0.517375 0.314707 0.699344
0.712258 0.337454 0.708247
0.867693 0.363892 0.719346
0.956315 0.392508 0.723170
1.000000 0.434705 0.726777
0.070400 0.468917 0.628105
0.088232 0.474873 0.642632
0.166404 0.484451 0.660067
0.299160 0.499188 0.690043
0.515005 0.504197 0.720029
0.726276 0.516744 0.720964
0.876780 0.533337 0.724380
0.960465 0.550892 0.723886
1.000000 0.585252 0.726957
0.099897 0.627487 0.633413
0.130485 0.631904 0.638288
0.198973 0.643125 0.650755
0.330713 0.663708 0.673171
0.524746 0.694414 0.705980
0.734328 0.711763 0.727798
0.882935 0.713494 0.721746
0.963710 0.718258 0.717433
1.000000 0.736663 0.723282
0.142863 0.769156 0.637100
0.168067 0.772331 0.640114
0.237647 0.777418 0.650646
0.362946 0.785767 0.670702
0.557380 0.783138 0.713171
0.749613 0.786999 0.762887
0.857927 0.842233 0.734353
0.959570 0.847162 0.697000
1.000000 0.862894 0.699819
0.300709 0.831513 0.725206
0.326945 0.830987 0.729488
0.390598 0.829678 0.740055
0.494181 0.827824 0.757777
0.624933 0.827283 0.781709
0.755637 0.833679 0.809733
0.844388 0.862780 0.837351
0.931080 0.925390 0.732831
1.000000 0.929789 0.692478
0.454125 0.895775 0.828275
0.474197 0.895660 0.830845
0.522370 0.895445 0.837250
0.599033 0.895657 0.847827
0.695741 0.896883 0.862070
0.794761 0.901276 0.878825
0.875781 0.911331 0.896869
0.911958 0.955350 0.901583
0.985000 0.984625 0.770350
0.070400 0.123250 0.760000
0.072761 0.084063 0.795287
0.169500 0.070400 0.804680
0.315016 0.070400 0.809634
0.502434 0.072097 0.818552
0.690400 0.104875 0.827750
0.847510 0.141380 0.841130
0.948525 0.183426 0.852503
0.997900 0.241850 0.859500
0.070400 0.151013 0.763076
0.071445 0.124596 0.796622
0.163520 0.108533 0.812972
0.312506 0.107103 0.817707
0.503541 0.113778 0.822755
0.692835 0.136406 0.830418
0.849711 0.169359 0.843156
0.949602 0.211543 0.853775
0.998450 0.269464 0.860200
0.070400 0.218220 0.769496
0.070726 0.199772 0.798868
0.155690 0.183425 0.820951
0.307714 0.179155 0.828052
0.504854 0.185060 0.831938
0.698186 0.207134 0.836623
0.854837 0.239795 0.847861
0.952075 0.282442 0.856739
0.999700 0.336950 0.861700
0.070400 0.336675 0.777680
0.070400 0.328241 0.801007
0.152740 0.319340 0.821501
0.294394 0.307314 0.840782
0.502747 0.310935 0.845374
0.705904 0.332463 0.846070
0.862615 0.362726 0.854564
0.955869 0.401486 0.860909
1.000000 0.452909 0.861595
0.070311 0.492948 0.786104
0.070311 0.494449 0.802511
0.147297 0.496077 0.820295
0.286579 0.494951 0.838887
0.492766 0.490893 0.857985
0.713568 0.502744 0.859292
0.872000 0.527239 0.861722
0.960292 0.556741 0.864767
1.000000 0.598245 0.861213
0.083819 0.651756 0.798475
0.122047 0.654663 0.802107
0.192264 0.662179 0.811374
0.314544 0.675528 0.828718
0.492100 0.692587 0.852776
0.714021 0.697380 0.871285
0.881576 0.708014 0.867087
0.964271 0.723043 0.866119
1.000000 0.748050 0.861731
0.152568 0.794940 0.796980
0.177720 0.797731 0.799869
0.242760 0.804777 0.807081
0.360552 0.817111 0.819594
0.528680 0.835018 0.837264
0.723949 0.855925 0.857358
0.886279 0.865358 0.867660
0.966495 0.866643 0.862019
1.000000 0.874640 0.861065
0.197326 0.906282 0.803226
0.221904 0.907855 0.804924
0.284373 0.911648 0.809120
0.393733 0.917801 0.816658
0.553445 0.922742 0.831816
0.750847 0.918302 0.862559
0.897915 0.916335 0.894100
0.954710 0.945668 0.870507
1.000000 0.948965 0.845177
0.366800 0.952500 0.863400
0.393423 0.952175 0.866181
0.456318 0.951250 0.872885
0.556189 0.949889 0.883716
0.682438 0.947812 0.898163
0.809025 0.946063 0.914200
0.905439 0.947421 0.929820
0.950753 0.961080 0.943464
0.992150 0.990300 0.878100
0.070400 0.130858 0.901328
0.072818 0.093836 0.919434
0.169450 0.078188 0.924925
0.316242 0.078600 0.927085
0.502827 0.090439 0.929570
0.693239 0.120521 0.930582
0.849487 0.153707 0.935660
0.948008 0.199493 0.941138
0.997353 0.265536 0.944667
0.070400 0.159785 0.902526
0.072468 0.132399 0.919792
0.164844 0.117799 0.927577
0.313626 0.118191 0.929516
0.502556 0.125322 0.931562
0.694611 0.149136 0.932154
0.851193 0.180592 0.936790
0.948903 0.226853 0.941861
0.997875 0.292301 0.945145
0.070397 0.230768 0.905106
0.071813 0.209502 0.920664
0.156780 0.193014 0.931114
0.305466 0.188483 0.934925
0.501247 0.195897 0.935945
0.697518 0.216206 0.936313
0.855227 0.248742 0.939377
0.951022 0.295029 0.943632
0.999050 0.357309 0.946267
0.070300 0.353032 0.908428
0.070324 0.340629 0.921475
0.153704 0.329994 0.931364
0.290883 0.316578 0.940807
0.496838 0.320982 0.941915
0.700820 0.335416 0.942503
0.861466 0.366266 0.943217
0.954318 0.408786 0.946210
1.000000 0.467378 0.946919
0.070300 0.512494 0.911474
0.072874 0.509139 0.921352
0.157101 0.506353 0.929347
0.292188 0.501659 0.938312
0.483963 0.491412 0.948786
0.701797 0.499037 0.949459
0.868660 0.522903 0.947734
0.958262 0.557494 0.948955
1.000000 0.610597 0.946492
0.072352 0.676054 0.917985
0.104478 0.678228 0.921447
0.172804 0.682855 0.927078
0.293850 0.688409 0.936081
0.480562 0.688944 0.946578
0.695392 0.685268 0.955205
0.874342 0.696701 0.952745
0.962339 0.719395 0.951290
1.000000 0.757442 0.946365
0.148022 0.817574 0.917755
0.173379 0.819507 0.919527
0.237884 0.824316 0.923736
0.352771 0.832436 0.930725
0.512395 0.843375 0.939852
0.696172 0.855095 0.950255
0.873865 0.856552 0.956490
0.965800 0.863466 0.952316
1.000000 0.880015 0.947286
0.217471 0.921252 0.918327
0.242840 0.922353 0.919491
0.306018 0.925245 0.922268
0.413741 0.930040 0.927013
0.560298 0.936548 0.933259
0.727651 0.944404 0.940697
0.879032 0.952358 0.947988
0.966634 0.955396 0.951598
1.000000 0.956710 0.948148
0.272200 0.980747 0.924097
0.300714 0.981028 0.924670
0.369097 0.981823 0.926067
0.468851 0.983825 0.928706
0.597167 0.986884 0.932321
0.749628 0.988500 0.939706
0.897995 0.983786 0.954927
0.971797 0.980337 0.968900
0.999264 0.996156 0.955753
0.070300 0.145200 0.976500
0.074133 0.113903 0.983803
0.170600 0.104500 0.985950
0.320975 0.112675 0.985850
0.508027 0.124081 0.986213
0.697150 0.140000 0.987225
0.854650 0.172250 0.987700
0.949408 0.223775 0.989200
0.997900 0.285000 0.991100
0.070300 0.175094 0.976825
0.073918 0.148414 0.983836
0.165451 0.135426 0.987155
0.319346 0.144187 0.986551
0.507249 0.151566 0.987301
0.697866 0.166586 0.988100
0.855850 0.198466 0.988325
0.950203 0.250295 0.989650
0.998028 0.314867 0.991200
0.070300 0.249000 0.977650
0.075032 0.227379 0.984014
0.164770 0.216070 0.987350
0.312187 0.212900 0.989050
0.504638 0.218317 0.989748
0.699186 0.233050 0.990200
0.858585 0.264765 0.989915
0.951858 0.315648 0.990675
0.998550 0.383650 0.991500
0.070300 0.372650 0.978925
0.085177 0.361104 0.983610
0.168850 0.353300 0.986881
0.299663 0.337737 0.992050
0.497853 0.337072 0.993537
0.699945 0.349655 0.993450
0.862370 0.377614 0.992475
0.954645 0.423720 0.992265
0.999975 0.485025 0.992400
0.070300 0.530994 0.980487
0.087824 0.526087 0.984117
0.170493 0.522640 0.987050
0.300964 0.515223 0.991662
0.484514 0.501719 0.997285
0.697640 0.507322 0.997357
0.865809 0.527615 0.995789
0.957976 0.564826 0.994187
1.000000 0.622154 0.991813
0.070300 0.699450 0.981775
0.096074 0.699125 0.984250
0.176005 0.699191 0.986625
0.304957 0.697890 0.990725
0.485456 0.693524 0.995875
0.689651 0.686964 1.000000
0.867094 0.694744 0.999238
0.961181 0.718696 0.996132
1.000000 0.763775 0.991175
0.128450 0.838900 0.982750
0.159887 0.840000 0.983203
0.228485 0.842885 0.984850
0.340273 0.847775 0.988305
0.496037 0.853158 0.993013
0.686787 0.853300 0.998250
0.863660 0.851491 1.000000
0.962990 0.857908 0.998235
1.000000 0.883150 0.990950
0.211914 0.934831 0.982206
0.242151 0.935334 0.982528
0.315968 0.936781 0.983350
0.422734 0.939810 0.985653
0.561721 0.944045 0.989001
0.718018 0.948783 0.993051
0.861550 0.953002 0.997500
0.960845 0.952110 0.999885
1.000000 0.957825 0.991981
0.285800 0.987900 0.983700
0.314692 0.988125 0.984025
0.383800 0.988700 0.984600
0.493925 0.989825 0.985625
0.628394 0.991500 0.987300
0.761825 0.994275 0.989950
0.882500 0.997150 0.992750
0.960819 0.999569 0.995722
1.000000 0.998700 0.996500
