luts/stills/KA JFilm.cube
TITLE "KA JFilm - converted with Color.io - Created with Color.io"
LUT_3D_SIZE 5
DOMAIN_MIN 0.0 0.0 0.0
DOMAIN_MAX 1.0 1.0 1.0
0.070300 0.070300 0.070300
0.152450 0.070350 0.074200
0.476294 0.070400 0.083846
0.836200 0.101350 0.104150
0.993800 0.171300 0.160200
0.076950 0.112050 0.112450
0.137250 0.149459 0.097602
0.469540 0.188270 0.075388
0.831985 0.213835 0.104020
0.993000 0.278600 0.163300
0.139094 0.236102 0.233089
0.183905 0.244993 0.248362
0.372466 0.383331 0.157439
0.813550 0.466870 0.106043
0.990713 0.546840 0.165260
0.253200 0.458800 0.443200
0.303065 0.463815 0.455100
0.418936 0.512382 0.493569
0.708569 0.717565 0.269690
0.988700 0.788950 0.187200
0.448600 0.741200 0.719300
0.493200 0.746450 0.728950
0.615040 0.764967 0.757454
0.726650 0.870650 0.791800
0.966900 0.970900 0.432800
0.070300 0.076600 0.128550
0.166690 0.070400 0.178899
0.492108 0.070672 0.209925
0.843580 0.110585 0.229700
0.995350 0.180100 0.276100
0.070400 0.160319 0.164799
0.179099 0.190831 0.206443
0.512707 0.192658 0.206195
0.850887 0.213347 0.220351
0.997020 0.275373 0.265343
0.142555 0.290342 0.269453
0.210412 0.297234 0.291263
0.420733 0.422004 0.236718
0.832087 0.490813 0.207549
0.994189 0.550211 0.264867
0.261461 0.498146 0.471630
0.318668 0.501311 0.484454
0.461394 0.529419 0.524864
0.729318 0.734655 0.337426
0.990800 0.802365 0.280185
0.458350 0.764800 0.737250
0.505180 0.769160 0.746710
0.631449 0.785490 0.774511
0.753580 0.873396 0.812809
0.969700 0.972950 0.496950
0.070400 0.105573 0.390516
0.169895 0.070400 0.456028
0.496534 0.070656 0.502546
0.849477 0.124363 0.536966
0.996800 0.202940 0.565827
0.070400 0.193596 0.414780
0.158156 0.178470 0.493872
0.514808 0.189364 0.518491
0.857634 0.230780 0.542394
0.999063 0.301868 0.565723
0.070973 0.446933 0.455253
0.183150 0.471145 0.481992
0.540482 0.521528 0.545084
0.874308 0.528369 0.541128
1.000000 0.567669 0.556826
0.235639 0.649905 0.562127
0.326677 0.647581 0.581518
0.558888 0.657190 0.638498
0.802831 0.795432 0.563762
0.998402 0.841083 0.530583
0.471552 0.839394 0.790867
0.528577 0.840899 0.799906
0.675554 0.849021 0.825567
0.831381 0.887182 0.864972
0.978600 0.979713 0.660521
0.070400 0.123250 0.760000
0.169500 0.070400 0.804680
0.502434 0.072097 0.818552
0.847510 0.141380 0.841130
0.997900 0.241850 0.859500
0.070400 0.218220 0.769496
0.155690 0.183425 0.820951
0.504854 0.185060 0.831938
0.854837 0.239795 0.847861
0.999700 0.336950 0.861700
0.070311 0.492948 0.786104
0.147297 0.496077 0.820295
0.492766 0.490893 0.857985
0.872000 0.527239 0.861722
1.000000 0.598245 0.861213
0.152568 0.794940 0.796980
0.242760 0.804777 0.807081
0.528680 0.835018 0.837264
0.886279 0.865358 0.867660
1.000000 0.874640 0.861065
0.366800 0.952500 0.863400
0.456318 0.951250 0.872885
0.682438 0.947812 0.898163
0.905439 0.947421 0.929820
0.992150 0.990300 0.878100
0.070300 0.145200 0.976500
0.170600 0.104500 0.985950
0.508027 0.124081 0.986213
0.854650 0.172250 0.987700
0.997900 0.285000 0.991100
0.070300 0.249000 0.977650
0.164770 0.216070 0.987350
0.504638 0.218317 0.989748
0.858585 0.264765 0.989915
0.998550 0.383650 0.991500
0.070300 0.530994 0.980487
0.170493 0.522640 0.987050
0.484514 0.501719 0.997285
0.865809 0.527615 0.995789
1.000000 0.622154 0.991813
0.128450 0.838900 0.982750
0.228485 0.842885 0.984850
0.496037 0.853158 0.993013
0.863660 0.851491 1.000000
1.000000 0.883150 0.990950
0.285800 0.987900 0.983700
0.383800 0.988700 0.984600
0.628394 0.991500 0.987300
0.882500 0.997150 0.992750
1.000000 0.998700 0.996500
