luts/stills/KA JFilm.cube
TITLE "KA JFilm - converted with Color.io - Created with Color.io"
LUT_3D_SIZE 33
DOMAIN_MIN 0.0 0.0 0.0
DOMAIN_MAX 1.0 1.0 1.0
0.070300 0.070300 0.070300
0.070300 0.070300 0.070300
0.070300 0.070300 0.070300
0.070300 0.070300 0.070300
0.071133 0.070300 0.070328
0.081369 0.070300 0.070666
0.105513 0.070300 0.071577
0.128294 0.070300 0.072769
0.152450 0.070350 0.074200
0.179812 0.070400 0.075687
0.211425 0.070400 0.077238
0.247606 0.070400 0.078831
0.287875 0.070400 0.080275
0.331604 0.070400 0.081571
0.378012 0.070400 0.082656
0.426459 0.070400 0.083426
0.476294 0.070400 0.083846
0.526668 0.070711 0.084162
0.575950 0.072706 0.085812
0.624244 0.075749 0.088112
0.671275 0.079550 0.090525
0.716506 0.084262 0.093244
0.759450 0.089650 0.096300
0.799494 0.095306 0.099919
0.836200 0.101350 0.104150
0.869025 0.107844 0.109112
0.897501 0.114986 0.115061
0.921426 0.123047 0.122059
0.941142 0.131978 0.129911
0.957319 0.141928 0.138314
0.970843 0.152887 0.147142
0.983158 0.160815 0.152560
0.993800 0.171300 0.160200
0.070300 0.070300 0.070300
0.070300 0.070300 0.070300
0.070300 0.070300 0.070300
0.070377 0.070328 0.070300
0.073957 0.070825 0.070300
0.089032 0.072099 0.070301
0.111162 0.073143 0.070313
0.133402 0.073397 0.070334
0.158119 0.073073 0.070399
0.186553 0.072381 0.070470
0.219487 0.071466 0.070493
0.256303 0.071054 0.071120
0.296400 0.071130 0.072235
0.339106 0.071965 0.073952
0.384080 0.073292 0.075935
0.430887 0.074936 0.078007
0.479034 0.076765 0.080030
0.527850 0.078970 0.082116
0.576638 0.081628 0.084275
0.624823 0.084791 0.086630
0.671843 0.088570 0.089160
0.717012 0.092636 0.092056
0.759784 0.097289 0.095397
0.799679 0.102365 0.099268
0.836233 0.108009 0.103806
0.868954 0.114228 0.109035
0.897388 0.121134 0.115132
0.921320 0.128908 0.122237
0.941038 0.137652 0.130052
0.957291 0.147407 0.138422
0.970841 0.158050 0.147138
0.983067 0.166052 0.152668
0.993701 0.176537 0.160405
0.070300 0.070300 0.070300
0.070300 0.070300 0.070300
0.070300 0.070300 0.070300
0.071144 0.070750 0.070300
0.076603 0.072452 0.070300
0.094222 0.076367 0.070300
0.113863 0.079016 0.070300
0.134918 0.080612 0.070344
0.159026 0.081391 0.070398
0.186994 0.081538 0.070400
0.219612 0.081288 0.070400
0.256775 0.080812 0.070410
0.296588 0.081399 0.071646
0.339043 0.082688 0.073565
0.384044 0.084126 0.075499
0.430855 0.085770 0.077482
0.478977 0.087774 0.079433
0.527761 0.089964 0.081541
0.576475 0.092384 0.083797
0.624623 0.095131 0.086267
0.671508 0.098246 0.088973
0.716676 0.101772 0.091971
0.759460 0.105735 0.095412
0.799369 0.110277 0.099348
0.835962 0.115432 0.103863
0.868729 0.121300 0.109111
0.897177 0.127943 0.115252
0.921169 0.135452 0.122419
0.940932 0.143975 0.130279
0.957189 0.153576 0.138629
0.970826 0.163755 0.146908
0.983051 0.172079 0.152842
0.993685 0.182505 0.160542
0.070300 0.070300 0.070300
0.070300 0.070300 0.070300
0.070300 0.070853 0.070624
0.071821 0.072479 0.070349
0.080512 0.076193 0.070300
0.097513 0.082452 0.070300
0.115803 0.087585 0.070318
0.136035 0.090741 0.070348
0.159497 0.092558 0.070400
0.187026 0.093608 0.070400
0.219255 0.094150 0.070400
0.256141 0.094370 0.070422
0.295808 0.095278 0.071769
0.338230 0.096608 0.073659
0.383193 0.097913 0.075572
0.430069 0.099354 0.077477
0.478217 0.100935 0.079392
0.527022 0.102719 0.081432
0.575811 0.104726 0.083681
0.624000 0.106992 0.086154
0.670960 0.109668 0.088881
0.716143 0.112731 0.091947
0.758956 0.116278 0.095411
0.798975 0.120414 0.099372
0.835622 0.125227 0.103943
0.868412 0.130759 0.109277
0.896908 0.137118 0.115483
0.920957 0.144460 0.122651
0.940779 0.152778 0.130570
0.957069 0.162220 0.138922
0.970829 0.171846 0.146670
0.982955 0.180583 0.153040
0.993603 0.191043 0.160856
0.070300 0.071411 0.071411
0.070300 0.072039 0.072190
0.070469 0.072971 0.073113
0.071271 0.077947 0.075045
0.080667 0.084774 0.071053
0.098716 0.089125 0.070352
0.116562 0.095533 0.070339
0.136369 0.100814 0.070397
0.159342 0.104204 0.070400
0.186455 0.106209 0.070400
0.218366 0.107396 0.070400
0.254921 0.108238 0.070468
0.294467 0.109415 0.071819
0.336944 0.110745 0.073653
0.382014 0.112053 0.075514
0.429009 0.113428 0.077403
0.477214 0.114915 0.079273
0.526096 0.116532 0.081286
0.574932 0.118350 0.083532
0.623213 0.120409 0.086020
0.670255 0.122837 0.088747
0.715486 0.125682 0.091833
0.758391 0.129019 0.095346
0.798441 0.132904 0.099394
0.835172 0.137460 0.104075
0.868024 0.142749 0.109487
0.896590 0.148911 0.115763
0.920686 0.156068 0.122967
0.940541 0.164298 0.130889
0.956864 0.173604 0.139243
0.970835 0.182609 0.146369
0.982864 0.191846 0.153333
0.993572 0.202350 0.161203
0.070300 0.077927 0.077994
0.070436 0.079757 0.080316
0.071473 0.081479 0.082600
0.073451 0.085226 0.085167
0.076969 0.093754 0.084891
0.093574 0.100961 0.074485
0.115851 0.103135 0.070822
0.135790 0.108942 0.070400
0.158530 0.114357 0.070400
0.185242 0.118621 0.070400
0.216785 0.121187 0.070400
0.253142 0.122831 0.070437
0.292747 0.124267 0.071642
0.335260 0.125775 0.073450
0.380391 0.127223 0.075257
0.427499 0.128650 0.077067
0.475870 0.130171 0.078952
0.524831 0.131820 0.080986
0.573790 0.133659 0.083182
0.622188 0.135668 0.085735
0.669300 0.138059 0.088519
0.714641 0.140811 0.091656
0.757658 0.144008 0.095256
0.797800 0.147787 0.099387
0.834562 0.152197 0.104131
0.867525 0.157421 0.109658
0.896202 0.163462 0.116077
0.920369 0.170537 0.123353
0.940259 0.178732 0.131272
0.956635 0.187983 0.139646
0.970715 0.196564 0.146364
0.982759 0.206119 0.153697
0.993469 0.216706 0.161625
0.070416 0.089717 0.089954
0.071633 0.091080 0.091912
0.074327 0.092099 0.093500
0.078217 0.093744 0.095491
0.081302 0.099306 0.097768
0.087244 0.108734 0.095498
0.106954 0.115860 0.081572
0.133639 0.117351 0.072201
0.156538 0.123197 0.071685
0.182855 0.129162 0.071863
0.214244 0.134264 0.071341
0.250484 0.137797 0.070835
0.290420 0.140345 0.071214
0.333143 0.142210 0.072838
0.378382 0.143942 0.074649
0.425609 0.145574 0.076489
0.474074 0.147246 0.078323
0.523178 0.149020 0.080335
0.572307 0.150960 0.082572
0.620847 0.153096 0.085126
0.668168 0.155517 0.088092
0.713643 0.158266 0.091360
0.756771 0.161538 0.095081
0.797025 0.165307 0.099316
0.833880 0.169706 0.104182
0.866910 0.174882 0.109861
0.895702 0.180958 0.116423
0.919980 0.188032 0.123809
0.939945 0.196265 0.131762
0.956421 0.205549 0.140126
0.970555 0.214090 0.146841
0.982614 0.223579 0.154157
0.993324 0.234196 0.162089
0.072306 0.101275 0.101619
0.075198 0.101862 0.102739
0.078596 0.102498 0.103970
0.083142 0.103592 0.105607
0.087861 0.106357 0.107907
0.091358 0.113754 0.109819
0.099170 0.124359 0.105689
0.121244 0.131781 0.089606
0.152909 0.132603 0.075570
0.179280 0.138804 0.075547
0.209899 0.145439 0.075503
0.246099 0.151468 0.074074
0.286812 0.156631 0.072342
0.330144 0.159937 0.072586
0.375987 0.162565 0.073438
0.423365 0.164539 0.075329
0.471986 0.166522 0.077225
0.521238 0.168526 0.079279
0.570505 0.170602 0.081515
0.619193 0.172918 0.084168
0.666694 0.175500 0.087275
0.712356 0.178384 0.090756
0.755644 0.181769 0.094650
0.796029 0.185676 0.099107
0.833028 0.190215 0.104210
0.866181 0.195486 0.110043
0.895088 0.201641 0.116804
0.919481 0.208798 0.124278
0.939566 0.217024 0.132235
0.956124 0.226414 0.140676
0.970342 0.234888 0.147327
0.982404 0.244318 0.154725
0.993156 0.254831 0.162663
0.076950 0.112050 0.112450
0.080128 0.112524 0.113455
0.083828 0.113057 0.114521
0.088596 0.113971 0.116030
0.094025 0.115480 0.118008
0.098297 0.120025 0.120718
0.102129 0.129460 0.122044
0.111804 0.141610 0.115784
0.137250 0.149459 0.097602
0.174704 0.149620 0.079934
0.205725 0.156184 0.079548
0.240654 0.163641 0.079679
0.281075 0.170912 0.077725
0.325410 0.177233 0.075353
0.372287 0.182043 0.073920
0.420483 0.185541 0.074096
0.469540 0.188270 0.075388
0.518983 0.190595 0.077568
0.568418 0.193027 0.079953
0.617320 0.195557 0.082734
0.664991 0.198386 0.086036
0.710806 0.201519 0.089800
0.754265 0.205068 0.093943
0.794837 0.209125 0.098656
0.831985 0.213835 0.104020
0.865289 0.219315 0.110135
0.894351 0.225630 0.117092
0.918867 0.232901 0.124680
0.939099 0.241164 0.132748
0.955853 0.250191 0.140863
0.970067 0.258881 0.147921
0.982192 0.268199 0.155305
0.993000 0.278600 0.163300
0.082887 0.123275 0.123731
0.086181 0.123700 0.124624
0.089791 0.124170 0.125591
0.094387 0.125014 0.127029
0.099621 0.126228 0.128874
0.105078 0.128588 0.131318
0.109061 0.135438 0.134409
0.113796 0.147115 0.134647
0.125908 0.161101 0.125846
0.155616 0.169394 0.105250
0.199646 0.169108 0.084767
0.236259 0.175719 0.083394
0.275297 0.184077 0.083697
0.319046 0.192446 0.081807
0.366504 0.200229 0.078556
0.416067 0.206922 0.075387
0.466008 0.211463 0.074855
0.516314 0.215245 0.075397
0.566084 0.218281 0.077612
0.615171 0.221192 0.080574
0.663066 0.224312 0.084145
0.709103 0.227753 0.088339
0.752737 0.231531 0.092906
0.793459 0.235799 0.097940
0.830794 0.240644 0.103587
0.864229 0.246254 0.109986
0.893424 0.252667 0.117214
0.918181 0.259987 0.124936
0.938544 0.268243 0.133051
0.955519 0.276967 0.141007
0.969765 0.285657 0.148316
0.981972 0.295004 0.155901
0.992787 0.305237 0.163937
0.089725 0.135312 0.135687
0.092810 0.135683 0.136545
0.096044 0.136192 0.137494
0.100341 0.136925 0.138835
0.105442 0.138023 0.140636
0.111223 0.139653 0.142899
0.116543 0.143783 0.145979
0.120686 0.153165 0.149037
0.126820 0.167336 0.147691
0.142080 0.183065 0.136086
0.176861 0.192022 0.112752
0.228295 0.191132 0.089629
0.270664 0.197685 0.086875
0.313286 0.207074 0.087291
0.359805 0.216558 0.085689
0.409498 0.225858 0.081825
0.460753 0.234020 0.078014
0.512171 0.240364 0.075971
0.562967 0.245280 0.076031
0.612794 0.249567 0.077518
0.660867 0.253026 0.081388
0.707129 0.256799 0.086075
0.750990 0.260873 0.091309
0.791931 0.265362 0.096887
0.829415 0.270393 0.102949
0.863081 0.276094 0.109675
0.892426 0.282582 0.117126
0.917334 0.289864 0.124990
0.937967 0.298032 0.133251
0.955038 0.306561 0.141226
0.969447 0.315140 0.148712
0.981689 0.324364 0.156401
0.992513 0.334387 0.164575
0.096875 0.148362 0.148594
0.099630 0.148757 0.149383
0.102602 0.149241 0.150367
0.106659 0.149918 0.151618
0.111642 0.150903 0.153368
0.117477 0.152367 0.155584
0.123955 0.154534 0.158305
0.129176 0.161033 0.161991
0.133765 0.173529 0.164669
0.141747 0.190356 0.161341
0.160848 0.208007 0.146572
0.201502 0.217569 0.120188
0.260553 0.215922 0.094040
0.308505 0.222238 0.089624
0.354134 0.232669 0.090198
0.402625 0.243201 0.089043
0.453742 0.253642 0.085689
0.506166 0.263565 0.081058
0.558405 0.272023 0.077415
0.609070 0.278041 0.077385
0.658136 0.283438 0.079044
0.704971 0.288273 0.082824
0.749016 0.292610 0.088823
0.790184 0.297392 0.095184
0.827888 0.302606 0.101881
0.861762 0.308481 0.109140
0.891344 0.314977 0.116842
0.916483 0.322256 0.124889
0.937189 0.330535 0.133718
0.954549 0.338681 0.141478
0.969032 0.347089 0.148972
0.981372 0.356100 0.156758
0.992262 0.365831 0.165075
0.104250 0.162650 0.162625
0.106758 0.163075 0.163451
0.109570 0.163530 0.164369
0.113447 0.164184 0.165618
0.118422 0.165087 0.167311
0.124242 0.166450 0.169476
0.130964 0.168320 0.172108
0.137756 0.172013 0.175510
0.143044 0.181450 0.179644
0.148686 0.196903 0.181369
0.159012 0.216613 0.175504
0.182622 0.236007 0.157265
0.229749 0.246027 0.127512
0.296263 0.243488 0.097878
0.349208 0.249465 0.091625
0.397188 0.260698 0.092395
0.447159 0.272265 0.091853
0.499093 0.283765 0.089275
0.551869 0.295111 0.084758
0.603932 0.305039 0.081046
0.654140 0.313098 0.080060
0.701832 0.319833 0.081915
0.746693 0.325987 0.086048
0.788210 0.331414 0.092661
0.826141 0.336841 0.100193
0.860244 0.342819 0.108057
0.890155 0.349452 0.116142
0.915520 0.356697 0.124476
0.936407 0.364937 0.133818
0.953973 0.372895 0.141708
0.968669 0.381104 0.149178
0.981045 0.389903 0.156997
0.991975 0.399375 0.165500
0.112022 0.178476 0.177968
0.114393 0.178823 0.178740
0.117093 0.179277 0.179647
0.120835 0.179931 0.180936
0.125750 0.180781 0.182549
0.131628 0.182057 0.184669
0.138459 0.183752 0.187303
0.146187 0.186117 0.190416
0.153073 0.192354 0.194578
0.158798 0.205077 0.198828
0.165844 0.223669 0.199141
0.179021 0.246103 0.190264
0.207648 0.266856 0.168387
0.261402 0.277125 0.134877
0.334720 0.273493 0.101183
0.392209 0.278975 0.092968
0.442053 0.291009 0.094002
0.492915 0.303572 0.094153
0.545024 0.315910 0.092485
0.597307 0.328155 0.089220
0.648665 0.340076 0.085527
0.697642 0.350297 0.083785
0.743199 0.358038 0.086840
0.785634 0.365720 0.091353
0.824205 0.372639 0.098016
0.858583 0.378910 0.106308
0.888792 0.385508 0.114809
0.914372 0.392983 0.124142
0.935635 0.400959 0.133594
0.953409 0.408786 0.141554
0.968244 0.416816 0.149133
0.980722 0.425400 0.157191
0.991658 0.434639 0.165762
0.120350 0.195925 0.194788
0.122691 0.196251 0.195539
0.125283 0.196705 0.196432
0.128939 0.197359 0.197676
0.133837 0.198178 0.199290
0.139779 0.199344 0.201376
0.146733 0.200964 0.203970
0.154760 0.203145 0.207050
0.163437 0.206411 0.210759
0.170441 0.215867 0.215621
0.176810 0.232080 0.219539
0.185571 0.253712 0.217984
0.202002 0.278583 0.205494
0.236234 0.300188 0.179786
0.296171 0.310465 0.142148
0.375433 0.305860 0.104219
0.436875 0.310574 0.093720
0.488087 0.323232 0.095096
0.539281 0.336677 0.096079
0.590939 0.349899 0.095477
0.642138 0.363122 0.093691
0.691862 0.376280 0.091157
0.738789 0.388101 0.090458
0.782044 0.398084 0.093062
0.821370 0.406756 0.098574
0.856633 0.415337 0.104924
0.887282 0.422900 0.113115
0.912932 0.430766 0.124294
0.934673 0.438360 0.133203
0.952768 0.445935 0.140956
0.967730 0.453907 0.148805
0.980387 0.462288 0.157108
0.991419 0.471225 0.165950
0.129340 0.215124 0.213154
0.131671 0.215451 0.213906
0.134179 0.215896 0.214799
0.137806 0.216548 0.216025
0.142732 0.217345 0.217606
0.148738 0.218411 0.219656
0.155824 0.219912 0.222171
0.164030 0.221989 0.225223
0.173410 0.224580 0.228749
0.182553 0.230052 0.233223
0.189818 0.242932 0.238562
0.197300 0.262286 0.241555
0.208090 0.286834 0.237468
0.228620 0.313499 0.221227
0.268199 0.335712 0.191501
0.333431 0.345986 0.149636
0.416947 0.340884 0.108021
0.482574 0.344088 0.094064
0.534740 0.357183 0.095626
0.585627 0.371422 0.097704
0.636257 0.385478 0.098369
0.685732 0.399569 0.098244
0.733185 0.413539 0.097655
0.777563 0.427296 0.097651
0.817977 0.439160 0.100505
0.853868 0.448980 0.106416
0.884880 0.458983 0.115143
0.911501 0.468486 0.124002
0.933769 0.476525 0.132312
0.952169 0.484014 0.139959
0.967262 0.491809 0.148057
0.979975 0.500049 0.156611
0.991109 0.508738 0.165782
0.139094 0.236102 0.233089
0.141368 0.236429 0.233836
0.143930 0.236867 0.234720
0.147534 0.237452 0.235946
0.152427 0.238235 0.237509
0.158552 0.239273 0.239475
0.165797 0.240672 0.241944
0.174245 0.242564 0.244921
0.183905 0.244993 0.248362
0.194687 0.248066 0.252315
0.203920 0.256834 0.257555
0.211667 0.273123 0.262907
0.220299 0.295588 0.264480
0.233615 0.322595 0.257444
0.258419 0.350493 0.237399
0.302851 0.373019 0.203543
0.372466 0.383331 0.157439
0.459499 0.377770 0.111908
0.528850 0.379132 0.093795
0.581412 0.392539 0.095756
0.631346 0.407596 0.099181
0.680407 0.422556 0.101421
0.727685 0.437299 0.103027
0.772311 0.452071 0.104416
0.813550 0.466870 0.106043
0.850353 0.480739 0.110348
0.881879 0.493021 0.119528
0.909386 0.503503 0.127193
0.932651 0.513410 0.132604
0.951462 0.522278 0.139020
0.966737 0.530357 0.146892
0.979560 0.538448 0.155739
0.990713 0.546840 0.165260
0.149666 0.258777 0.254559
0.152001 0.259100 0.255303
0.154577 0.259525 0.256115
0.158182 0.260097 0.257330
0.163020 0.260863 0.258886
0.169286 0.261806 0.260804
0.176727 0.263079 0.263188
0.185400 0.264817 0.266056
0.195353 0.267109 0.269437
0.206643 0.269926 0.273257
0.218329 0.274471 0.277848
0.227503 0.287011 0.283654
0.236010 0.306285 0.288489
0.246164 0.331475 0.288133
0.262094 0.360538 0.277859
0.290941 0.389180 0.254193
0.339768 0.411970 0.215955
0.413035 0.422268 0.165523
0.502694 0.416217 0.115661
0.575112 0.415603 0.093022
0.627358 0.429325 0.095743
0.675991 0.445049 0.100676
0.722934 0.460712 0.104727
0.767471 0.476140 0.108281
0.808718 0.491730 0.112551
0.845765 0.507637 0.119000
0.878586 0.523577 0.125751
0.907245 0.536765 0.130633
0.931175 0.547642 0.135190
0.950458 0.557781 0.140698
0.966141 0.567923 0.146723
0.979169 0.576677 0.154902
0.990381 0.585246 0.164385
0.161219 0.283094 0.277419
0.163564 0.283412 0.278162
0.166147 0.283767 0.278959
0.169784 0.284337 0.280159
0.174687 0.285091 0.281648
0.181031 0.285984 0.283538
0.188721 0.287159 0.285825
0.197676 0.288733 0.288629
0.207868 0.290835 0.291913
0.219519 0.293416 0.295619
0.232338 0.296613 0.299830
0.244166 0.303990 0.305097
0.253335 0.320034 0.311210
0.262701 0.342063 0.315043
0.274359 0.369715 0.312379
0.292965 0.400284 0.298836
0.325633 0.429474 0.271400
0.378351 0.452303 0.228752
0.454539 0.462484 0.173791
0.545993 0.456121 0.119717
0.620075 0.454321 0.093127
0.672284 0.467409 0.095613
0.719015 0.483622 0.102504
0.763134 0.499906 0.109538
0.804087 0.516305 0.117911
0.841027 0.533098 0.128180
0.874780 0.549511 0.134687
0.904679 0.565305 0.137142
0.929500 0.579772 0.138918
0.949330 0.591571 0.143334
0.965363 0.602051 0.149435
0.978572 0.612384 0.156289
0.990025 0.622731 0.164012
0.173800 0.308908 0.301725
0.176148 0.309226 0.302448
0.178757 0.309569 0.303236
0.182475 0.310124 0.304371
0.187462 0.310862 0.305889
0.193884 0.311674 0.307705
0.201797 0.312751 0.309931
0.211014 0.314217 0.312561
0.221498 0.316129 0.315762
0.233344 0.318523 0.319377
0.246555 0.321401 0.323377
0.260659 0.324993 0.327932
0.271742 0.336639 0.333962
0.281073 0.355582 0.339886
0.291168 0.380435 0.342250
0.304455 0.409992 0.337115
0.325851 0.441615 0.320227
0.362041 0.471035 0.288976
0.418172 0.493756 0.241880
0.496669 0.503721 0.182378
0.588940 0.497239 0.123989
0.663812 0.494292 0.093806
0.715454 0.506616 0.097266
0.759359 0.523526 0.109415
0.799836 0.540823 0.122540
0.837018 0.558054 0.134720
0.871398 0.574761 0.141732
0.902102 0.590889 0.144432
0.927502 0.606613 0.146538
0.948039 0.621961 0.148335
0.964527 0.634879 0.152539
0.978019 0.645961 0.159025
0.989527 0.656305 0.167172
0.187525 0.336275 0.327475
0.189878 0.336594 0.328120
0.192567 0.336927 0.328899
0.196317 0.337404 0.330002
0.201349 0.338125 0.331458
0.207883 0.338921 0.333235
0.215998 0.339940 0.335375
0.225444 0.341219 0.337937
0.236170 0.342909 0.340959
0.248183 0.345159 0.344498
0.261580 0.347845 0.348379
0.276121 0.351032 0.352713
0.290136 0.357110 0.357920
0.300655 0.372350 0.364284
0.310412 0.393741 0.369594
0.321055 0.420990 0.370172
0.335879 0.452135 0.362302
0.360050 0.484328 0.342081
0.399502 0.513710 0.306962
0.458642 0.536071 0.255564
0.538845 0.545786 0.191800
0.631132 0.539388 0.130588
0.705755 0.535757 0.101354
0.755812 0.547547 0.108937
0.796563 0.564869 0.124356
0.834085 0.582410 0.137467
0.868960 0.599557 0.145234
0.899938 0.616006 0.149520
0.925761 0.632046 0.153088
0.946644 0.647659 0.156254
0.963518 0.662946 0.159229
0.977406 0.677323 0.162849
0.989125 0.688700 0.170000
0.202394 0.365019 0.354487
0.204778 0.365337 0.355133
0.207474 0.365671 0.355905
0.211315 0.366122 0.356928
0.216426 0.366765 0.358365
0.223043 0.367540 0.360123
0.231229 0.368463 0.362166
0.240875 0.369672 0.364641
0.251800 0.371219 0.367569
0.263933 0.373247 0.370949
0.277403 0.375709 0.374744
0.292198 0.378577 0.378868
0.307781 0.382063 0.383532
0.320940 0.391747 0.389403
0.330867 0.410275 0.395935
0.340862 0.433932 0.400264
0.352022 0.463396 0.398750
0.368423 0.495723 0.387927
0.395267 0.528225 0.364381
0.438049 0.557282 0.325954
0.500044 0.579196 0.271471
0.581396 0.588715 0.206673
0.672261 0.582882 0.145809
0.745503 0.578498 0.117275
0.793783 0.589144 0.123987
0.832177 0.606358 0.137148
0.867307 0.623835 0.145780
0.898397 0.640751 0.151997
0.924426 0.656982 0.157332
0.945532 0.672799 0.162087
0.962629 0.688104 0.166557
0.976714 0.703092 0.171069
0.988775 0.717550 0.174600
0.218387 0.395075 0.382775
0.220809 0.395386 0.383412
0.223551 0.395690 0.384155
0.227421 0.396134 0.385171
0.232581 0.396718 0.386528
0.239153 0.397490 0.388267
0.247450 0.398353 0.390267
0.257156 0.399400 0.392631
0.268253 0.400807 0.395447
0.280544 0.402650 0.398713
0.293987 0.404917 0.402430
0.308800 0.407565 0.406425
0.324692 0.410699 0.410845
0.340541 0.415374 0.415927
0.352155 0.429540 0.422402
0.361899 0.450115 0.428683
0.372097 0.476155 0.431702
0.384391 0.507159 0.428264
0.402650 0.540608 0.414773
0.432902 0.573151 0.389205
0.479041 0.601621 0.349308
0.543026 0.622765 0.293886
0.623801 0.631936 0.227207
0.712245 0.626475 0.164252
0.783638 0.621334 0.133295
0.830723 0.630776 0.134431
0.866592 0.647803 0.143189
0.897564 0.665059 0.151490
0.923633 0.681571 0.158834
0.944848 0.697457 0.165454
0.962040 0.712830 0.171728
0.976251 0.727738 0.177842
0.988425 0.741938 0.182012
0.235375 0.426369 0.412369
0.237779 0.426644 0.413006
0.240580 0.426908 0.413688
0.244512 0.427322 0.414681
0.249674 0.427906 0.416009
0.256209 0.428650 0.417667
0.264454 0.429481 0.419634
0.274235 0.430434 0.421903
0.285369 0.431706 0.424606
0.297725 0.433338 0.427760
0.311206 0.435406 0.431363
0.325941 0.437899 0.435319
0.341946 0.440732 0.439577
0.358545 0.444171 0.444284
0.373625 0.451859 0.450037
0.384288 0.469775 0.456953
0.394445 0.492422 0.462823
0.405442 0.520562 0.464847
0.419511 0.552662 0.460072
0.440201 0.586477 0.444888
0.473061 0.618424 0.417437
0.521383 0.645923 0.375542
0.586385 0.665932 0.318472
0.666093 0.674729 0.249845
0.751696 0.669967 0.182130
0.821358 0.664244 0.142879
0.866123 0.672297 0.138250
0.897491 0.688849 0.147656
0.923431 0.705711 0.157262
0.944640 0.721660 0.165975
0.961803 0.737070 0.174239
0.976016 0.751824 0.182288
0.988387 0.765756 0.186337
0.253200 0.458800 0.443200
0.255609 0.459020 0.443837
0.258411 0.459338 0.444505
0.262344 0.459699 0.445462
0.267506 0.460253 0.446736
0.274002 0.460969 0.448354
0.282180 0.461751 0.450254
0.291942 0.462655 0.452474
0.303065 0.463815 0.455100
0.315444 0.465313 0.458119
0.328937 0.467169 0.461597
0.343744 0.469506 0.465556
0.359977 0.472200 0.469750
0.377122 0.475414 0.474380
0.394628 0.479531 0.479597
0.408382 0.491889 0.486320
0.418936 0.512382 0.493569
0.429689 0.536878 0.499102
0.441124 0.566636 0.500049
0.456422 0.599081 0.493656
0.479387 0.632244 0.476606
0.514717 0.663259 0.446895
0.564862 0.689527 0.402868
0.630251 0.708744 0.343044
0.708569 0.717565 0.269690
0.791081 0.713425 0.194610
0.857240 0.706779 0.148240
0.897674 0.713211 0.141490
0.923942 0.729263 0.152132
0.944917 0.745393 0.163252
0.962007 0.760628 0.173705
0.976218 0.775286 0.182692
0.988700 0.788950 0.187200
0.271700 0.492244 0.475269
0.274061 0.492512 0.475850
0.276846 0.492782 0.476517
0.280738 0.493143 0.477427
0.285899 0.493697 0.478671
0.292461 0.494365 0.480292
0.300747 0.495108 0.482130
0.310704 0.495981 0.484319
0.322005 0.497049 0.486867
0.334602 0.498475 0.489872
0.348450 0.500256 0.493238
0.363406 0.502466 0.497134
0.379662 0.505125 0.501444
0.397191 0.508198 0.506016
0.415311 0.511920 0.511162
0.432317 0.518540 0.517194
0.444388 0.534952 0.524643
0.454956 0.556651 0.531860
0.465887 0.582643 0.536614
0.477999 0.613339 0.536047
0.495053 0.645465 0.527707
0.520308 0.677693 0.508621
0.557507 0.707617 0.476479
0.608815 0.733035 0.428735
0.674269 0.751419 0.364700
0.750716 0.759858 0.286463
0.828612 0.755902 0.206112
0.889534 0.748357 0.153530
0.924630 0.753264 0.144660
0.945851 0.768595 0.156850
0.962786 0.783732 0.168677
0.977019 0.798044 0.177567
0.989350 0.811525 0.183900
0.292358 0.526581 0.508399
0.294786 0.526832 0.508992
0.297640 0.527074 0.509618
0.301557 0.527458 0.510553
0.306810 0.527973 0.511757
0.313369 0.528674 0.513336
0.321652 0.529444 0.515213
0.331655 0.530276 0.517361
0.343064 0.531332 0.519898
0.355787 0.532681 0.522841
0.369749 0.534445 0.526199
0.384826 0.536581 0.530047
0.400821 0.539206 0.534383
0.418132 0.542163 0.538991
0.436259 0.545663 0.544038
0.454689 0.549928 0.549621
0.470349 0.559690 0.556356
0.481145 0.579351 0.564107
0.492047 0.602042 0.570792
0.503519 0.629223 0.574293
0.516698 0.659962 0.571964
0.534930 0.691910 0.561243
0.561676 0.723346 0.539448
0.600556 0.751853 0.504278
0.652952 0.775670 0.453242
0.717945 0.792581 0.385888
