luts/stills/KA Ocean.cube
TITLE "Generated by Resolve"
LUT_3D_SIZE 9
0.0181888 0.0486763 0.117891
0.089662 0.0393683 0.111849
0.176974 0.0297398 0.103639
0.321798 0.00766003 0.0829786
0.47068 0 0.0615702
0.634485 0 0.0411231
0.828443 0 0.0260014
0.971969 0 0.0426642
1 0.00425727 0.0749218
0.0439002 0.103227 0.15079
0.111025 0.112963 0.129198
0.201465 0.0927596 0.10869
0.339605 0.0729076 0.0813001
0.483513 0.0558022 0.0657664
0.657954 0.0476997 0.0564431
0.87245 0.0582895 0.065507
1 0.0961166 0.101549
1 0.1411 0.144732
0.0603647 0.157137 0.188388
0.115953 0.169604 0.208301
0.241276 0.18793 0.133532
0.390997 0.14699 0.10013
0.531456 0.137041 0.0931106
0.720455 0.153323 0.0942855
0.937301 0.185565 0.116289
1 0.237507 0.158389
1 0.287907 0.200198
0.0674601 0.239567 0.226017
0.146929 0.25565 0.262058
0.145159 0.290349 0.214405
0.407721 0.294926 0.140307
0.563012 0.256748 0.115816
0.766293 0.260853 0.11603
0.976089 0.304524 0.137835
1 0.366171 0.172519
1 0.419104 0.205982
0.0822919 0.351797 0.283436
0.177646 0.359319 0.323201
0.237888 0.372045 0.329686
0.25005 0.441596 0.176394
0.575906 0.42916 0.150866
0.790066 0.41912 0.139834
0.994171 0.430869 0.148272
1 0.473533 0.173098
1 0.520195 0.195361
0.11107 0.484962 0.369879
0.225971 0.484947 0.409033
0.313817 0.486702 0.425696
0.311925 0.516472 0.379492
0.456138 0.580819 0.188571
0.797986 0.578973 0.172259
0.992676 0.579995 0.162646
1 0.594247 0.173526
1 0.619776 0.189899
0.156374 0.614618 0.487572
0.284215 0.607614 0.516869
0.389349 0.600366 0.535637
0.435126 0.608377 0.532845
0.394522 0.667674 0.384756
0.658854 0.699229 0.207813
0.995895 0.714656 0.202441
1 0.727062 0.197848
1 0.732967 0.199268
0.207889 0.726589 0.590921
0.341176 0.71252 0.606699
0.45095 0.701762 0.613962
0.511727 0.700954 0.620233
0.514092 0.723491 0.595453
0.514931 0.806516 0.346059
0.895003 0.809339 0.232319
1 0.842222 0.238239
1 0.847807 0.223529
0.263691 0.827695 0.667613
0.399512 0.809979 0.674739
0.509331 0.793637 0.682414
0.58378 0.790829 0.684932
0.623102 0.800061 0.681239
0.590555 0.844358 0.626245
0.70454 0.927108 0.322316
1 0.922011 0.271092
1 0.938567 0.257404
0 0.0502174 0.156619
0.0939498 0.0434577 0.170428
0.182559 0.0326085 0.159792
0.326421 0.0084535 0.135546
0.472648 0 0.114305
0.635264 0 0.0944839
0.828031 0 0.0809186
0.972213 0 0.100481
1 0.00291447 0.135409
0.0125734 0.114092 0.170138
0.0992599 0.118074 0.174456
0.191638 0.105241 0.159823
0.3355 0.0823072 0.136858
0.48217 0.0630503 0.119326
0.654368 0.0539864 0.110582
0.867521 0.0623941 0.118975
1 0.0981308 0.154543
1 0.14316 0.199573
0.0346532 0.17528 0.20351
0.120363 0.19028 0.225528
0.227649 0.210239 0.188205
0.377462 0.180987 0.159411
0.525078 0.176883 0.150484
0.707103 0.1832 0.154849
0.926863 0.205325 0.173053
1 0.250477 0.213855
1 0.297398 0.256016
0.0496529 0.271443 0.247715
0.141436 0.294179 0.281483
0.239963 0.31194 0.308278
0.405402 0.330022 0.189487
0.549111 0.284581 0.153735
0.730938 0.29305 0.158984
0.952239 0.339376 0.185168
1 0.395621 0.224826
1 0.440864 0.257649
0.0675517 0.387167 0.311208
0.162478 0.404181 0.343771
0.290501 0.410361 0.378256
0.284413 0.443565 0.307408
0.556924 0.449104 0.185382
0.735637 0.414405 0.16051
0.956802 0.434607 0.173968
1 0.492576 0.208118
1 0.54641 0.238193
0.0993668 0.518654 0.407385
0.199588 0.523064 0.429953
0.331533 0.513588 0.461173
0.393774 0.518471 0.462501
0.401465 0.575051 0.255909
0.744121 0.574258 0.196536
0.953307 0.566384 0.175845
1 0.587839 0.193652
1 0.628305 0.220706
0.144762 0.644923 0.528771
0.256641 0.641901 0.542428
0.390433 0.625315 0.560067
0.468437 0.618555 0.565362
0.463813 0.640146 0.5205
0.600458 0.699809 0.247211
0.960067 0.704814 0.22414
1 0.715587 0.211658
1 0.726375 0.216541
0.192081 0.754604 0.62092
0.311696 0.745403 0.625498
0.44419 0.726818 0.634119
0.531624 0.715297 0.641047
0.573983 0.719768 0.637385
0.529961 0.770474 0.518105
0.838987 0.811414 0.264698
1 0.835096 0.263157
1 0.841367 0.24332
0.24831 0.854459 0.691142
0.370077 0.842771 0.689418
0.49543 0.824369 0.689982
0.595407 0.810773 0.696315
0.660182 0.807279 0.700175
0.661051 0.826566 0.681453
0.655146 0.897719 0.472251
1 0.917418 0.300649
1 0.936034 0.286305
0 0.0529488 0.217075
0.0478218 0.0345617 0.262333
0.186435 0.0330968 0.249241
0.329412 0.00817884 0.222492
0.473289 0 0.197467
0.634195 0 0.177874
0.825391 0 0.16582
0.969573 0 0.18761
1 0.00172427 0.225025
0 0.121035 0.207568
0.0415198 0.116518 0.235386
0.195178 0.106966 0.254032
0.340139 0.0835889 0.228138
0.486625 0.0636759 0.206912
0.658778 0.0551156 0.199924
0.869535 0.0623484 0.20853
1 0.0970169 0.245838
1 0.140993 0.292958
0 0.19263 0.234501
0.0842908 0.209751 0.249958
0.213306 0.229282 0.26772
0.373404 0.211688 0.253132
0.528176 0.198596 0.242283
0.708827 0.198245 0.244007
0.925414 0.214649 0.260456
1 0.255207 0.299413
1 0.299702 0.342
0.0124971 0.306416 0.279332
0.118105 0.331746 0.311406
0.261143 0.350134 0.340993
0.402533 0.36643 0.281804
0.551339 0.341222 0.251408
0.731777 0.355398 0.256931
0.945098 0.37847 0.276081
1 0.418296 0.310872
1 0.454932 0.342504
0.044358 0.433967 0.354849
0.148775 0.452171 0.3879
0.296178 0.463951 0.417838
0.411078 0.4748 0.447166
0.556176 0.486488 0.278416
0.726757 0.451606 0.241016
0.934295 0.471931 0.252323
1 0.529274 0.288258
1 0.577279 0.321981
0.0846571 0.562814 0.46421
0.187716 0.566201 0.483391
0.325444 0.564706 0.500069
0.45417 0.56022 0.528679
0.446448 0.586831 0.438499
0.709667 0.583749 0.266728
0.906828 0.558663 0.232944
1 0.59353 0.25684
1 0.650492 0.294942
0.129595 0.683131 0.573831
0.242115 0.676875 0.581979
0.366934 0.662242 0.582315
0.487144 0.642847 0.594293
0.535149 0.642298 0.590723
0.536858 0.686961 0.353796
0.904738 0.688914 0.270527
1 0.696803 0.260319
1 0.72105 0.274907
0.17322 0.789212 0.654902
0.297017 0.776989 0.656092
0.420768 0.760876 0.653758
0.535424 0.739574 0.660304
0.610285 0.730632 0.661357
0.601877 0.747921 0.628351
0.752117 0.798856 0.33991
1 0.819547 0.306554
1 0.826322 0.288914
0.228626 0.886809 0.7187
0.356497 0.870924 0.715068
0.473762 0.854551 0.710765
0.59147 0.834485 0.713878
0.686503 0.821881 0.71754
0.732052 0.823713 0.712963
0.677607 0.86772 0.62829
0.975158 0.90573 0.357656
1 0.929366 0.333181
0 0.0572061 0.298634
0 0.0367437 0.368719
0.146197 0.0240635 0.381811
0.331746 0.00515755 0.346166
0.473564 0 0.319371
0.633875 0 0.298695
0.824231 0 0.288533
0.967636 0 0.312932
1 0.000640879 0.352499
0 0.123934 0.264134
0 0.113771 0.311452
0.124315 0.0981765 0.384298
0.34519 0.084184 0.357473
0.490654 0.0652781 0.334829
0.663188 0.0572671 0.325765
0.871626 0.0642863 0.334432
1 0.0976425 0.371893
1 0.140642 0.420233
0 0.200626 0.277272
0.0115663 0.209751 0.287648
0.11931 0.222339 0.347982
0.37969 0.218982 0.388693
0.534371 0.204593 0.374899
0.715038 0.20264 0.37377
0.929534 0.216983 0.390616
1 0.255024 0.430472
1 0.297047 0.474357
0 0.329213 0.334112
0.0704204 0.357397 0.361807
0.203235 0.384558 0.388373
0.393515 0.395178 0.398047
0.553613 0.382864 0.387457
0.736324 0.38352 0.389303
0.945052 0.396231 0.40264
1 0.426932 0.433097
1 0.45864 0.464134
0.00549325 0.472145 0.418036
0.116426 0.500801 0.452186
0.27303 0.515511 0.47718
0.441642 0.520912 0.500237
0.567834 0.533547 0.415656
0.742947 0.517174 0.380118
0.935927 0.535439 0.390021
1 0.567361 0.417258
1 0.600458 0.447822
0.0631266 0.608392 0.530144
0.168917 0.621546 0.552956
0.321035 0.617029 0.56173
0.470207 0.614603 0.574136
0.568429 0.618524 0.591119
0.72575 0.626108 0.399786
0.90927 0.601099 0.348516
1 0.632166 0.371099
1 0.687984 0.417487
0.110689 0.725902 0.620203
0.221607 0.723003 0.629129
0.358968 0.704219 0.624292
0.488319 0.692226 0.626184
0.604486 0.684764 0.640848
0.593011 0.705638 0.573709
0.879591 0.700557 0.373327
1 0.69044 0.335714
1 0.729931 0.364614
0.153597 0.829572 0.689967
0.277241 0.817899 0.690745
0.41091 0.796582 0.682933
0.51902 0.776364 0.67686
0.634806 0.756207 0.682612
0.687785 0.753155 0.67837
0.682261 0.789197 0.483009
1 0.799069 0.379004
1 0.81117 0.359503
0.206088 0.924605 0.752194
0.337575 0.907317 0.74641
0.464286 0.885847 0.737316
0.571252 0.867613 0.731502
0.694209 0.845853 0.734829
0.778302 0.834394 0.733303
0.764858 0.848341 0.705058
0.90808 0.889616 0.46273
1 0.912993 0.413214
0 0.0628214 0.416281
0 0.0411078 0.502113
0.0782788 0.0195773 0.556207
0.295995 0 0.515938
0.472511 0 0.483696
0.634394 0 0.462699
0.823972 0 0.453849
0.967758 0 0.47892
1 0.000808728 0.516564
0 0.126986 0.352697
0 0.11223 0.415259
0.0463111 0.093904 0.512749
0.288808 0.0736553 0.525597
0.496483 0.0674754 0.504753
0.670329 0.0604868 0.496345
0.876143 0.0675669 0.50454
1 0.100542 0.540307
1 0.141909 0.585794
0 0.205295 0.327428
0 0.199741 0.351583
0.0453498 0.200641 0.437888
0.276478 0.201862 0.553658
0.540322 0.211658 0.546593
0.722972 0.209354 0.545724
0.932754 0.222278 0.559869
1 0.258213 0.597681
1 0.297353 0.638437
0 0.338369 0.400381
0 0.358968 0.418509
0.0991989 0.380865 0.442466
0.26482 0.393103 0.515496
0.556985 0.391119 0.560021
0.743099 0.389105 0.560983
0.946197 0.398825 0.572595
1 0.426719 0.603098
1 0.456016 0.633326
0 0.496437 0.496696
0.0711986 0.526207 0.52665
0.203159 0.552132 0.552789
0.388968 0.559274 0.559823
0.562661 0.56144 0.56202
0.744732 0.55552 0.556802
0.936339 0.559319 0.560891
1 0.58233 0.584039
1 0.608011 0.609552
0.0257572 0.640406 0.585626
0.132067 0.663355 0.611063
0.28455 0.670741 0.622354
0.457053 0.664408 0.622965
0.609033 0.66392 0.633326
0.755398 0.673472 0.573663
0.93608 0.66392 0.545205
1 0.695964 0.571115
1 0.724804 0.59649
0.0819409 0.762066 0.661372
0.188998 0.772091 0.677607
0.34284 0.760815 0.675364
0.491402 0.744503 0.670451
0.631434 0.740719 0.676005
0.747204 0.743572 0.686854
0.907362 0.748196 0.552239
1 0.736797 0.504707
1 0.768948 0.5299
0.130922 0.869062 0.725765
0.251865 0.86566 0.731228
0.396811 0.844831 0.721843
0.519158 0.819867 0.71075
0.644953 0.807309 0.710307
0.781262 0.798398 0.720302
0.76321 0.815274 0.670481
1 0.812787 0.517998
1 0.80766 0.46746
0.18352 0.963867 0.790143
0.315587 0.950088 0.785306
0.45153 0.926574 0.772442
0.566125 0.90251 0.7608
0.679042 0.881712 0.753033
0.81033 0.859663 0.755657
0.860746 0.854368 0.749508
0.84921 0.88307 0.602289
1 0.897353 0.514183
0 0.0696117 0.556741
0 0.0508583 0.613428
0.0135195 0.0277256 0.659586
0.222095 0.00177005 0.652064
0.451759 0 0.603326
0.637995 0 0.580377
0.829175 0 0.57438
0.971649 0 0.598535
1 0.00314336 0.631403
0 0.133394 0.483024
0 0.115434 0.54435
0 0.0965133 0.61001
0.169711 0.0787213 0.651148
0.46389 0.0587625 0.622263
0.680781 0.0661936 0.62092
0.884901 0.0742046 0.62945
1 0.106264 0.662516
1 0.146075 0.703456
0 0.212055 0.416693
0 0.19585 0.456931
0 0.186435 0.53518
0.131624 0.191028 0.636774
0.490822 0.193591 0.662745
0.732647 0.218051 0.668666
0.94049 0.230701 0.683787
1 0.264332 0.718532
1 0.300801 0.754635
0 0.344121 0.456336
0 0.345159 0.46389
0.00799573 0.347097 0.499382
0.137224 0.366278 0.590982
0.462623 0.36817 0.672114
0.750774 0.396994 0.680919
0.952667 0.405295 0.693187
1 0.430228 0.719966
1 0.457694 0.747036
0 0.509468 0.553048
0.00822461 0.532113 0.575372
0.110903 0.555215 0.596994
0.247486 0.565026 0.608957
0.447715 0.561532 0.646357
0.749355 0.560159 0.673869
0.942168 0.562753 0.680018
1 0.583291 0.702953
1 0.607569 0.726879
0 0.662379 0.637369
0.0888685 0.685557 0.660716
0.213306 0.702464 0.677333
0.391302 0.70161 0.675731
0.559411 0.699092 0.672435
0.753826 0.700908 0.673838
0.940764 0.702068 0.678721
1 0.719814 0.698207
1 0.739467 0.717296
0.0462043 0.788373 0.698314
0.143557 0.805035 0.716579
0.293416 0.807858 0.721492
0.465614 0.799344 0.716197
0.625879 0.791821 0.714534
0.8065 0.79118 0.722454
0.943175 0.80145 0.681651
1 0.805249 0.678599
1 0.833005 0.698894
0.104814 0.900679 0.761456
0.2094 0.907607 0.773754
0.368536 0.896559 0.768292
0.514977 0.877272 0.757366
0.657801 0.860395 0.751461
0.823453 0.855268 0.75613
0.929198 0.857603 0.766705
1 0.867887 0.671016
1 0.858 0.643198
0.161898 0.996429 0.83122
0.286824 0.991608 0.831891
0.436759 0.972396 0.818189
0.56109 0.948684 0.802396
0.685618 0.923735 0.788159
0.830091 0.909499 0.785046
0.946548 0.901396 0.794949
0.930037 0.913695 0.745968
1 0.913161 0.638086
0 0.0805219 0.654459
0 0.06392 0.693675
0 0.0414893 0.737377
0.129076 0.0179141 0.757183
0.407797 0 0.707073
0.621744 0 0.668833
0.835447 0 0.663325
0.977508 0 0.687999
1 0.00852979 0.721218
0 0.143557 0.597498
0 0.12607 0.641367
0 0.107042 0.686595
0.0846876 0.0885481 0.733318
0.387854 0.0588388 0.722454
0.65481 0.0603952 0.707424
0.893843 0.0810101 0.720928
1 0.113497 0.754269
1 0.151507 0.793469
0 0.22443 0.51667
0 0.206607 0.559091
0 0.190311 0.617243
0.0556191 0.183337 0.688518
0.354314 0.183017 0.749447
0.692973 0.203845 0.754299
0.948684 0.2392 0.774212
1 0.271382 0.807721
1 0.305379 0.841962
0 0.351675 0.507958
0 0.342092 0.526055
0 0.328542 0.565072
0.0542306 0.333791 0.639597
0.281254 0.348135 0.728634
0.687404 0.373754 0.766613
0.956893 0.411444 0.780972
1 0.435126 0.806577
1 0.460868 0.832609
0 0.518135 0.587549
0 0.528374 0.601022
0.0136568 0.526818 0.609232
0.1093 0.528328 0.638239
0.295933 0.538369 0.696605
0.633021 0.537987 0.756497
0.946136 0.566979 0.766262
1 0.587228 0.788769
1 0.609461 0.811887
0 0.676524 0.67541
0.0336461 0.695964 0.69514
0.131807 0.712413 0.71194
0.268589 0.715419 0.714961
0.42887 0.704707 0.707164
0.614679 0.698222 0.731945
0.94551 0.704952 0.763104
1 0.72192 0.783413
1 0.740078 0.801297
0.00349432 0.807187 0.739986
0.101213 0.824872 0.757397
0.223392 0.83743 0.770169
0.397635 0.833097 0.765805
0.562112 0.827146 0.759731
0.75169 0.825055 0.757427
0.944396 0.82826 0.76109
1 0.841535 0.779736
1 0.854658 0.792416
0.0636454 0.921294 0.79942
0.160098 0.93579 0.814359
0.309087 0.935241 0.815198
0.477668 0.923812 0.805768
0.63798 0.913924 0.799023
0.826474 0.905196 0.795941
0.975494 0.907576 0.8065
1 0.919982 0.77203
1 0.914809 0.758846
0.138979 1 0.873411
0.242039 1 0.879393
0.401617 1 0.869856
0.549264 0.995117 0.856077
0.694987 0.976287 0.841642
0.855375 0.957626 0.829801
0.9794 0.952834 0.833585
1 0.954253 0.842954
1 0.95465 0.744167
0 0.0950027 0.72903
0 0.0783856 0.768322
0 0.0570382 0.809216
0.0659648 0.0321813 0.839002
0.330175 0 0.812055
0.58436 0 0.764248
0.827771 0 0.747326
0.981933 0 0.772107
1 0.00956741 0.804059
0 0.161257 0.666575
0 0.141451 0.710292
0 0.121309 0.757092
0.0285344 0.101381 0.8047
0.273594 0.0767071 0.8224
0.595148 0.0588846 0.800336
0.88072 0.0782788 0.803815
1 0.120699 0.840406
1 0.158053 0.87863
0 0.241093 0.588556
0 0.22414 0.629633
0 0.208331 0.681788
0 0.198154 0.74931
0.210178 0.197452 0.825254
0.595636 0.191409 0.839872
0.9281 0.23064 0.855695
1 0.278645 0.89192
1 0.31075 0.924407
0 0.36379 0.558572
0 0.353002 0.586236
0 0.339712 0.629099
0 0.330404 0.690486
0.147753 0.338369 0.777386
0.530602 0.344213 0.837201
0.925811 0.395621 0.861799
1 0.440253 0.887938
1 0.464897 0.913405
0 0.524804 0.613199
0 0.524453 0.624338
0 0.512123 0.637308
0.0227817 0.496468 0.667765
0.155489 0.507942 0.737026
0.451957 0.510353 0.805982
0.891478 0.545037 0.845533
1 0.5906 0.869978
1 0.612146 0.891829
0 0.687419 0.704875
0 0.699992 0.718898
0.0501869 0.704479 0.727291
0.128862 0.696254 0.7299
0.253117 0.681483 0.740078
0.466316 0.67335 0.775662
0.834012 0.679759 0.835142
1 0.724193 0.861982
1 0.741329 0.880293
0 0.821546 0.777737
0.0514687 0.837583 0.794232
0.148669 0.852216 0.809079
0.289693 0.851606 0.808896
0.44947 0.83946 0.79704
0.593698 0.826169 0.786908
0.812543 0.82179 0.811383
1 0.842985 0.854688
1 0.854612 0.867445
0.0231022 0.937453 0.839673
0.120134 0.953063 0.855299
0.240742 0.961791 0.864302
0.411399 0.953719 0.856458
0.571344 0.944015 0.846906
0.756237 0.937407 0.840467
0.942824 0.934157 0.837415
1 0.939742 0.845655
1 0.939559 0.849348
0.0978866 1 0.910842
0.194446 1 0.923827
0.341604 1 0.920546
0.506935 1 0.907408
0.662943 1 0.89485
0.84538 0.997559 0.879789
0.985122 0.986358 0.872374
1 0.984512 0.877928
1 0.986709 0.838361
0 0.108049 0.796872
0 0.0922408 0.836347
0 0.0720073 0.87483
0.0103761 0.0483711 0.904723
0.227131 0.01355 0.903441
0.522423 0 0.856764
0.803433 0 0.832273
0.980972 0 0.850385
1 0.018967 0.881956
0 0.177615 0.727825
0 0.158526 0.771984
0 0.138003 0.820142
0 0.11783 0.869154
0.163867 0.10277 0.907393
0.507103 0.0690471 0.890517
0.841199 0.0767376 0.886854
1 0.120836 0.917815
1 0.164279 0.956558
0 0.259937 0.644266
0 0.244831 0.689235
0 0.230564 0.743191
0 0.220645 0.809033
0.11873 0.219059 0.886656
0.474449 0.2009 0.919783
0.862348 0.220356 0.93431
1 0.275029 0.968017
1 0.31606 0.999847
0 0.379431 0.606149
0 0.370291 0.641443
0 0.359792 0.689387
0 0.352422 0.751049
0.082475 0.353353 0.830014
0.383307 0.351904 0.902235
0.818235 0.373922 0.936034
1 0.431189 0.963149
1 0.469215 0.987366
0 0.531746 0.643977
0 0.527733 0.660502
0 0.516854 0.683619
0 0.504219 0.722438
0.0805371 0.498604 0.781949
0.296864 0.500542 0.855268
0.705791 0.510719 0.907973
1 0.574945 0.941802
1 0.61503 0.965393
0 0.694636 0.729168
0 0.700298 0.739635
0 0.69543 0.746242
0.0439918 0.677546 0.752789
0.129839 0.657496 0.775494
0.310994 0.650477 0.820386
0.60763 0.645884 0.874205
1 0.700755 0.930343
1 0.742901 0.95288
0 0.832715 0.807843
0 0.845014 0.820615
0.0773938 0.853223 0.830137
0.161028 0.853086 0.833555
0.272526 0.828305 0.819791
0.419608 0.798825 0.813809
0.624277 0.792264 0.847105
0.994842 0.812406 0.913725
1 0.85449 0.938628
0 0.94995 0.878172
0.0759594 0.965057 0.893263
0.172107 0.978042 0.906188
0.316365 0.975021 0.902876
0.474678 0.960647 0.888426
0.619654 0.946899 0.874266
0.786328 0.932631 0.862379
0.977111 0.93109 0.886931
1 0.937713 0.913573
0.0618143 1 0.950698
0.157366 1 0.964401
0.276143 1 0.970123
0.44329 1 0.958297
0.597513 1 0.943618
0.771634 1 0.926604
0.944381 1 0.910582
1 1 0.909255
1 1 0.909285
