luts/stills/KA Ocean.cube
TITLE "Generated by Resolve"
LUT_3D_SIZE 33
0.0181888 0.0486763 0.117891
0.0355383 0.0461433 0.116228
0.053254 0.0437476 0.114733
0.0717479 0.0413672 0.11313
0.089662 0.0393683 0.111849
0.107469 0.0375372 0.110735
0.126619 0.0357977 0.109545
0.148806 0.0334936 0.107607
0.176974 0.0297398 0.103639
0.211246 0.0244297 0.0973678
0.247044 0.0189212 0.0914168
0.283757 0.0134737 0.0870527
0.321798 0.00766003 0.0829786
0.360632 0.00166323 0.0777752
0.39823 0 0.072221
0.435279 0 0.0666514
0.47068 0 0.0615702
0.508324 0 0.0563821
0.548257 0 0.0512245
0.589776 0 0.0461585
0.634485 0 0.0411231
0.684596 0 0.0358434
0.734386 0 0.0313268
0.782422 0 0.0280766
0.828443 0 0.0260014
0.868711 0 0.0268101
0.902846 0 0.0306249
0.935866 0 0.0359808
0.971969 0 0.0426642
1 0 0.0500191
1 0 0.0579995
1 0 0.0662242
1 0.00425727 0.0749218
0.0244602 0.0623941 0.125124
0.0415961 0.0652934 0.120684
0.0582437 0.061326 0.117418
0.0754711 0.0595712 0.115007
0.0928054 0.0578775 0.113664
0.110613 0.0562753 0.112291
0.129976 0.0542153 0.110292
0.152895 0.0513771 0.106783
0.182483 0.0467994 0.100893
0.216846 0.0412451 0.0937209
0.252308 0.0355993 0.0876478
0.288029 0.0301366 0.0838636
0.324742 0.0245823 0.0809186
0.362936 0.018677 0.076936
0.399969 0.0128634 0.0720226
0.436591 0.00723278 0.0667277
0.471931 0.00213626 0.0616922
0.509651 0 0.0566415
0.549905 0 0.0516976
0.591516 0 0.0468757
0.636728 0 0.0421454
0.687541 0 0.037705
0.738048 0 0.0339818
0.787015 0 0.0319219
0.83473 0 0.031693
0.876143 0 0.0340429
0.91249 0 0.0402228
0.947585 0 0.047776
0.984848 0 0.0555734
1 0.00819409 0.0640574
1 0.0171511 0.0726177
1 0.0267185 0.0816968
1 0.0365759 0.0910964
0.03122 0.076936 0.133394
0.0453498 0.0791943 0.136477
0.0656291 0.0820478 0.123644
0.0834669 0.0770886 0.118364
0.0991836 0.0742351 0.11603
0.116121 0.0724498 0.111284
0.135897 0.0700694 0.107118
0.160098 0.0667735 0.101823
0.190585 0.0620584 0.09514
0.224323 0.0566262 0.0883955
0.258946 0.0512398 0.0831311
0.293645 0.0459449 0.0801251
0.32903 0.0406806 0.0783856
0.36611 0.0351415 0.0755474
0.402197 0.0297246 0.0714885
0.438605 0.0244297 0.0666209
0.473503 0.0195926 0.0618448
0.511681 0.014725 0.0568551
0.551919 0.0103304 0.0523079
0.594263 0.00636301 0.0481117
0.640009 0.00248722 0.0439612
0.691691 0 0.0404059
0.743694 0 0.0384375
0.793973 0 0.0379034
0.843214 0 0.0395666
0.88687 0.00479133 0.0443427
0.9243 0.012665 0.0517281
0.960296 0.021622 0.0602579
0.998184 0.0305028 0.0686809
1 0.0402075 0.0779736
1 0.0500343 0.0874342
1 0.0603799 0.0973678
1 0.0708476 0.107454
0.0378119 0.0903639 0.141848
0.0547036 0.0917678 0.145724
0.0558022 0.0965286 0.139986
0.0888228 0.0975509 0.126314
0.10631 0.0927901 0.120653
0.122927 0.0886244 0.117159
0.140856 0.0858625 0.114488
0.163363 0.0829023 0.107317
0.193149 0.0784314 0.100587
0.226642 0.0730755 0.0928664
0.261967 0.0676127 0.0860456
0.29781 0.0621958 0.081117
0.333822 0.0569772 0.0781262
0.370428 0.0517433 0.0753338
0.405875 0.0467079 0.0715496
0.442222 0.0418555 0.0670939
0.477043 0.0375525 0.0628214
0.515877 0.0332799 0.0584268
0.556466 0.0294957 0.0544442
0.599634 0.0263981 0.0511177
0.646677 0.0240482 0.0484932
0.70013 0.0223239 0.046479
0.753307 0.0224613 0.0462654
0.806088 0.0248417 0.0483864
0.856504 0.0283513 0.0515145
0.900877 0.0347601 0.0575113
0.938827 0.0433814 0.0656748
0.975494 0.0529793 0.0749371
1 0.0630045 0.0845502
1 0.0730602 0.0942092
1 0.0836652 0.104448
1 0.0946822 0.115084
1 0.105623 0.125673
0.0439002 0.103227 0.15079
0.0620127 0.104112 0.155413
0.0716869 0.106554 0.157229
0.0735485 0.113985 0.13611
0.111025 0.112963 0.129198
0.129946 0.108019 0.123064
0.149905 0.102312 0.117922
0.173342 0.0975052 0.113527
0.201465 0.0927596 0.10869
0.232303 0.0880293 0.0992752
0.266346 0.0831159 0.0925002
0.302525 0.0779126 0.0861067
0.339605 0.0729076 0.0813001
0.377234 0.068101 0.0774853
0.412497 0.0637522 0.0737621
0.448508 0.0594492 0.0695811
0.483513 0.0558022 0.0657664
0.523247 0.0526894 0.0623941
0.565179 0.0503548 0.0598001
0.60943 0.0484932 0.0575875
0.657954 0.0476997 0.0564431
0.713756 0.0484779 0.0568551
0.768154 0.050309 0.0582895
0.821363 0.0537575 0.0614023
0.87245 0.0582895 0.065507
0.916884 0.0655833 0.0722972
0.955413 0.0751049 0.0813764
0.992798 0.085359 0.091249
1 0.0961166 0.101549
1 0.106981 0.11194
1 0.118334 0.12285
1 0.129717 0.133776
1 0.1411 0.144732
0.0491951 0.115755 0.160037
0.0681468 0.116548 0.164858
0.080705 0.118654 0.168383
0.0818494 0.123064 0.164553
0.0975814 0.131334 0.135698
0.134676 0.128923 0.131746
0.157809 0.123003 0.124727
0.18468 0.115084 0.117388
0.214054 0.107881 0.11104
0.244633 0.102159 0.105608
0.276951 0.0971847 0.100435
0.311666 0.0925765 0.0952316
0.348058 0.0880903 0.0857099
0.385245 0.0840772 0.0811933
0.42118 0.080705 0.0773785
0.457862 0.07776 0.0738689
0.493172 0.0753948 0.0709392
0.533959 0.0733959 0.0683604
0.576745 0.0727855 0.0671855
0.623072 0.0732586 0.0670787
0.673365 0.0742657 0.0676127
0.729931 0.0760967 0.068864
0.785031 0.0793774 0.0715953
0.838285 0.0834669 0.0751049
0.889647 0.089128 0.0802167
0.934157 0.0973831 0.0878614
0.972824 0.107698 0.0975662
1 0.119127 0.10837
1 0.130175 0.118883
1 0.14168 0.129763
1 0.153613 0.141024
1 0.165347 0.152117
1 0.177218 0.163424
0.0539559 0.128634 0.169268
0.0732738 0.129396 0.174716
0.0875563 0.131289 0.179767
0.0947127 0.134691 0.18143
0.0890516 0.142382 0.163409
0.121538 0.149722 0.138293
0.163333 0.146075 0.133959
0.193744 0.138308 0.125551
0.225269 0.128603 0.116701
0.257618 0.119783 0.109071
0.291035 0.112795 0.102434
0.325826 0.107362 0.0963302
0.362295 0.10309 0.0911421
0.397925 0.100038 0.0876326
0.432975 0.0973373 0.0797131
0.468757 0.0960098 0.0779278
0.505257 0.0955062 0.0766918
0.547494 0.0959335 0.076173
0.591394 0.0970474 0.0763104
0.638331 0.0987411 0.0770733
0.689906 0.101076 0.0784314
0.746746 0.104143 0.0805676
0.802289 0.108568 0.0841535
0.855741 0.113954 0.0886091
0.907134 0.120806 0.0944686
0.951339 0.130098 0.102922
0.990143 0.141253 0.113191
1 0.153368 0.124392
1 0.165194 0.135286
1 0.177417 0.146624
1 0.189548 0.157702
1 0.201602 0.168765
1 0.213779 0.180026
0.0577554 0.142077 0.17908
0.077409 0.143267 0.185199
0.0932326 0.145342 0.19173
0.102754 0.148608 0.194568
0.103456 0.153719 0.190524
0.0993057 0.165545 0.155398
0.14905 0.171374 0.141131
0.199939 0.165316 0.134737
0.234485 0.1561 0.125734
0.269566 0.145037 0.11635
0.304692 0.134905 0.107469
0.340169 0.12694 0.0997482
0.376761 0.121355 0.0940108
0.411353 0.117906 0.0907301
0.446586 0.116136 0.0891737
0.481895 0.115633 0.088304
0.518257 0.115663 0.0820783
0.560998 0.117586 0.0826123
0.605402 0.120394 0.0838941
0.653437 0.123629 0.0854963
0.70605 0.127596 0.0878004
0.763531 0.132418 0.0910811
0.818647 0.137987 0.0950027
0.872541 0.144991 0.100343
0.923308 0.153002 0.106859
0.966918 0.163516 0.115801
1 0.175998 0.126726
1 0.188479 0.137819
1 0.201129 0.148943
1 0.213748 0.159991
1 0.226123 0.170962
1 0.238712 0.18201
1 0.250828 0.192615
0.0603647 0.157137 0.188388
0.079942 0.158618 0.194858
0.0971847 0.16112 0.202472
0.109361 0.16495 0.207172
0.115953 0.169604 0.208301
0.10927 0.17789 0.192142
0.117784 0.193988 0.147066
0.186389 0.196017 0.14226
0.241276 0.18793 0.133532
0.279072 0.177523 0.124208
0.316686 0.165805 0.114885
0.353826 0.155367 0.106569
0.390997 0.14699 0.10013
0.425345 0.141238 0.0963455
0.459724 0.137652 0.094377
0.493965 0.136461 0.0935836
0.531456 0.137041 0.0931106
0.573739 0.139391 0.0934157
0.617319 0.142123 0.0883803
0.66659 0.147509 0.0911727
0.720455 0.153323 0.0942855
0.778317 0.15993 0.0985122
0.833478 0.167468 0.10341
0.886915 0.175662 0.10898
0.937301 0.185565 0.116289
0.979843 0.197498 0.125582
1 0.210758 0.136431
1 0.224399 0.14757
1 0.237507 0.158389
1 0.250462 0.168994
1 0.263462 0.179751
1 0.275837 0.190173
1 0.287907 0.200198
0.0617685 0.173907 0.196735
0.0817731 0.176562 0.204181
0.100084 0.179461 0.212818
0.114321 0.183352 0.21857
0.123705 0.188602 0.221363
0.124804 0.195117 0.21738
0.11426 0.207645 0.186755
0.144076 0.22536 0.147127
0.225254 0.222538 0.1449
0.281971 0.21387 0.136217
0.321523 0.203189 0.12694
0.360891 0.190814 0.117601
0.399649 0.179431 0.10988
0.435309 0.170397 0.10454
0.470634 0.16405 0.101244
0.504433 0.160494 0.0995193
0.542702 0.159716 0.0983597
0.58468 0.161776 0.0982681
0.629633 0.16585 0.0991226
0.678798 0.171847 0.100786
0.733532 0.178775 0.103426
0.790326 0.186542 0.102449
0.845487 0.195987 0.10811
0.898939 0.206119 0.114565
0.94844 0.217136 0.122057
0.990158 0.230793 0.132174
1 0.245182 0.143374
1 0.259266 0.154177
1 0.272877 0.164889
1 0.286519 0.175479
1 0.299321 0.185672
1 0.311803 0.195483
1 0.323919 0.205066
0.0627451 0.193423 0.205447
0.0830091 0.196567 0.213336
0.102998 0.200305 0.223056
0.119707 0.204929 0.230732
0.131991 0.210071 0.234668
0.138842 0.215961 0.235447
0.132357 0.224506 0.222583
0.124422 0.241398 0.177386
0.177874 0.253742 0.149355
0.265827 0.249058 0.146944
0.323415 0.240055 0.138277
0.363912 0.229496 0.129915
0.403708 0.217136 0.121019
0.440681 0.205615 0.113756
0.476799 0.196155 0.108446
0.511421 0.189776 0.105028
0.550958 0.18677 0.103166
0.593484 0.187243 0.10248
0.638941 0.190631 0.102708
0.689326 0.196872 0.104662
0.745541 0.204486 0.107362
0.80235 0.213397 0.111269
0.857404 0.223789 0.116579
0.909606 0.234089 0.117968
0.958419 0.247044 0.126421
0.999084 0.261982 0.136797
1 0.27744 0.148302
1 0.292317 0.159091
1 0.306477 0.169543
1 0.320211 0.179416
1 0.333562 0.189456
1 0.345953 0.19852
1 0.357778 0.207462
0.064683 0.215381 0.215198
0.085832 0.219486 0.22414
0.106767 0.223346 0.234226
0.125063 0.227604 0.242893
0.139513 0.232502 0.247761
0.14992 0.23798 0.250233
0.150896 0.244572 0.245945
0.139254 0.256367 0.222431
0.142687 0.276539 0.168795
0.218372 0.281163 0.150866
0.307668 0.27599 0.148272
0.365484 0.266758 0.139528
0.406073 0.25655 0.13196
0.443839 0.244678 0.124224
0.481163 0.233494 0.117571
0.516686 0.224399 0.112337
0.557382 0.218784 0.108919
0.600565 0.216922 0.107286
0.647349 0.218738 0.107271
0.698924 0.223957 0.108705
0.75639 0.231342 0.111437
0.813382 0.240452 0.11545
0.868482 0.251087 0.120562
0.920913 0.26273 0.126574
0.967758 0.276112 0.134066
1 0.290578 0.139803
1 0.307073 0.15108
1 0.322942 0.161883
1 0.337819 0.172137
1 0.351766 0.181643
1 0.365057 0.190768
1 0.37792 0.199527
1 0.389532 0.207568
0.0674601 0.239567 0.226017
0.0886244 0.24361 0.235157
0.110277 0.24744 0.245945
0.130175 0.251408 0.255604
0.146929 0.25565 0.262058
0.15967 0.26038 0.26479
0.167193 0.265919 0.264805
0.160189 0.274556 0.251957
0.145159 0.290349 0.214405
0.171572 0.312139 0.16257
0.260792 0.30869 0.152193
0.350561 0.303548 0.14873
0.407721 0.294926 0.140307
0.446677 0.285298 0.133043
0.485023 0.274662 0.125933
0.521385 0.264637 0.120043
0.563012 0.256748 0.115816
0.607263 0.252445 0.113664
0.654902 0.251942 0.11281
0.707317 0.255116 0.113588
0.766293 0.260853 0.11603
0.823011 0.269108 0.119478
0.878233 0.279423 0.124559
0.930327 0.290944 0.130144
0.976089 0.304524 0.137835
1 0.320195 0.147082
1 0.336095 0.156847
1 0.350713 0.162921
1 0.366171 0.172519
1 0.380758 0.181827
1 0.394369 0.190417
1 0.407019 0.198184
1 0.419104 0.205982
0.0704967 0.264912 0.23801
0.0917525 0.26891 0.247471
0.113909 0.27245 0.258976
0.135027 0.275883 0.269459
0.15407 0.279652 0.276341
0.169314 0.28397 0.279973
0.18085 0.288731 0.281209
0.181598 0.295079 0.275731
0.167819 0.306615 0.253315
0.156344 0.326482 0.202609
0.209537 0.343938 0.159686
0.306004 0.336736 0.152758
0.395026 0.332143 0.148562
0.447791 0.324575 0.140551
0.487343 0.31635 0.13434
0.524712 0.307301 0.128527
0.567422 0.298817 0.123751
0.612467 0.29308 0.120912
0.661402 0.290394 0.119463
0.714794 0.29099 0.119539
0.774594 0.294835 0.12134
0.83154 0.300816 0.124102
0.886442 0.30959 0.128237
0.938552 0.320211 0.133669
0.982818 0.333547 0.140902
1 0.348653 0.149813
1 0.364233 0.159121
1 0.379461 0.167544
1 0.394003 0.175616
1 0.406851 0.180148
1 0.420752 0.188205
1 0.433814 0.195743
1 0.446281 0.202808
0.0737774 0.29189 0.251499
0.0949569 0.295506 0.26128
0.117556 0.298833 0.272648
0.139956 0.301885 0.283482
0.16112 0.304784 0.29131
0.179309 0.308125 0.295521
0.193194 0.312398 0.296941
0.200717 0.317266 0.295689
0.192889 0.326131 0.282475
0.175357 0.341604 0.247272
0.178363 0.365637 0.188144
0.254322 0.373526 0.158053
0.354467 0.366033 0.152819
0.437873 0.362921 0.148409
0.488594 0.356832 0.141512
0.527001 0.350225 0.13666
0.570718 0.343008 0.132143
0.616831 0.33727 0.129046
0.66688 0.333333 0.126986
0.720989 0.331777 0.126024
0.781125 0.333059 0.126894
0.838666 0.336904 0.129091
0.893248 0.34313 0.132326
0.945129 0.351705 0.137133
0.988373 0.363607 0.143709
1 0.377737 0.152041
1 0.392294 0.160143
1 0.40679 0.168154
1 0.420615 0.175189
1 0.434043 0.181964
1 0.446967 0.188373
1 0.459327 0.194278
1 0.471061 0.199145
0.0776837 0.320974 0.266712
0.0988785 0.324086 0.276081
0.121996 0.326543 0.287556
0.145663 0.329046 0.298558
0.16878 0.331304 0.306615
0.18967 0.333806 0.311177
0.205524 0.337453 0.313481
0.216403 0.341375 0.313573
0.21709 0.347784 0.307744
0.202853 0.358877 0.286244
0.184802 0.378622 0.239475
0.21004 0.403449 0.181262
0.297917 0.404257 0.159976
0.400031 0.397284 0.155825
0.479332 0.395987 0.151629
0.528328 0.391592 0.145281
0.573358 0.38703 0.141085
0.620508 0.382925 0.137926
0.671046 0.37879 0.135241
0.725933 0.37586 0.133272
0.786435 0.375082 0.13312
0.843885 0.37644 0.134295
0.898772 0.380148 0.136599
0.949493 0.386267 0.140185
0.992355 0.396185 0.146319
1 0.408057 0.153582
1 0.421012 0.161105
1 0.434119 0.16791
1 0.446967 0.174411
1 0.459709 0.180346
1 0.471977 0.186175
1 0.484306 0.19205
1 0.4963 0.197711
0.0822919 0.351797 0.283436
0.103899 0.35462 0.29308
0.127596 0.356512 0.30399
0.152361 0.35787 0.314473
0.177646 0.359319 0.323201
0.200183 0.360922 0.328145
0.218173 0.363684 0.330846
0.230762 0.367193 0.331487
0.237888 0.372045 0.329686
0.230564 0.380224 0.317205
0.213764 0.394858 0.286976
0.200595 0.417853 0.23032
0.25005 0.441596 0.176394
0.34435 0.435859 0.162722
0.443626 0.430564 0.160327
0.519905 0.430915 0.156115
0.575906 0.42916 0.150866
0.623575 0.427115 0.147082
0.674266 0.424079 0.143847
0.729503 0.421073 0.141131
0.790066 0.41912 0.139834
0.847486 0.418647 0.139696
0.901991 0.420066 0.140688
0.952529 0.423743 0.143328
0.994171 0.430869 0.148272
1 0.440772 0.154971
1 0.450874 0.161303
1 0.461997 0.167315
1 0.473533 0.173098
1 0.485008 0.178714
1 0.496742 0.184085
1 0.508675 0.189837
1 0.520195 0.195361
0.0882277 0.384802 0.302159
0.109834 0.387167 0.311482
0.134432 0.388663 0.322362
0.160418 0.389105 0.332692
0.187671 0.389136 0.340978
0.21181 0.390082 0.34696
0.231067 0.39176 0.349813
0.246113 0.39472 0.351171
0.256321 0.39823 0.350545
0.256809 0.404532 0.344381
0.243824 0.415396 0.324514
0.226093 0.433341 0.283864
0.226246 0.459358 0.221485
0.295048 0.476478 0.177905
0.395544 0.469398 0.166476
0.489937 0.466773 0.165423
0.567575 0.468727 0.161746
0.626017 0.468223 0.156985
0.676982 0.466896 0.153033
0.732433 0.46482 0.149264
0.792599 0.462654 0.146944
0.84947 0.461067 0.145373
0.903914 0.4607 0.145251
0.953902 0.462348 0.146731
0.994949 0.467231 0.150637
1 0.474281 0.155886
1 0.482597 0.161517
1 0.491279 0.166598
1 0.500877 0.171908
1 0.511131 0.177218
1 0.521904 0.182406
1 0.533227 0.187823
1 0.544167 0.193057
0.0948348 0.417655 0.322683
0.117296 0.42034 0.332403
0.142611 0.421439 0.343008
0.170535 0.421408 0.353155
0.199634 0.420935 0.36173
0.224964 0.420661 0.367697
0.246021 0.421607 0.371725
0.262364 0.423606 0.372992
0.274449 0.426719 0.372961
0.281437 0.431174 0.370657
0.274678 0.439292 0.357931
0.258793 0.453407 0.329809
0.241779 0.475746 0.277104
0.263432 0.502907 0.214755
0.347585 0.512474 0.180652
0.44741 0.505135 0.17052
0.536873 0.504524 0.170169
0.618952 0.507454 0.166903
0.679423 0.506996 0.161944
0.734859 0.506111 0.158068
0.794522 0.504601 0.154635
0.850721 0.502831 0.151827
0.904601 0.501366 0.150317
0.953841 0.501549 0.150393
0.994125 0.504768 0.15314
1 0.509819 0.157458
1 0.515572 0.16173
1 0.522515 0.16643
1 0.530251 0.171069
1 0.538918 0.176104
1 0.54818 0.181201
1 0.558328 0.186328
1 0.568444 0.191287
0.102586 0.45127 0.345373
0.125368 0.453498 0.354788
0.152148 0.454597 0.365621
0.182223 0.454017 0.375784
0.21236 0.452796 0.384466
0.239246 0.452415 0.391516
0.261906 0.452628 0.395254
0.280125 0.454261 0.397391
0.29427 0.45684 0.397772
0.304097 0.460075 0.396368
0.305058 0.466239 0.389899
0.293202 0.476982 0.370428
0.276402 0.494774 0.333059
0.266133 0.520562 0.269718
0.311269 0.546212 0.210803
0.403738 0.547723 0.184314
0.497581 0.540093 0.175769
0.589654 0.541634 0.176501
0.672114 0.54432 0.172335
0.73727 0.544106 0.167224
0.796033 0.543481 0.16318
0.851698 0.542351 0.159228
0.904906 0.540932 0.156313
0.953246 0.54049 0.155016
0.993011 0.542535 0.156847
1 0.546197 0.160159
1 0.550591 0.163577
1 0.55552 0.167224
1 0.561669 0.171511
1 0.568704 0.176043
1 0.576333 0.180606
1 0.584634 0.18555
1 0.593439 0.190158
0.11107 0.484962 0.369879
0.134798 0.487251 0.37937
0.162722 0.487617 0.389639
0.194903 0.486641 0.399908
0.225971 0.484947 0.409033
0.253925 0.483894 0.417258
0.277943 0.483879 0.422202
0.298161 0.484718 0.424887
0.313817 0.486702 0.425696
0.325597 0.489784 0.424857
0.33196 0.494087 0.420966
0.326558 0.502556 0.407187
0.311925 0.516472 0.379492
0.295979 0.53753 0.331456
0.298955 0.56434 0.261692
0.365728 0.586069 0.20766
0.456138 0.580819 0.188571
0.545739 0.57322 0.181201
0.642557 0.576562 0.182589
0.729076 0.57879 0.177523
0.797986 0.578973 0.172259
0.852995 0.578637 0.168139
0.905653 0.578027 0.164431
0.953475 0.578027 0.161959
0.992676 0.579995 0.162646
1 0.583032 0.164813
1 0.586267 0.167361
1 0.58996 0.170306
1 0.594247 0.173526
1 0.599603 0.177264
1 0.605692 0.181353
1 0.61236 0.185504
1 0.619776 0.189899
0.121187 0.518746 0.396323
0.145373 0.520409 0.405783
0.175082 0.520607 0.416556
0.208103 0.518868 0.426902
0.239643 0.516945 0.436179
0.268757 0.515785 0.443534
0.294286 0.515236 0.448722
0.315618 0.515435 0.451804
0.332998 0.516854 0.453452
0.346532 0.518791 0.45362
0.356451 0.522133 0.452537
0.357259 0.528023 0.444709
0.347082 0.538628 0.424414
0.331746 0.555062 0.387533
0.317601 0.579034 0.327688
0.339025 0.60502 0.256825
0.417365 0.61944 0.210224
0.50486 0.611872 0.193301
0.597787 0.604852 0.187732
0.698375 0.609201 0.188876
0.790555 0.611521 0.183124
0.855253 0.612497 0.177996
0.907271 0.612924 0.173922
0.954665 0.613779 0.171328
0.993378 0.61619 0.170977
1 0.619135 0.171801
1 0.621744 0.173327
1 0.624521 0.175265
1 0.627756 0.177615
1 0.631449 0.18027
1 0.635889 0.18349
1 0.641108 0.18703
1 0.64686 0.190814
0.132052 0.551644 0.426825
0.157595 0.55317 0.435889
0.188678 0.552392 0.445182
0.222324 0.550546 0.454658
0.254108 0.548409 0.463188
0.283909 0.546593 0.470039
0.310613 0.545632 0.475334
0.33315 0.545373 0.478553
0.352148 0.545892 0.480842
0.367071 0.547585 0.481956
0.378271 0.549905 0.481224
0.385122 0.553964 0.47808
0.380575 0.561837 0.466163
0.367239 0.574243 0.439078
0.352743 0.592935 0.392447
0.344121 0.618555 0.32221
0.383352 0.642206 0.252674
0.464988 0.649439 0.212924
0.553048 0.641535 0.198215
0.649454 0.634897 0.193576
0.759548 0.640986 0.194766
0.84828 0.644038 0.189441
0.909361 0.645853 0.184573
0.956115 0.647593 0.181567
0.994293 0.650843 0.180896
1 0.654047 0.181064
1 0.656519 0.181247
1 0.658839 0.181765
1 0.661189 0.183246
1 0.663813 0.185168
1 0.667002 0.187335
1 0.670573 0.189807
1 0.6748 0.192782
0.143755 0.583841 0.457527
0.170352 0.584634 0.465171
0.20322 0.583581 0.473518
0.236881 0.581247 0.481544
0.269368 0.578943 0.489204
0.299748 0.576547 0.496208
0.327047 0.574914 0.501625
0.350896 0.573877 0.505562
0.370932 0.573907 0.508492
0.387228 0.57467 0.509728
0.399817 0.576715 0.509819
0.409262 0.579416 0.50837
0.410376 0.585168 0.501396
0.401785 0.594827 0.483955
0.387518 0.609384 0.449866
0.373342 0.630533 0.391669
0.375601 0.656504 0.314656
0.429847 0.677165 0.247578
0.511498 0.678248 0.215396
0.605097 0.670604 0.203037
0.706767 0.665843 0.200427
0.820203 0.672801 0.200946
0.902861 0.676539 0.196078
0.957336 0.679774 0.192309
0.995102 0.683757 0.191073
1 0.687648 0.190814
1 0.69044 0.190234
1 0.692561 0.189837
1 0.694469 0.189975
1 0.696422 0.190646
1 0.698466 0.192035
1 0.700923 0.19379
1 0.703746 0.195727
0.156374 0.614618 0.487572
0.184558 0.614878 0.494972
0.217441 0.612985 0.502083
0.251514 0.610437 0.509773
0.284215 0.607614 0.516869
0.315358 0.604868 0.52314
0.343633 0.602777 0.528344
0.36817 0.601648 0.531762
0.389349 0.600366 0.535637
0.406775 0.600885 0.53695
0.419501 0.60209 0.536965
0.429389 0.604471 0.536034
0.435126 0.608377 0.532845
0.431525 0.615488 0.521584
0.420706 0.627085 0.498451
0.40734 0.644083 0.456489
0.394522 0.667674 0.384756
0.412116 0.692531 0.305089
0.476799 0.709758 0.242359
0.560174 0.706416 0.218036
0.658854 0.699229 0.207813
0.770932 0.696986 0.207294
0.877485 0.704311 0.207935
0.952087 0.709026 0.203983
0.995895 0.714656 0.202441
1 0.719478 0.201434
1 0.722698 0.199863
1 0.725155 0.198825
1 0.727062 0.197848
1 0.728618 0.197345
1 0.730083 0.197467
1 0.731655 0.198154
1 0.732967 0.199268
0.169162 0.644602 0.517342
0.198825 0.643793 0.523552
0.232013 0.641581 0.530602
0.265873 0.638254 0.537545
0.299245 0.634852 0.54464
0.330831 0.631357 0.550561
0.35964 0.628901 0.554788
0.384985 0.626978 0.557656
0.406928 0.626154 0.559625
0.423667 0.626017 0.560723
0.437675 0.627054 0.56109
0.448814 0.62887 0.560708
0.45684 0.631479 0.558938
0.458167 0.63679 0.55317
0.45069 0.645655 0.538567
0.438209 0.659236 0.509377
0.425757 0.678416 0.458259
0.418967 0.703578 0.375311
0.449546 0.727077 0.295781
0.522744 0.74049 0.240574
0.612573 0.734279 0.221866
0.716548 0.727108 0.213367
0.832532 0.72755 0.214679
0.930648 0.735485 0.21503
0.991135 0.742779 0.213565
1 0.748928 0.212558
1 0.753079 0.210864
1 0.756161 0.208713
1 0.758312 0.207004
1 0.759655 0.205539
1 0.760769 0.204242
1 0.761563 0.203647
1 0.762463 0.203632
0.181659 0.673121 0.544747
0.212406 0.671839 0.550088
0.245441 0.668971 0.555642
0.279957 0.665476 0.5617
0.313603 0.661418 0.567407
0.3458 0.657694 0.572931
0.375097 0.654292 0.577157
0.401373 0.651957 0.580484
0.422782 0.650431 0.581964
0.440467 0.650202 0.58291
0.455161 0.65098 0.583062
0.466819 0.652384 0.582238
0.476432 0.654688 0.581048
0.481407 0.658335 0.578012
0.478355 0.6654 0.569421
0.468498 0.676265 0.551553
0.45594 0.691783 0.516808
0.444312 0.713024 0.454597
0.44686 0.738766 0.365164
0.491951 0.760082 0.288518
0.570672 0.768383 0.242527
0.666499 0.762249 0.226429
0.779934 0.755093 0.219364
0.890288 0.757839 0.222309
0.974365 0.767697 0.224109
1 0.776394 0.22388
1 0.781582 0.221836
1 0.78526 0.219516
1 0.78793 0.216861
1 0.789792 0.214237
1 0.790692 0.212192
1 0.791211 0.210407
1 0.791562 0.20914
0.19501 0.700618 0.569039
0.225818 0.698619 0.573175
0.259007 0.695674 0.577783
0.293507 0.691539 0.582895
0.32752 0.687404 0.588006
0.359716 0.683253 0.592401
0.389776 0.680003 0.595575
0.415457 0.677775 0.597055
0.436713 0.676753 0.597742
