luts/stills/KA Ocean.cube
TITLE "Generated by Resolve"
LUT_3D_SIZE 5
0.0181888 0.0486763 0.117891
0.176974 0.0297398 0.103639
0.47068 0 0.0615702
0.828443 0 0.0260014
1 0.00425727 0.0749218
0.0603647 0.157137 0.188388
0.241276 0.18793 0.133532
0.531456 0.137041 0.0931106
0.937301 0.185565 0.116289
1 0.287907 0.200198
0.0822919 0.351797 0.283436
0.237888 0.372045 0.329686
0.575906 0.42916 0.150866
0.994171 0.430869 0.148272
1 0.520195 0.195361
0.156374 0.614618 0.487572
0.389349 0.600366 0.535637
0.394522 0.667674 0.384756
0.995895 0.714656 0.202441
1 0.732967 0.199268
0.263691 0.827695 0.667613
0.509331 0.793637 0.682414
0.623102 0.800061 0.681239
0.70454 0.927108 0.322316
1 0.938567 0.257404
0 0.0529488 0.217075
0.186435 0.0330968 0.249241
0.473289 0 0.197467
0.825391 0 0.16582
1 0.00172427 0.225025
0 0.19263 0.234501
0.213306 0.229282 0.26772
0.528176 0.198596 0.242283
0.925414 0.214649 0.260456
1 0.299702 0.342
0.044358 0.433967 0.354849
0.296178 0.463951 0.417838
0.556176 0.486488 0.278416
0.934295 0.471931 0.252323
1 0.577279 0.321981
0.129595 0.683131 0.573831
0.366934 0.662242 0.582315
0.535149 0.642298 0.590723
0.904738 0.688914 0.270527
1 0.72105 0.274907
0.228626 0.886809 0.7187
0.473762 0.854551 0.710765
0.686503 0.821881 0.71754
0.677607 0.86772 0.62829
1 0.929366 0.333181
0 0.0628214 0.416281
0.0782788 0.0195773 0.556207
0.472511 0 0.483696
0.823972 0 0.453849
1 0.000808728 0.516564
0 0.205295 0.327428
0.0453498 0.200641 0.437888
0.540322 0.211658 0.546593
0.932754 0.222278 0.559869
1 0.297353 0.638437
0 0.496437 0.496696
0.203159 0.552132 0.552789
0.562661 0.56144 0.56202
0.936339 0.559319 0.560891
1 0.608011 0.609552
0.0819409 0.762066 0.661372
0.34284 0.760815 0.675364
0.631434 0.740719 0.676005
0.907362 0.748196 0.552239
1 0.768948 0.5299
0.18352 0.963867 0.790143
0.45153 0.926574 0.772442
0.679042 0.881712 0.753033
0.860746 0.854368 0.749508
1 0.897353 0.514183
0 0.0805219 0.654459
0 0.0414893 0.737377
0.407797 0 0.707073
0.835447 0 0.663325
1 0.00852979 0.721218
0 0.22443 0.51667
0 0.190311 0.617243
0.354314 0.183017 0.749447
0.948684 0.2392 0.774212
1 0.305379 0.841962
0 0.518135 0.587549
0.0136568 0.526818 0.609232
0.295933 0.538369 0.696605
0.946136 0.566979 0.766262
1 0.609461 0.811887
0.00349432 0.807187 0.739986
0.223392 0.83743 0.770169
0.562112 0.827146 0.759731
0.944396 0.82826 0.76109
1 0.854658 0.792416
0.138979 1 0.873411
0.401617 1 0.869856
0.694987 0.976287 0.841642
0.9794 0.952834 0.833585
1 0.95465 0.744167
0 0.108049 0.796872
0 0.0720073 0.87483
0.227131 0.01355 0.903441
0.803433 0 0.832273
1 0.018967 0.881956
0 0.259937 0.644266
0 0.230564 0.743191
0.11873 0.219059 0.886656
0.862348 0.220356 0.93431
1 0.31606 0.999847
0 0.531746 0.643977
0 0.516854 0.683619
0.0805371 0.498604 0.781949
0.705791 0.510719 0.907973
1 0.61503 0.965393
0 0.832715 0.807843
0.0773938 0.853223 0.830137
0.272526 0.828305 0.819791
0.624277 0.792264 0.847105
1 0.85449 0.938628
0.0618143 1 0.950698
0.276143 1 0.970123
0.597513 1 0.943618
0.944381 1 0.910582
1 1 0.909285
