luts/stills/KA Pacific.cube
TITLE "Generated by Resolve"
LUT_3D_SIZE 9
0.0393072 0.0393072 0.0393072
0.10193 0.0477302 0.0369726
0.192691 0.0477607 0.0261234
0.346029 0.0311437 0
0.469657 0.0240635 0
0.582177 0.0198672 0
0.672831 0.0232395 0
0.760204 0.0307317 0
0.848264 0.0416419 0
0.0516976 0.120546 0.0573129
0.117235 0.128557 0.0394598
0.240909 0.123888 0.0402686
0.393973 0.110033 0.01738
0.535225 0.104479 0.0142214
0.650919 0.107866 0.0181735
0.755367 0.117983 0.0285649
0.85568 0.132082 0.0386206
0.956054 0.148318 0.0483558
0.0503548 0.200763 0.0591592
0.0989242 0.209186 0.144884
0.247089 0.204852 0.0113222
0.449485 0.219669 0.041474
0.570291 0.233371 0.0412451
0.676051 0.249378 0.0400397
0.784863 0.263172 0.0532387
0.888869 0.276768 0.0673686
0.992508 0.289494 0.0807507
0.0358129 0.292103 0.0454261
0.0796826 0.297642 0.124727
0.144518 0.326802 0.19527
0.385122 0.292332 0
0.611383 0.346883 0.0475013
0.718807 0.387274 0.0727092
0.80235 0.407233 0.0694438
0.88983 0.426291 0.0670024
0.988815 0.440009 0.0743572
0.0325322 0.400351 0.0431067
0.0699779 0.393805 0.0859083
0.141451 0.408835 0.238651
0.18468 0.453925 0.151537
0.514 0.396338 0
0.717113 0.455741 0.0334936
0.844785 0.534264 0.09337
0.926329 0.549691 0.0972457
0.999985 0.562264 0.0843824
0.0433356 0.52343 0.056672
0.0802625 0.511467 0.0768749
0.133593 0.504479 0.239719
0.256931 0.535103 0.333761
0.282673 0.581872 0.0417639
0.63447 0.513176 0
0.809339 0.559564 0.0140383
0.94522 0.634012 0.087602
1 0.652857 0.098558
0.0652171 0.635233 0.0812543
0.100771 0.624231 0.085893
0.135546 0.618189 0.234241
0.265049 0.618936 0.385306
0.375875 0.643915 0.401022
0.448646 0.681178 0
0.738445 0.622278 0
0.892119 0.641108 0
1 0.707027 0.0746166
0.0975967 0.740291 0.116564
0.133577 0.729076 0.11133
0.163256 0.72343 0.226703
0.267842 0.699519 0.408087
0.405371 0.716213 0.494163
0.45095 0.735927 0.407507
0.606012 0.750149 0
0.829267 0.703456 0
0.977783 0.710613 0
0.118181 0.828504 0.139879
0.155306 0.817548 0.12813
0.182849 0.807645 0.212955
0.260136 0.782528 0.418952
0.401633 0.771954 0.525872
0.492073 0.7897 0.558633
0.500359 0.827817 0.320226
0.717098 0.817777 0
0.915434 0.775921 0
0.0341497 0.0398718 0.135332
0.109865 0.0449073 0.133333
0.208865 0.0421759 0.118883
0.382879 0.0174258 0.10869
0.496773 0.0102235 0.0827955
0.582498 0.0124208 0.0521553
0.659983 0.0184329 0.0339361
0.738964 0.0265202 0.0234073
0.820233 0.037232 0.0181735
0.0379034 0.129366 0.128832
0.108217 0.135027 0.134981
0.209857 0.134218 0.122438
0.364996 0.122194 0.099382
0.494087 0.121736 0.0874037
0.611505 0.127184 0.081529
0.710765 0.140688 0.0835279
0.8065 0.157382 0.0888991
0.901396 0.175708 0.0956893
0.0379187 0.230625 0.122454
0.114183 0.233585 0.146563
0.242771 0.235111 0.121172
0.414466 0.240299 0.130236
0.556085 0.244694 0.12488
0.678828 0.255055 0.13608
0.786908 0.268513 0.150134
0.889937 0.282078 0.164187
0.989761 0.295506 0.172747
0.0788739 0.343923 0.18793
0.109667 0.342199 0.143694
0.195407 0.35021 0.2636
0.399405 0.337484 0.0905623
0.598489 0.384497 0.147112
0.691737 0.402747 0.146654
0.785168 0.419806 0.145052
0.888212 0.432807 0.157473
0.99118 0.444144 0.16965
0.117128 0.449561 0.285512
0.105898 0.441123 0.13904
0.162112 0.439902 0.238041
0.302968 0.454658 0.317067
0.513436 0.424659 0.0531472
0.720302 0.503883 0.147463
0.821973 0.548379 0.176715
0.897688 0.562905 0.167285
0.978103 0.572473 0.155703
0.133928 0.554009 0.337835
0.106126 0.545068 0.13933
0.145815 0.528252 0.181567
0.279194 0.522789 0.357733
0.34197 0.566064 0.248539
0.619974 0.520241 0.0225834
0.806699 0.592569 0.120943
0.927489 0.653223 0.181567
1 0.661326 0.180575
0.160082 0.655985 0.391699
0.130205 0.655833 0.166979
0.168551 0.635447 0.176867
0.260563 0.612268 0.362509
0.405219 0.639963 0.460136
0.429892 0.684153 0.132158
0.72398 0.626719 0.0117952
0.885588 0.660578 0.0908064
1 0.729412 0.177142
0.181491 0.746914 0.433433
0.158556 0.755535 0.198657
0.204562 0.735805 0.192966
0.263798 0.714153 0.367163
0.407187 0.702037 0.500252
0.495399 0.722194 0.515251
0.567254 0.75845 0.0424353
0.814588 0.706462 0
0.96791 0.724132 0.062974
0.189654 0.824506 0.455833
0.174304 0.837705 0.216785
0.228977 0.819043 0.201282
0.280873 0.797589 0.336782
0.399466 0.763745 0.507759
0.517998 0.783215 0.592554
0.5608 0.800702 0.513726
0.690501 0.823224 0
0.900587 0.778393 0
0.0270542 0.0392309 0.26569
0.10428 0.0441901 0.259892
0.226856 0.0347753 0.2392
0.353262 0.0235904 0.169711
0.495918 0.0108644 0.179843
0.626642 0.00143435 0.211719
0.723705 0.00198367 0.217777
0.80911 0.00810254 0.206149
0.885878 0.0209964 0.17995
0.016907 0.137011 0.238285
0.101793 0.136034 0.267628
0.226398 0.128298 0.245533
0.376745 0.116838 0.215015
0.530221 0.107103 0.228244
0.626963 0.110353 0.201328
0.703914 0.125231 0.171496
0.785519 0.142657 0.159777
0.870985 0.160739 0.157488
0.0234531 0.235966 0.233875
0.0991989 0.25034 0.24918
0.227298 0.254108 0.254063
0.390372 0.251987 0.234241
0.527581 0.259037 0.224048
0.645396 0.272404 0.219883
0.744976 0.289601 0.219669
0.838849 0.306813 0.220264
0.930114 0.323308 0.220722
0.0274357 0.378027 0.228977
0.110262 0.397971 0.255711
0.251713 0.38349 0.27248
0.412253 0.382544 0.229847
0.565499 0.400122 0.255756
0.678431 0.410163 0.253544
0.785321 0.422812 0.266697
0.887892 0.43537 0.280247
0.989212 0.44654 0.292256
0.0461738 0.527108 0.250034
0.186694 0.509194 0.353017
0.244465 0.486656 0.270069
0.36672 0.481147 0.399512
0.536156 0.477119 0.18349
0.709865 0.542794 0.285267
0.792859 0.559335 0.27895
0.876738 0.570184 0.265034
0.971344 0.573754 0.267842
0.102358 0.6495 0.324361
0.261631 0.589349 0.43566
0.218433 0.573617 0.254536
0.316884 0.554559 0.358618
0.439002 0.578912 0.447913
0.625299 0.553124 0.134691
0.807309 0.630045 0.262867
0.902495 0.660853 0.302815
0.977005 0.669383 0.28307
0.187366 0.730373 0.476326
0.301396 0.67219 0.485008
0.224125 0.665125 0.264698
0.291615 0.632731 0.29604
0.417609 0.629053 0.478767
0.472602 0.666453 0.38294
0.710002 0.631495 0.104601
0.885267 0.688136 0.213397
1 0.745007 0.314137
0.272251 0.783978 0.572442
0.321294 0.74609 0.520073
0.251713 0.75581 0.290791
0.323461 0.722377 0.285237
0.401633 0.695064 0.477241
0.52311 0.717006 0.568109
0.546532 0.758633 0.214664
0.799847 0.709453 0.0860456
0.962722 0.743648 0.170565
0.335378 0.83714 0.622721
0.329213 0.816312 0.54313
0.27013 0.831846 0.306661
0.34844 0.800595 0.282277
0.395987 0.776135 0.46923
0.51693 0.7682 0.595453
0.600229 0.789319 0.608637
0.658885 0.829023 0.112474
0.885756 0.781048 0.066331
0.0177768 0.0365148 0.426368
0.10338 0.0400244 0.421866
0.200458 0.0375525 0.41352
0.384909 0.0106203 0.364553
0.497917 0.00135805 0.28368
0.583886 0.00308232 0.251942
0.698772 0.00732433 0.306065
0.813733 0.0107576 0.365438
0.9178 0.0174868 0.390936
0 0.15285 0.320897
0.0953841 0.137728 0.434745
0.222232 0.131289 0.412695
0.391806 0.11104 0.379156
0.489494 0.104219 0.302037
0.628626 0.113787 0.342916
0.75523 0.125978 0.402152
0.857389 0.136187 0.417716
0.947784 0.147921 0.409857
0.00288396 0.26389 0.436408
0.0782788 0.266987 0.399237
0.219181 0.262272 0.425711
0.406104 0.247257 0.399741
0.539818 0.249851 0.38323
0.674113 0.254963 0.413794
0.757397 0.260639 0.386389
0.828489 0.27744 0.345403
0.905821 0.295506 0.32163
0.012726 0.383108 0.380148
0.094789 0.403967 0.402167
0.224018 0.411551 0.410819
0.4047 0.403983 0.404028
0.541207 0.407889 0.38996
0.654002 0.418997 0.383658
0.751186 0.436362 0.381003
0.844068 0.453254 0.377981
0.934386 0.468589 0.374212
0.0333257 0.532174 0.3879
0.112673 0.550347 0.409689
0.260258 0.550484 0.416236
0.417899 0.524712 0.419623
0.555016 0.527321 0.379629
0.681086 0.553826 0.417533
0.776608 0.56231 0.414572
0.871351 0.567346 0.41915
0.964828 0.570428 0.423194
0.0674754 0.667994 0.421469
0.151308 0.682902 0.447562
0.379263 0.637949 0.498604
0.407492 0.610636 0.411078
0.506828 0.609369 0.531853
0.649561 0.606516 0.318791
0.79678 0.657786 0.435569
0.873182 0.666911 0.42591
0.954742 0.672923 0.408759
0.103777 0.782528 0.460868
0.222721 0.772091 0.501137
0.429786 0.694484 0.569711
0.386542 0.67454 0.391424
0.453178 0.658656 0.487694
0.566873 0.673808 0.565103
0.714214 0.656077 0.237491
0.887663 0.721157 0.407889
0.987167 0.751156 0.45005
0.134386 0.870909 0.497337
0.358816 0.808774 0.593851
0.444724 0.75436 0.599634
0.380392 0.742336 0.386496
0.423713 0.713191 0.418677
0.533074 0.706004 0.582238
0.582544 0.738064 0.493492
0.785351 0.712718 0.18378
0.961822 0.768368 0.342611
0.206271 0.928512 0.588922
0.42855 0.856077 0.663279
0.452918 0.817319 0.621668
0.393454 0.816922 0.401694
0.439857 0.786557 0.398016
0.508293 0.760143 0.574182
0.622766 0.786618 0.649058
0.640391 0.824872 0.324773
0.870848 0.78352 0.159365
0.0105287 0.0351873 0.568109
0.101137 0.0374762 0.567483
0.209506 0.0345769 0.54786
0.365743 0.0142977 0.528176
0.519875 0 0.489586
0.622919 0 0.425437
0.676371 0.00047303 0.374517
0.765515 0.00917067 0.38294
0.885512 0.0249943 0.450874
0 0.166781 0.44007
0.0916457 0.142565 0.581964
0.240848 0.13315 0.562066
0.382437 0.122545 0.544747
0.537972 0.106188 0.512337
0.622553 0.0975967 0.436637
0.698894 0.109895 0.417319
0.832135 0.141299 0.49546
0.960067 0.158801 0.563897
0 0.269688 0.517815
0.0347601 0.293812 0.474128
0.223209 0.280293 0.583093
0.413031 0.264179 0.559289
0.560098 0.250797 0.541115
0.634913 0.23801 0.468345
0.760464 0.26804 0.52282
0.884978 0.286015 0.581872
0.985306 0.29308 0.595499
0.0030518 0.439017 0.587228
0.0909133 0.456992 0.60061
0.187091 0.44213 0.557961
0.40238 0.416098 0.561181
0.555169 0.404501 0.541711
0.661845 0.410208 0.530541
0.77789 0.419562 0.562737
0.853254 0.419318 0.53489
0.919905 0.431891 0.495048
0.0176394 0.537896 0.526223
0.0977951 0.55613 0.545617
0.223926 0.562814 0.55317
0.403342 0.554467 0.545754
0.553155 0.552422 0.54464
0.661555 0.559487 0.536446
0.752895 0.568917 0.530282
0.836759 0.578027 0.521065
0.919219 0.585443 0.510903
0.0587015 0.672221 0.551797
0.138155 0.687953 0.571542
0.276555 0.685145 0.569574
0.438163 0.672145 0.561135
0.563561 0.646326 0.55668
0.666239 0.646479 0.519478
0.771237 0.665187 0.552987
0.857862 0.668681 0.547143
0.949371 0.669993 0.547875
0.0899214 0.785748 0.579614
0.163394 0.793423 0.593744
0.31664 0.77882 0.583215
0.523949 0.732006 0.619165
0.542428 0.703136 0.538857
0.623819 0.700267 0.634562
0.735348 0.697353 0.453376
0.882124 0.750317 0.569574
0.958724 0.757626 0.559838
0.107393 0.879423 0.596704
0.185657 0.882994 0.610666
0.395514 0.845396 0.612726
0.56173 0.775448 0.66215
0.507546 0.750027 0.508049
0.567742 0.732433 0.58996
0.661738 0.753368 0.653956
0.787823 0.733654 0.361563
0.969619 0.804059 0.538293
0.123354 0.96643 0.613321
0.228763 0.959564 0.630167
0.496605 0.885222 0.682948
0.570184 0.828092 0.681468
0.493751 0.80824 0.496696
0.530953 0.777203 0.520272
0.62855 0.775387 0.659205
0.667689 0.807858 0.594934
0.853864 0.783963 0.289052
0.00888075 0.0349432 0.672892
0.100847 0.037171 0.674067
0.225208 0.0312047 0.652552
0.356985 0.0200656 0.637293
0.507637 0.00207523 0.620188
0.631266 0 0.597818
0.728481 0 0.558114
0.777462 0.0028687 0.503594
0.85124 0.0152895 0.490471
0 0.178271 0.556954
0.0905776 0.148287 0.688319
0.254841 0.139528 0.676814
0.403967 0.133394 0.658015
0.535134 0.123888 0.651072
0.661387 0.11664 0.632044
0.747402 0.108995 0.58436
0.798505 0.121798 0.540825
0.896422 0.141772 0.560311
0 0.287999 0.56936
0 0.323583 0.579477
0.232685 0.302907 0.700816
0.44033 0.284321 0.683604
0.560662 0.277943 0.676219
0.6869 0.263432 0.661448
0.753017 0.241733 0.601068
0.823148 0.254047 0.583612
0.956268 0.296391 0.655283
0 0.459892 0.682658
0.0704509 0.46099 0.655695
0.124361 0.479591 0.624628
0.414298 0.441428 0.686473
0.568322 0.428595 0.670085
0.680995 0.415549 0.65977
0.736171 0.39176 0.601831
0.857664 0.429389 0.650629
0.980591 0.448417 0.696452
0.00720226 0.59057 0.689219
0.107347 0.627405 0.7252
0.236255 0.62855 0.724849
0.381689 0.587243 0.664729
0.554864 0.567498 0.668299
0.673259 0.557702 0.656138
0.759228 0.559609 0.647059
0.861357 0.561944 0.666484
0.928603 0.553246 0.641169
0.0451667 0.679438 0.662974
0.124239 0.694621 0.678965
0.242054 0.696117 0.681254
0.412879 0.680186 0.665904
0.553994 0.670314 0.656672
0.667124 0.666819 0.65391
0.753857 0.670329 0.647028
0.835966 0.674983 0.641032
0.916274 0.680079 0.633173
0.08336 0.788785 0.681346
0.153002 0.79704 0.690898
0.285801 0.787854 0.68275
0.440696 0.772274 0.668803
0.577493 0.760769 0.661631
0.670527 0.738781 0.658427
0.757122 0.739116 0.631907
0.859388 0.759213 0.659251
0.94519 0.760815 0.654398
0.102083 0.881773 0.69247
0.169024 0.888395 0.70045
0.315404 0.873655 0.687739
0.465827 0.857404 0.677028
0.642313 0.816999 0.706767
0.647318 0.783062 0.637705
0.714397 0.784482 0.71754
0.814389 0.778439 0.573846
0.970504 0.838727 0.671214
0.111376 0.970718 0.700587
0.183398 0.974807 0.70782
0.347173 0.954177 0.693217
0.53254 0.921736 0.697169
0.665293 0.856184 0.742672
0.613428 0.818738 0.606989
0.658427 0.804837 0.669322
0.743725 0.830289 0.730846
0.857954 0.805447 0.47982
0.00631724 0.0362554 0.765667
0.101152 0.0377661 0.768338
0.228992 0.0313268 0.746899
0.37322 0.0198825 0.725048
0.494392 0.0122683 0.719722
0.625116 0.00262455 0.708354
0.735103 0.00236515 0.694102
0.834104 0.00231937 0.664012
0.891173 0.0105745 0.621347
0 0.188815 0.649317
0.0885023 0.152102 0.782345
0.260777 0.143923 0.775036
0.42414 0.139422 0.75613
0.539513 0.141314 0.754192
0.663966 0.135195 0.75024
0.77528 0.134676 0.737896
0.866804 0.129946 0.70222
0.911162 0.13785 0.657862
0 0.313527 0.621668
0 0.347539 0.665599
0.23328 0.319646 0.80293
0.458427 0.302617 0.790524
0.587671 0.301228 0.778653
0.688914 0.291844 0.778546
0.799054 0.280018 0.765499
0.878065 0.260197 0.721492
0.92108 0.266285 0.682872
0 0.453864 0.721294
0.0277256 0.478172 0.693614
0.0906233 0.516487 0.70631
0.429389 0.470268 0.796338
0.599496 0.456138 0.782513
0.687572 0.449439 0.77731
0.792584 0.431144 0.762615
0.8486 0.395865 0.704906
0.914427 0.404501 0.6907
0.0193484 0.628794 0.819013
0.104692 0.648432 0.818021
0.186542 0.636637 0.779538
0.305074 0.629602 0.731945
0.570626 0.593866 0.77908
0.68397 0.580987 0.763104
0.775402 0.563638 0.749386
0.823209 0.533745 0.695415
0.931136 0.56144 0.727489
0.0320897 0.720485 0.801221
0.120745 0.745953 0.827985
0.254292 0.757931 0.841337
0.430442 0.734249 0.815579
0.536385 0.696712 0.756283
0.669657 0.678721 0.75758
0.764446 0.668055 0.742092
0.841947 0.666773 0.730755
0.940322 0.666621 0.745144
0.0660716 0.794842 0.772564
0.137041 0.802884 0.78114
0.247517 0.799573 0.778393
0.415839 0.780255 0.759777
0.554925 0.768124 0.748272
0.666285 0.762997 0.743755
0.762173 0.761837 0.743435
0.843854 0.764767 0.73727
0.923583 0.7682 0.730205
0.0897231 0.886046 0.777325
0.158755 0.89221 0.78439
0.29099 0.881483 0.774731
0.44477 0.864607 0.758968
0.57789 0.852811 0.749004
0.683482 0.847974 0.748089
0.762295 0.826429 0.744747
0.843732 0.826383 0.720073
0.948913 0.848157 0.747234
0.106569 0.973373 0.782818
0.171084 0.979309 0.788403
0.317037 0.963912 0.774929
0.46273 0.948409 0.762112
0.59707 0.935454 0.754513
0.736721 0.903273 0.7906
0.734325 0.862821 0.71931
0.797772 0.865522 0.795789
0.89337 0.857572 0.665263
0 0.0398413 0.857664
0.101427 0.0386053 0.861387
0.231998 0.032105 0.839887
0.389288 0.0187839 0.813321
0.496422 0.0185092 0.808896
0.615976 0.0146181 0.809064
0.732036 0.0131991 0.80325
0.84004 0.0165103 0.791501
0.938949 0.0168612 0.764508
0 0.20177 0.732586
0.0854353 0.157885 0.877073
0.265644 0.148608 0.872007
0.432959 0.145892 0.853971
0.563424 0.149889 0.847578
0.663996 0.154604 0.854856
0.778515 0.152819 0.852293
0.886244 0.154818 0.841505
0.983337 0.151263 0.809873
0 0.337911 0.688365
0 0.367849 0.748074
0.225803 0.330175 0.900679
0.466239 0.310552 0.889708
0.608255 0.312291 0.876692
0.693431 0.315679 0.877821
0.800565 0.304555 0.87747
0.907012 0.297108 0.865858
0.996933 0.281285 0.829374
0 0.468757 0.757458
0 0.505089 0.742123
0.065507 0.542428 0.787518
0.433661 0.488426 0.898741
0.618448 0.477989 0.889662
0.712871 0.478264 0.880735
0.797284 0.463584 0.877592
0.897673 0.445548 0.860288
0.972366 0.415229 0.813977
0.00135805 0.634852 0.878004
0.074403 0.635904 0.848981
0.131991 0.653513 0.821042
0.233082 0.676738 0.828595
0.584543 0.617182 0.886564
0.706477 0.60383 0.869749
0.777523 0.591455 0.857862
0.870741 0.567941 0.836912
0.924605 0.528725 0.779965
0.0439918 0.763027 0.95201
0.127687 0.776776 0.959228
0.235431 0.777218 0.935561
0.384115 0.738766 0.867277
0.469795 0.731517 0.81912
0.684077 0.701717 0.867567
0.777859 0.688975 0.848478
0.857481 0.669993 0.827344
0.892729 0.638086 0.763851
0.0406043 0.823102 0.895033
0.120073 0.839017 0.9131
0.231861 0.851896 0.92842
0.437018 0.842451 0.92343
0.580621 0.82443 0.901259
0.656031 0.7888 0.840726
0.765805 0.774166 0.844343
0.853574 0.762493 0.827298
0.927535 0.758999 0.812818
0.0712444 0.891936 0.864881
0.141466 0.897978 0.871534
0.249058 0.893843 0.868086
0.416892 0.873045 0.847929
0.554696 0.859831 0.83537
0.665995 0.853925 0.830121
0.760983 0.852323 0.829053
0.852171 0.851453 0.829282
0.93257 0.854017 0.822553
0.0898909 0.978378 0.863951
0.159945 0.983459 0.869917
0.291676 0.971939 0.859449
0.44567 0.954238 0.843351
0.578515 0.941909 0.832303
0.682002 0.937835 0.830014
0.77583 0.936233 0.83238
0.849012 0.912596 0.827344
0.92987 0.912215 0.802915
0 0.0419928 0.959136
0.100816 0.0385748 0.963867
0.233555 0.0325933 0.942168
0.394202 0.0201572 0.914244
0.516136 0.0192416 0.903609
0.614374 0.024094 0.910201
0.725628 0.025742 0.914305
0.838346 0.0285496 0.909621
0.950134 0.0346227 0.895293
0 0.210956 0.82118
0.0834211 0.162661 0.98143
0.269047 0.152819 0.978836
0.439979 0.151293 0.961349
0.583902 0.15552 0.95137
0.67306 0.168444 0.95964
0.77615 0.171267 0.967315
0.887907 0.171191 0.962203
0.996338 0.173037 0.945785
0 0.360983 0.760739
0 0.385092 0.835081
0.217914 0.339376 1
0.471015 0.315755 0.997787
0.616053 0.319188 0.983963
0.713039 0.327214 0.980835
0.798489 0.327901 0.988022
0.908003 0.319173 0.985214
1 0.31429 0.969741
0 0.495033 0.797559
0 0.530297 0.807996
0.042359 0.56347 0.870741
0.427695 0.496117 1
0.624552 0.484337 0.998367
0.729839 0.489494 0.988464
0.801251 0.487434 0.985412
0.897887 0.469657 0.978576
0.998642 0.454322 0.95642
0 0.627604 0.918669
0.0364691 0.646372 0.887358
0.09337 0.677043 0.875151
0.183932 0.705669 0.919997
0.586297 0.628641 0.996674
0.719921 0.618814 0.984588
0.797925 0.613565 0.967742
0.870741 0.593896 0.955535
0.965286 0.570626 0.92723
0.0336004 0.772915 1
0.107439 0.778927 1
0.178042 0.770504 0.977783
0.285893 0.764126 0.920363
0.419974 0.768215 0.910552
0.697475 0.723674 0.988296
0.80264 0.71075 0.968841
0.865263 0.696208 0.950698
0.949996 0.670756 0.916197
0.0461585 0.865553 1
0.13019 0.879683 1
0.249134 0.880735 1
0.423789 0.859922 1
0.534371 0.826108 0.957549
0.607935 0.818631 0.902403
0.781659 0.798077 0.966796
0.868864 0.784115 0.944244
0.945083 0.762219 0.915465
0.0421759 0.914748 0.990387
0.117449 0.926375 1
0.212467 0.936858 1
0.411002 0.926513 1
0.583963 0.927703 1
0.692973 0.917281 1
0.75317 0.879072 0.934859
0.856291 0.864363 0.938643
0.942718 0.851057 0.917159
0.0710155 0.983474 0.95671
0.140795 0.98883 0.962783
0.246174 0.984421 0.959045
0.413443 0.962951 0.938247
0.551431 0.949538 0.925521
0.663294 0.943328 0.919997
0.758633 0.941665 0.919005
0.849348 0.941024 0.919036
0.940734 0.940734 0.919753
