luts/stills/KA Pastel.cube
TITLE "Generated by Resolve"
LUT_3D_SIZE 5
0.0261997 0.0261997 0.0261997
0.262531 0.0379797 0.0478981
0.572015 0.0560616 0.0797436
0.848615 0.108217 0.143511
1 0.191257 0.233982
0.0508125 0.172946 0.143969
0.27039 0.230228 0.051194
0.573098 0.285451 0.0922408
0.837537 0.345892 0.139284
1 0.420203 0.20824
0.000411994 0.307164 0.190082
0.146807 0.459129 0.0879225
0.580926 0.530434 0.0866255
0.841215 0.578729 0.138277
1 0.643687 0.211551
0 0.483085 0.318074
0.0716259 0.57499 0.179583
0.501839 0.74696 0.0932174
0.847486 0.79234 0.134173
1 0.840131 0.201999
0 0.651408 0.451453
0.0534371 0.71693 0.317968
0.328359 0.881224 0.170047
0.832166 0.945464 0.152117
0.91284 0.91223 0.907073
0.0390784 0.0567178 0.199786
0.276692 0.0355077 0.225422
0.563088 0.0567178 0.266056
0.838193 0.108385 0.359075
1 0.1879 0.459831
0.0431983 0.244556 0.249821
0.237629 0.22623 0.2374
0.53286 0.272801 0.280507
0.809262 0.340261 0.349325
0.986389 0.413046 0.427695
0.0791485 0.431891 0.413657
0.221744 0.417716 0.362341
0.538582 0.513146 0.279744
0.808682 0.563592 0.353613
0.980804 0.631662 0.435401
0.0631876 0.525628 0.514
0.122652 0.490684 0.384207
0.37789 0.670222 0.292485
0.816983 0.777386 0.348394
0.977768 0.826169 0.431464
0.0526436 0.662928 0.636164
0.101289 0.64033 0.500328
0.226642 0.744427 0.378531
0.749966 0.920012 0.344656
0.91252 0.912047 0.908171
0.0420233 0.0890059 0.519753
0.292576 0.0606546 0.568673
0.607675 0.0592203 0.538125
0.856596 0.117205 0.586099
1 0.194507 0.675853
0.0457008 0.31725 0.495735
0.234134 0.288212 0.497032
0.553506 0.2804 0.527642
0.80557 0.344778 0.575952
0.979644 0.416617 0.666041
0.0969863 0.582788 0.613184
0.284245 0.535988 0.559411
0.506615 0.505913 0.525231
0.771603 0.546212 0.575998
0.962066 0.626841 0.672068
0.147692 0.773785 0.757458
0.294194 0.655528 0.675212
0.455421 0.631296 0.613916
0.779095 0.757931 0.580331
0.952789 0.810636 0.667582
0.157916 0.849561 0.845823
0.214389 0.700618 0.714458
0.282856 0.648692 0.573785
0.603281 0.853223 0.549584
0.913176 0.912871 0.910552
0.0476539 0.133059 0.775662
0.280705 0.118761 0.81622
0.658351 0.0963149 0.834424
0.891234 0.127108 0.835325
1 0.20322 0.877501
0.0578317 0.384939 0.751339
0.255756 0.367361 0.767361
0.564065 0.343069 0.813519
0.845335 0.357931 0.81059
0.997009 0.433005 0.847013
0.098558 0.639307 0.805676
0.302251 0.60293 0.781613
0.512779 0.561364 0.769085
0.794263 0.559106 0.792981
0.964767 0.639765 0.844938
0.170169 0.867857 0.882628
0.392645 0.840146 0.858839
0.568109 0.786114 0.815778
0.751842 0.751369 0.786206
0.930465 0.796719 0.829053
0.268956 1 0.971618
0.454307 0.956588 0.934417
0.542565 0.851392 0.858213
0.674144 0.823056 0.814282
0.910292 0.909331 0.902785
0.057847 0.211292 0.908568
0.287388 0.197253 0.936446
0.653239 0.168627 0.969314
0.937499 0.176989 0.988998
1 0.22002 1
0.0753185 0.45742 0.898604
0.275242 0.439551 0.907439
0.548684 0.420203 0.927749
0.876722 0.408133 0.955947
1 0.449592 0.971939
0.108446 0.697444 0.916182
0.321019 0.664561 0.907286
0.545541 0.641688 0.909148
0.816175 0.627848 0.938018
0.99968 0.664408 0.958953
0.187045 0.916793 0.981445
0.405997 0.886549 0.95433
0.599954 0.849042 0.925643
0.767788 0.806622 0.90901
0.945495 0.810834 0.926589
0.449943 1 0.998215
0.807019 0.928298 0.92549
0.915282 0.918151 0.918059
0.902235 0.910887 0.91075
0.910597 0.910597 0.910658
