luts/stills/KA Pastel.cube
TITLE "Generated by Resolve"
LUT_3D_SIZE 9
0.0261997 0.0261997 0.0261997
0.0998245 0.0403601 0.0433967
0.262531 0.0379797 0.0478981
0.419669 0.0419623 0.0583505
0.572015 0.0560616 0.0797436
0.719478 0.0772717 0.10721
0.848615 0.108217 0.143511
0.943694 0.14963 0.189075
1 0.191257 0.233982
0.0551156 0.094667 0.0980697
0.139239 0.104234 0.0508431
0.278355 0.111696 0.0608377
0.431769 0.126009 0.0723888
0.581964 0.155795 0.0977646
0.725978 0.18822 0.123323
0.851148 0.223346 0.151156
0.940352 0.265156 0.186023
1 0.304494 0.219348
0.0508125 0.172946 0.143969
0.095613 0.218143 0.0686656
0.27039 0.230228 0.051194
0.425437 0.250919 0.0650339
0.573098 0.285451 0.0922408
0.715099 0.316762 0.115679
0.837537 0.345892 0.139284
0.925155 0.382101 0.171817
1 0.420203 0.20824
0.0254215 0.244465 0.16733
0.0622263 0.301518 0.112261
0.229267 0.373098 0.0565499
0.428397 0.389029 0.0668345
0.575631 0.412695 0.0889906
0.715663 0.436164 0.112062
0.83743 0.462364 0.138354
0.925139 0.497215 0.174151
1 0.532631 0.210513
0.000411994 0.307164 0.190082
0.0365759 0.358206 0.143694
0.146807 0.459129 0.0879225
0.408515 0.513237 0.0698711
0.580926 0.530434 0.0866255
0.719982 0.553109 0.110582
0.841215 0.578729 0.138277
0.926757 0.611505 0.17464
1 0.643687 0.211551
0 0.391959 0.246235
0.0219883 0.423148 0.186404
0.0927138 0.508858 0.125628
0.315358 0.606043 0.0787671
0.568032 0.649897 0.0879377
0.724636 0.666789 0.108492
0.843397 0.690211 0.135607
0.92697 0.720287 0.171679
1 0.748241 0.207858
0 0.483085 0.318074
0.0240024 0.511055 0.253437
0.0716259 0.57499 0.179583
0.216953 0.676219 0.114092
0.501839 0.74696 0.0932174
0.719646 0.777188 0.111421
0.847486 0.79234 0.134173
0.92813 0.818219 0.168353
1 0.840131 0.201999
0 0.569314 0.383719
0.0207218 0.591806 0.321935
0.0614176 0.647944 0.241138
0.159136 0.736431 0.167865
0.412802 0.821942 0.118196
0.679347 0.865919 0.12079
0.854871 0.883482 0.145159
0.934569 0.894499 0.169665
0.997589 0.90396 0.220523
0 0.651408 0.451453
0.018265 0.672145 0.387793
0.0534371 0.71693 0.317968
0.129931 0.79469 0.237583
0.328359 0.881224 0.170047
0.614023 0.932952 0.15053
0.832166 0.945464 0.152117
0.916091 0.926192 0.493446
0.91284 0.91223 0.907073
0.0366522 0.0415198 0.0731365
0.111696 0.039353 0.0986038
0.256092 0.038407 0.116274
0.410178 0.0416724 0.133959
0.561746 0.0556649 0.167117
0.711238 0.0772869 0.205798
0.841443 0.106523 0.249302
0.938231 0.147539 0.302831
1 0.187915 0.352285
0.0477913 0.108202 0.132494
0.127443 0.102937 0.127214
0.258045 0.109636 0.13547
0.413382 0.123857 0.152392
0.563912 0.152605 0.183368
0.711406 0.186633 0.216693
0.839628 0.221897 0.249943
0.931258 0.262028 0.288228
1 0.301366 0.325093
0.0645457 0.197696 0.202899
0.132342 0.201053 0.190417
0.250874 0.225742 0.129931
0.404501 0.246464 0.149035
0.551202 0.277638 0.17406
0.695201 0.311955 0.205829
0.822614 0.342916 0.236637
0.914641 0.377813 0.274372
0.99556 0.415351 0.315022
0.058854 0.271778 0.256672
0.114885 0.293095 0.235019
0.197101 0.359457 0.159472
0.407507 0.380453 0.14432
0.554131 0.4038 0.171405
0.695338 0.428977 0.203418
0.821408 0.457206 0.237842
0.912734 0.491249 0.276936
0.993423 0.52697 0.318334
0.0379797 0.327886 0.291051
0.0861372 0.351736 0.263661
0.150973 0.423087 0.218494
0.372473 0.501839 0.152071
0.560082 0.52224 0.17055
0.701823 0.545876 0.203296
0.827176 0.572763 0.240574
0.915114 0.604471 0.281147
0.992935 0.636866 0.321233
0.0238804 0.393317 0.334142
0.0557565 0.400595 0.284794
0.108995 0.460349 0.245441
0.25771 0.567987 0.17763
0.535607 0.637842 0.169741
0.706828 0.660288 0.200671
0.83003 0.684138 0.237095
0.916075 0.7131 0.279316
0.991928 0.740993 0.319692
0.0258793 0.479698 0.403235
0.0486915 0.477836 0.342245
0.0832685 0.5122 0.282292
0.171572 0.604212 0.21474
0.44065 0.714855 0.171511
0.693278 0.767056 0.199557
0.833417 0.785489 0.233021
0.916899 0.810849 0.274617
0.989746 0.832853 0.313954
0.023743 0.562142 0.470375
0.0462654 0.563226 0.407614
0.0772717 0.591531 0.346105
0.139681 0.662165 0.276341
0.33576 0.770275 0.208423
0.62768 0.847211 0.201144
0.833982 0.87483 0.238865
0.92192 0.887205 0.272892
0.984451 0.896696 0.330831
0.0205692 0.642206 0.538781
0.0429847 0.646433 0.47274
0.0749981 0.674586 0.407004
0.12842 0.732036 0.341527
0.261311 0.820905 0.272816
0.54078 0.904646 0.232334
0.797345 0.935317 0.241871
0.90808 0.923308 0.522148
0.912505 0.911971 0.907485
0.0390784 0.0567178 0.199786
0.129671 0.0453346 0.246067
0.276692 0.0355077 0.225422
0.41973 0.0419776 0.233234
0.563088 0.0567178 0.266056
0.709224 0.0796063 0.312169
0.838193 0.108385 0.359075
0.934127 0.148501 0.412039
1 0.1879 0.459831
0.0463264 0.128893 0.23328
0.124819 0.119707 0.235248
0.265766 0.109804 0.241047
0.409979 0.125826 0.254566
0.555932 0.151751 0.290883
0.703243 0.186389 0.331853
0.832807 0.221653 0.369024
0.925689 0.260594 0.408164
1 0.298756 0.445319
0.0431983 0.244556 0.249821
0.125185 0.230808 0.240238
0.237629 0.22623 0.2374
0.387518 0.242908 0.252964
0.53286 0.272801 0.280507
0.677836 0.306996 0.314595
0.809262 0.340261 0.349325
0.905425 0.375433 0.387304
0.986389 0.413046 0.427695
0.0668956 0.370687 0.335088
0.150942 0.339529 0.327901
0.243442 0.343664 0.314397
0.388083 0.374807 0.251469
0.531746 0.395575 0.281361
0.67158 0.418677 0.310414
0.803189 0.451072 0.349416
0.901808 0.487358 0.390829
0.982589 0.523064 0.432105
0.0791485 0.431891 0.413657
0.143023 0.394446 0.378653
0.221744 0.417716 0.362341
0.333639 0.486793 0.290761
0.538582 0.513146 0.279744
0.679347 0.534768 0.313649
0.808682 0.563592 0.353613
0.903334 0.598489 0.395987
0.980804 0.631662 0.435401
0.0688029 0.467918 0.457404
0.109133 0.431235 0.399435
0.170733 0.457282 0.376852
0.260273 0.529625 0.337789
0.497932 0.623606 0.280964
0.685664 0.650019 0.311971
0.81297 0.675395 0.352224
0.904738 0.706722 0.396765
0.979843 0.734539 0.436439
0.0631876 0.525628 0.514
0.0862593 0.482902 0.434043
0.122652 0.490684 0.384207
0.189425 0.552193 0.349493
0.37789 0.670222 0.292485
0.660578 0.753643 0.307469
0.816983 0.777386 0.348394
0.905455 0.80412 0.39202
0.977768 0.826169 0.431464
0.0568856 0.591669 0.573892
0.0804456 0.560998 0.498421
0.106386 0.55874 0.43357
0.14699 0.593774 0.374914
0.270283 0.692882 0.319295
0.559442 0.814588 0.299092
0.808255 0.864378 0.348074
0.90901 0.879652 0.387839
0.971435 0.889967 0.444617
0.0526436 0.662928 0.636164
0.0754711 0.639704 0.565347
0.101289 0.64033 0.500328
0.139864 0.670878 0.439719
0.226642 0.744427 0.378531
0.452583 0.854078 0.328969
0.749966 0.920012 0.344656
0.898497 0.919875 0.556252
0.91252 0.912047 0.908171
0.0385443 0.0708934 0.375021
0.125597 0.0619059 0.396155
0.298848 0.0418097 0.395224
0.441367 0.0399634 0.371389
0.581323 0.0574502 0.38555
0.721172 0.082948 0.418555
0.843946 0.113527 0.46215
0.935622 0.152438 0.515679
1 0.190799 0.567895
0.0456397 0.154177 0.361425
0.125338 0.143877 0.369375
0.267247 0.129335 0.398306
0.431876 0.127687 0.385672
0.569268 0.157549 0.400397
0.706859 0.191699 0.43418
0.832074 0.227085 0.474601
0.922423 0.263691 0.516442
1 0.300237 0.558175
0.0415808 0.280491 0.364294
0.12253 0.263493 0.353552
0.231754 0.25243 0.360327
0.396811 0.245701 0.372793
0.530831 0.275731 0.389654
0.670848 0.305516 0.425223
0.802213 0.339727 0.465797
0.901167 0.376059 0.509544
0.981643 0.412268 0.55346
0.0657359 0.420066 0.422477
0.144762 0.40061 0.400381
0.249042 0.382818 0.381872
0.375753 0.375296 0.37496
0.515236 0.391028 0.39353
0.653635 0.41268 0.420264
0.787778 0.445853 0.460166
0.892989 0.48481 0.50724
0.974212 0.522042 0.55172
0.0979934 0.54226 0.514199
0.179812 0.510353 0.491615
0.283009 0.471138 0.471107
0.382483 0.472206 0.454566
0.519982 0.507179 0.397116
0.658244 0.525979 0.42829
0.788174 0.552789 0.463218
0.890455 0.591028 0.510063
0.969802 0.627939 0.555138
0.108827 0.607324 0.594018
0.174868 0.548043 0.550332
0.25185 0.503212 0.504311
0.341878 0.52491 0.486122
0.46006 0.605493 0.425681
0.664866 0.640604 0.426627
0.793179 0.663462 0.463661
0.891661 0.696574 0.512779
0.967803 0.729015 0.557336
0.106996 0.643778 0.651057
0.144167 0.566094 0.573785
0.191409 0.524239 0.507866
0.26746 0.548653 0.482933
0.376059 0.630304 0.453819
0.622873 0.738903 0.42237
0.798093 0.767575 0.462379
0.892943 0.79472 0.509987
0.966262 0.819913 0.554849
0.101823 0.683024 0.69839
0.129427 0.61471 0.619272
0.150973 0.565393 0.530709
0.19588 0.571557 0.478447
0.284138 0.6374 0.448829
0.492042 0.76878 0.417258
0.776455 0.852094 0.455436
0.896117 0.871962 0.505592
0.958083 0.883421 0.567651
0.0977188 0.732235 0.743603
0.120699 0.676066 0.671794
0.142809 0.640604 0.59469
0.17232 0.636072 0.526619
0.226917 0.672312 0.46923
0.376883 0.775708 0.426535
0.682246 0.894316 0.439811
0.885267 0.915343 0.594949
0.913024 0.912642 0.909529
0.0420233 0.0890059 0.519753
0.127764 0.0809644 0.544076
0.292576 0.0606546 0.568673
0.471275 0.050782 0.553475
0.607675 0.0592203 0.538125
0.741146 0.084947 0.555764
0.856596 0.117205 0.586099
0.942718 0.156481 0.62977
1 0.194507 0.675853
0.0457008 0.184924 0.495857
0.127703 0.176104 0.508751
0.255222 0.163943 0.541115
0.452323 0.14844 0.560937
0.594644 0.160433 0.546929
0.725383 0.195377 0.561379
0.841688 0.232853 0.588708
0.925689 0.269398 0.625849
1 0.304753 0.66566
0.0457008 0.31725 0.495735
0.128176 0.30045 0.488197
0.234134 0.288212 0.497032
0.396414 0.274372 0.534493
0.553506 0.2804 0.527642
0.684001 0.313359 0.542062
0.80557 0.344778 0.575952
0.901152 0.381872 0.622614
0.979644 0.416617 0.666041
0.0716716 0.454917 0.551843
0.150942 0.435843 0.528527
0.25333 0.413489 0.505852
0.372885 0.398901 0.505821
0.522347 0.393164 0.518334
0.652262 0.416907 0.537041
0.781918 0.444495 0.576425
0.888853 0.484855 0.628336
0.971191 0.524346 0.675898
0.0969863 0.582788 0.613184
0.182498 0.562264 0.589593
0.284245 0.535988 0.559411
0.393668 0.513619 0.533883
0.506615 0.505913 0.525231
0.64123 0.520562 0.544137
0.771603 0.546212 0.575998
0.880156 0.584863 0.623453
0.962066 0.626841 0.672068
0.127733 0.699855 0.689967
0.219257 0.673884 0.669367
0.317266 0.63444 0.639261
0.414755 0.590021 0.612909
0.505608 0.593835 0.599374
0.646403 0.634485 0.549737
0.773938 0.654231 0.582742
0.876661 0.683879 0.621576
0.955489 0.722194 0.669566
0.147692 0.773785 0.757458
0.224659 0.725612 0.726574
0.294194 0.655528 0.675212
0.367422 0.604395 0.624552
0.455421 0.631296 0.613916
0.581292 0.71899 0.570352
0.779095 0.757931 0.580331
0.878492 0.781994 0.620722
0.952789 0.810636 0.667582
0.157259 0.818112 0.809003
0.20856 0.748363 0.760906
0.240253 0.659785 0.680858
0.286061 0.610071 0.610956
0.370321 0.637491 0.591531
0.483024 0.727123 0.578637
0.739025 0.83772 0.570611
0.881117 0.862379 0.619974
0.945602 0.875944 0.673579
0.157916 0.849561 0.845823
0.192798 0.777127 0.791577
0.214389 0.700618 0.714458
0.231067 0.644221 0.625589
0.282856 0.648692 0.573785
0.384451 0.719829 0.555093
0.603281 0.853223 0.549584
0.865431 0.908949 0.640986
0.913176 0.912871 0.910552
0.0438087 0.107713 0.661128
0.130785 0.103426 0.685069
0.283619 0.0873426 0.712642
0.479942 0.0715038 0.722103
0.640345 0.073106 0.709148
0.763302 0.0870375 0.700969
0.872999 0.121126 0.721691
0.955459 0.1608 0.751019
1 0.196384 0.78085
0.0453651 0.217441 0.635035
0.130007 0.211978 0.651926
0.252827 0.202686 0.679194
0.441901 0.185611 0.715389
0.623209 0.183734 0.717205
0.751141 0.201068 0.7084
0.858763 0.236179 0.717922
0.935103 0.273762 0.73753
1 0.310536 0.765118
0.0521401 0.351278 0.634363
0.136812 0.33875 0.63537
0.243488 0.327184 0.643915
0.385977 0.315526 0.673564
0.572961 0.304738 0.696193
0.707973 0.316823 0.684474
0.822751 0.349966 0.697124
0.909697 0.389914 0.727153
0.984619 0.425193 0.761868
0.0745403 0.486564 0.674815
0.158785 0.469047 0.659846
0.263447 0.445731 0.643748
0.378347 0.429374 0.646311
0.523552 0.416922 0.67776
0.674601 0.421225 0.671504
0.79556 0.453361 0.688685
0.893446 0.492805 0.727962
0.972763 0.532219 0.770932
0.0986496 0.611704 0.7205
0.188205 0.595728 0.705638
0.291371 0.569162 0.679744
0.397559 0.542718 0.655222
0.504158 0.528344 0.654902
0.649821 0.523751 0.667018
0.771282 0.55079 0.686641
0.876631 0.584131 0.72488
0.959182 0.628733 0.772091
0.127047 0.732631 0.769009
0.227863 0.719829 0.757382
0.332769 0.693584 0.732494
0.429389 0.664759 0.703899
0.525567 0.642588 0.681544
0.633921 0.633478 0.672038
0.758907 0.648783 0.689815
0.865904 0.677028 0.721111
0.946914 0.71751 0.765011
0.167758 0.839323 0.825315
0.271366 0.824186 0.815412
0.373663 0.793912 0.792523
0.458198 0.754162 0.765087
0.539788 0.707835 0.738811
0.628183 0.710353 0.72752
0.762005 0.751553 0.692943
0.864927 0.772198 0.722759
0.939086 0.800519 0.755703
0.206592 0.909316 0.880858
0.293385 0.880247 0.86276
0.368124 0.830335 0.827482
0.420401 0.758343 0.778012
0.477073 0.704707 0.732158
0.566125 0.732845 0.727031
0.698146 0.819242 0.703151
0.866896 0.853529 0.719783
0.933883 0.867399 0.752056
0.232624 0.955139 0.927947
0.296391 0.90927 0.896208
0.335409 0.839994 0.844175
0.350149 0.747723 0.769635
0.386877 0.694759 0.705684
0.467811 0.724681 0.693828
0.590021 0.815091 0.695323
0.83798 0.900511 0.712169
0.911482 0.911299 0.909651
0.0476539 0.133059 0.775662
0.135393 0.131716 0.79527
0.280705 0.118761 0.81622
0.473136 0.102281 0.832151
0.658351 0.0963149 0.834424
0.796124 0.105303 0.830839
0.891234 0.127108 0.835325
0.972427 0.166659 0.857481
1 0.20322 0.877501
0.047425 0.250568 0.750973
0.13257 0.248692 0.767498
0.254322 0.243122 0.788891
0.42742 0.228931 0.817334
0.62504 0.217319 0.836957
0.777829 0.222416 0.833936
0.877272 0.240986 0.830396
0.949737 0.279438 0.841657
1 0.316686 0.856977
0.0578317 0.384939 0.751339
0.144701 0.376547 0.758221
0.255756 0.367361 0.767361
0.390494 0.356298 0.785641
0.564065 0.343069 0.813519
0.734142 0.340215 0.81445
0.845335 0.357931 0.81059
0.924239 0.396902 0.826566
0.997009 0.433005 0.847013
0.0765698 0.513359 0.773846
0.165942 0.499611 0.769177
0.275593 0.480629 0.76376
0.390784 0.465141 0.7664
0.518639 0.4551 0.787686
0.697063 0.445945 0.80412
0.820127 0.461692 0.801114
0.908385 0.5037 0.822049
0.98381 0.544076 0.848997
0.098558 0.639307 0.805676
0.193072 0.627375 0.798169
0.302251 0.60293 0.781613
0.409751 0.576532 0.766995
0.512779 0.561364 0.769085
0.654673 0.550958 0.793317
0.794263 0.559106 0.792981
0.888472 0.598444 0.813001
0.964767 0.639765 0.844938
0.130251 0.759701 0.843427
0.233616 0.749157 0.835874
0.344259 0.727901 0.819257
0.440513 0.700191 0.797757
0.53257 0.672877 0.777722
0.633814 0.656825 0.775158
0.767727 0.653422 0.784802
0.866621 0.683131 0.803006
0.945113 0.722087 0.838819
0.170169 0.867857 0.882628
0.277958 0.856962 0.873381
0.392645 0.840146 0.858839
0.483589 0.814969 0.839124
0.568109 0.786114 0.815778
0.655268 0.761517 0.795041
0.751842 0.751369 0.786206
0.854917 0.767452 0.801297
0.930465 0.796719 0.829053
0.23125 0.957366 0.938033
0.338216 0.940948 0.924071
0.445777 0.921386 0.907286
0.52874 0.895308 0.885985
0.596155 0.858045 0.857816
0.66276 0.81294 0.831357
0.742596 0.813962 0.822293
0.855177 0.84831 0.802182
0.922576 0.861326 0.823285
0.268956 1 0.971618
0.366979 0.988159 0.956909
0.454307 0.956588 0.934417
0.513222 0.915358 0.905043
0.542565 0.851392 0.858213
0.585672 0.797269 0.816388
0.674144 0.823056 0.814282
0.803738 0.889006 0.805722
0.910292 0.909331 0.902785
0.052018 0.169772 0.855009
0.142275 0.167041 0.869368
0.283467 0.156344 0.882826
0.466667 0.140932 0.897414
0.661372 0.12961 0.907652
0.819455 0.131716 0.911086
0.917922 0.150362 0.919219
0.990387 0.174014 0.929259
1 0.199405 0.940795
0.0509804 0.294194 0.838437
0.137774 0.290425 0.851499
0.258106 0.283742 0.864713
0.419623 0.271534 0.88159
0.608423 0.257282 0.900908
0.786053 0.250813 0.908248
0.897414 0.263081 0.910567
0.967193 0.28661 0.916518
1 0.324865 0.928191
0.0657359 0.419883 0.839506
0.15285 0.412055 0.846189
0.265202 0.403616 0.852247
0.397635 0.394736 0.861692
0.553368 0.383139 0.879072
0.738323 0.372793 0.891173
0.867933 0.381353 0.894255
0.941543 0.405035 0.901366
1 0.441352 0.915312
0.0814984 0.542489 0.849515
0.171695 0.529702 0.849729
0.286397 0.51519 0.848768
0.404837 0.50367 0.85156
0.52726 0.496162 0.864103
0.694926 0.485863 0.881712
0.847089 0.49041 0.888685
0.927687 0.515984 0.897307
1 0.553353 0.912367
0.101671 0.667857 0.86807
0.196796 0.654292 0.864225
0.313741 0.634806 0.856291
0.424704 0.614252 0.850904
0.528908 0.601495 0.853819
0.653712 0.592447 0.866926
0.816861 0.587915 0.880598
0.907317 0.610697 0.887251
0.980758 0.652384 0.903685
0.133791 0.787686 0.895567
0.234806 0.775616 0.889204
0.352132 0.758541 0.878508
0.454093 0.734264 0.865721
0.548165 0.707424 0.855238
0.645762 0.691264 0.854566
0.775677 0.682582 0.869764
0.884092 0.695354 0.8748
0.956542 0.734173 0.891447
0.179232 0.8934 0.932998
0.285344 0.880522 0.92192
0.403632 0.866011 0.909468
0.499855 0.847044 0.894896
0.582986 0.819532 0.876738
0.665461 0.791058 0.860029
0.754223 0.774258 0.856214
0.862501 0.774166 0.864836
0.931258 0.802991 0.879103
0.233982 0.979126 0.979416
0.343603 0.963195 0.964553
0.456031 0.946227 0.948348
0.554696 0.929915 0.933059
0.635142 0.906645 0.912047
0.705516 0.880781 0.889387
0.775708 0.858442 0.870497
0.848951 0.848295 0.861845
0.914687 0.858335 0.870787
0.312901 1 1
0.475471 0.995285 0.970077
0.61854 0.96347 0.94374
0.731029 0.938445 0.924147
0.751446 0.929198 0.916945
0.741894 0.917601 0.90898
0.776791 0.887633 0.890715
0.840269 0.884077 0.880934
0.909239 0.908675 0.904814
0.057847 0.211292 0.908568
0.149783 0.207645 0.922713
0.287388 0.197253 0.936446
0.461707 0.182864 0.952911
0.653239 0.168627 0.969314
0.828397 0.163592 0.978973
0.937499 0.176989 0.988998
1 0.197513 0.996902
1 0.22002 1
0.0605173 0.336233 0.897459
0.147372 0.332235 0.908324
0.266957 0.325322 0.918593
0.418235 0.313039 0.931029
0.591211 0.299367 0.949905
0.777386 0.285573 0.963729
0.90808 0.290364 0.972427
0.987945 0.310216 0.979644
1 0.333654 0.985504
0.0753185 0.45742 0.898604
0.162753 0.449454 0.904418
0.275242 0.439551 0.907439
0.404669 0.429801 0.913497
0.548684 0.420203 0.927749
0.725521 0.407736 0.944274
0.876722 0.408133 0.955947
0.962386 0.427634 0.965301
1 0.449592 0.971939
0.0892042 0.575051 0.902678
0.180011 0.562936 0.90425
0.296147 0.549554 0.904204
0.415991 0.539422 0.90631
0.53724 0.534569 0.916381
0.688716 0.526177 0.933272
0.853178 0.522759 0.950027
0.948089 0.540215 0.961349
1 0.560876 0.96733
0.108446 0.697444 0.916182
0.203586 0.682933 0.913207
0.321019 0.664561 0.907286
0.437675 0.650492 0.905531
0.545541 0.641688 0.909148
0.664027 0.634577 0.919158
0.816175 0.627848 0.938018
0.928038 0.641016 0.952712
0.99968 0.664408 0.958953
0.13846 0.815229 0.940963
0.238224 0.801297 0.933501
0.355581 0.782315 0.922866
0.466407 0.76434 0.914946
0.566323 0.744564 0.909545
0.664485 0.730709 0.909819
0.776425 0.722423 0.920974
0.901534 0.725429 0.939467
0.975097 0.7467 0.945129
0.187045 0.916793 0.981445
0.29099 0.902785 0.968933
0.405997 0.886549 0.95433
0.510628 0.872328 0.942382
0.599954 0.849042 0.925643
0.683146 0.822843 0.911681
0.767788 0.806622 0.90901
0.868605 0.800366 0.92311
0.945495 0.810834 0.926589
0.239796 0.997192 1
0.347707 0.979324 1
0.458289 0.961166 0.989731
0.560296 0.94551 0.974685
0.648615 0.925383 0.955962
0.719982 0.901335 0.934218
0.785809 0.877653 0.914427
0.850416 0.863203 0.907881
0.917418 0.862989 0.91017
0.449943 1 0.998215
0.639994 0.963775 0.958267
0.807019 0.928298 0.92549
0.905776 0.912184 0.911986
0.915282 0.918151 0.918059
0.913649 0.915724 0.915663
0.902235 0.910887 0.91075
0.89688 0.907805 0.907988
0.910597 0.910597 0.910658
