luts/stills/KA Pastel.cube
TITLE "Generated by Resolve"
LUT_3D_SIZE 33
0.0261997 0.0261997 0.0261997
0.0342565 0.0310369 0.0312047
0.0489357 0.0351415 0.0359197
0.0713817 0.0382544 0.0400702
0.0998245 0.0403601 0.0433967
0.13341 0.0411383 0.0457923
0.174426 0.0406653 0.0471351
0.219379 0.0392615 0.0478065
0.262531 0.0379797 0.0478981
0.302266 0.0377203 0.0484779
0.341878 0.037644 0.0496681
0.381033 0.0391089 0.0531014
0.419669 0.0419623 0.0583505
0.457572 0.0451057 0.0634928
0.49572 0.0483406 0.0686656
0.533761 0.0520333 0.0741436
0.572015 0.0560616 0.0797436
0.609934 0.0604868 0.0860304
0.647303 0.0656443 0.0927596
0.684077 0.0712139 0.0999619
0.719478 0.0772717 0.10721
0.754025 0.0840009 0.115328
0.787793 0.091371 0.123949
0.819455 0.09897 0.132723
0.848615 0.108217 0.143511
0.874037 0.117601 0.154223
0.898421 0.128313 0.165896
0.921416 0.139376 0.177874
0.943694 0.14963 0.189075
0.967025 0.160586 0.200671
0.989166 0.170352 0.211475
1 0.180682 0.222675
1 0.191257 0.233982
0.037171 0.0404822 0.041062
0.0467536 0.0428473 0.0375067
0.0651408 0.0463722 0.0405737
0.0893568 0.0493172 0.0430915
0.117708 0.051194 0.0454108
0.152056 0.0523384 0.0472114
0.190234 0.0526436 0.0483711
0.227619 0.0523995 0.0492409
0.266606 0.051667 0.0490272
0.306035 0.0510414 0.0487068
0.345113 0.0516213 0.0504311
0.384039 0.0537575 0.0544442
0.423011 0.0581521 0.0612497
0.461784 0.0628824 0.0684367
0.500511 0.0674907 0.0749218
0.539147 0.0721447 0.0809491
0.577325 0.0773327 0.0872053
0.615473 0.0827802 0.0936599
0.652781 0.088777 0.100496
0.68925 0.0950484 0.108019
0.72462 0.101457 0.115236
0.759091 0.109194 0.123247
0.791989 0.116503 0.131212
0.823987 0.12517 0.140352
0.852766 0.134829 0.150332
0.877989 0.144411 0.160784
0.902144 0.155383 0.172244
0.924331 0.166079 0.183001
0.946426 0.17702 0.194064
0.968948 0.187778 0.204852
0.990433 0.197528 0.214893
1 0.208225 0.225498
1 0.218479 0.235798
0.0451514 0.0577401 0.0604562
0.0530098 0.0615396 0.0481117
0.0770275 0.0617075 0.0423438
0.101823 0.0637369 0.0442512
0.130617 0.0656138 0.046952
0.162539 0.0670176 0.0486458
0.19736 0.0674754 0.0497139
0.233555 0.0669413 0.0489509
0.271809 0.0664988 0.0485695
0.310323 0.066392 0.048661
0.348791 0.0674907 0.0506447
0.387915 0.0707256 0.0559701
0.426764 0.0766308 0.0639963
0.464652 0.082826 0.0718242
0.503914 0.0894026 0.0797131
0.542443 0.0948501 0.0858625
0.580621 0.101259 0.0926833
0.618311 0.10753 0.0988479
0.655695 0.114199 0.105531
0.691737 0.121218 0.112886
0.727047 0.128679 0.120134
0.761379 0.136339 0.127565
0.794018 0.144472 0.135317
0.825879 0.153536 0.144137
0.854047 0.162493 0.152926
0.879484 0.173144 0.162676
0.903136 0.183856 0.172946
0.925139 0.194476 0.183734
0.946654 0.205875 0.193957
0.968292 0.21648 0.203937
0.989227 0.226398 0.213001
1 0.236667 0.222583
1 0.246586 0.231876
0.0504921 0.0758679 0.0805829
0.057557 0.0805982 0.0686503
0.0809033 0.0828107 0.047364
0.109133 0.0818494 0.0462043
0.13637 0.0838941 0.049836
0.166796 0.0852674 0.0527504
0.201221 0.0866712 0.0548257
0.237644 0.0875715 0.0561074
0.275761 0.0878614 0.0558938
0.314549 0.0881361 0.0554665
0.353414 0.0897231 0.0569009
0.391791 0.0929885 0.0607919
0.429557 0.09897 0.0674296
0.467536 0.106416 0.075639
0.505486 0.113756 0.0829786
0.54403 0.120424 0.0894179
0.582422 0.127413 0.0964065
0.619257 0.134478 0.102205
0.656687 0.142138 0.109056
0.692439 0.149737 0.115785
0.727428 0.157549 0.122621
0.761334 0.165606 0.130068
0.794141 0.174258 0.137453
0.82504 0.182864 0.144762
0.853605 0.192386 0.15317
0.878965 0.202777 0.162234
0.901778 0.21355 0.171527
0.923415 0.224445 0.181415
0.944564 0.235416 0.191363
0.965148 0.245792 0.200168
0.985962 0.256062 0.209216
1 0.265858 0.21735
1 0.275517 0.226062
0.0551156 0.094667 0.0980697
0.0622873 0.0993362 0.0869764
0.0761425 0.105303 0.0634012
0.109651 0.104982 0.050248
0.139239 0.104234 0.0508431
0.169619 0.106355 0.0539254
0.203403 0.107744 0.0562295
0.239567 0.109468 0.0585336
0.278355 0.111696 0.0608377
0.317372 0.113985 0.062562
0.355993 0.116274 0.0639963
0.394324 0.120226 0.067216
0.431769 0.126009 0.0723888
0.469184 0.133211 0.0790875
0.506554 0.140688 0.0854047
0.544366 0.148653 0.0917525
0.581964 0.155795 0.0977646
0.619638 0.163806 0.104356
0.655802 0.171786 0.110201
0.691295 0.17995 0.116777
0.725978 0.18822 0.123323
0.75938 0.196628 0.1299
0.791577 0.204868 0.136522
0.82266 0.213764 0.143496
0.851148 0.223346 0.151156
0.876127 0.233326 0.159411
0.89897 0.243946 0.168383
0.920104 0.25481 0.177325
0.940352 0.265156 0.186023
0.960678 0.275334 0.195071
0.980972 0.285863 0.203281
1 0.294759 0.211124
1 0.304494 0.219348
0.0575418 0.113802 0.113008
0.0644999 0.119051 0.101686
0.0734722 0.126696 0.081117
0.100221 0.130999 0.057496
0.137545 0.130053 0.0515755
0.169711 0.129458 0.0527047
0.203433 0.131975 0.0552682
0.240162 0.134646 0.0583658
0.278233 0.137087 0.0607767
0.317479 0.14052 0.063798
0.356878 0.145068 0.0672618
0.39527 0.149981 0.0710155
0.432624 0.156146 0.0760052
0.468956 0.1635 0.081239
0.506325 0.170932 0.0870222
0.543664 0.178454 0.0923781
0.580484 0.186755 0.0977646
0.617441 0.195026 0.104097
0.653681 0.203082 0.109758
0.688762 0.211719 0.115892
0.723339 0.220081 0.121889
0.756268 0.228031 0.128115
0.788266 0.236957 0.134539
0.818921 0.245777 0.140871
0.84741 0.254444 0.148058
0.872343 0.264485 0.155413
0.894789 0.274632 0.163821
0.915816 0.284825 0.172198
0.935271 0.294987 0.180514
0.955306 0.305318 0.189151
0.975235 0.314794 0.196963
0.994644 0.323995 0.205051
1 0.333959 0.213931
0.0576028 0.13344 0.125429
0.064683 0.139467 0.114458
0.0716716 0.148272 0.0954147
0.0889906 0.157046 0.0692302
0.125856 0.159915 0.053727
0.166491 0.159304 0.0518044
0.201831 0.159121 0.0531014
0.237949 0.162249 0.0559091
0.276783 0.165881 0.059144
0.315724 0.169894 0.0622263
0.355169 0.174472 0.0653697
0.393668 0.179553 0.0687419
0.430869 0.185794 0.0731518
0.46746 0.193423 0.0787976
0.503975 0.201709 0.0846876
0.541207 0.210346 0.0907759
0.57821 0.218921 0.0969863
0.614588 0.227298 0.102312
0.650599 0.235721 0.10811
0.685679 0.244312 0.113939
0.71957 0.252506 0.119646
0.752575 0.260853 0.125582
0.784237 0.269108 0.131579
0.814832 0.277455 0.13785
0.843107 0.286152 0.143938
0.86804 0.295125 0.151354
0.890547 0.305089 0.159365
0.911116 0.314778 0.167193
0.931105 0.324514 0.176318
0.950607 0.334356 0.18436
0.970886 0.343816 0.192981
0.990982 0.353201 0.201724
1 0.362539 0.210071
0.0549783 0.152895 0.135515
0.0623026 0.160052 0.124865
0.0691234 0.16994 0.107759
0.0806439 0.181506 0.0823377
0.109468 0.189975 0.0591745
0.153231 0.192676 0.0508888
0.197299 0.192966 0.0510719
0.235096 0.193393 0.0527962
0.272984 0.197177 0.0554513
0.312535 0.201282 0.05832
0.352255 0.206073 0.0612039
0.391028 0.211154 0.0650034
0.427893 0.217945 0.0692607
0.46453 0.225528 0.0751354
0.501945 0.234501 0.0823224
0.538399 0.243519 0.0882582
0.575189 0.251896 0.0943008
0.611658 0.260426 0.100237
0.64773 0.268986 0.106081
0.682109 0.27686 0.111238
0.716457 0.285206 0.117159
0.74934 0.293034 0.122866
0.78056 0.300786 0.128801
0.811276 0.308476 0.134981
0.839658 0.31635 0.141039
0.864683 0.325292 0.148272
0.88687 0.334234 0.156161
0.90753 0.343832 0.164172
0.927687 0.353704 0.173388
0.947555 0.362921 0.182116
0.967941 0.373007 0.190951
0.98793 0.381704 0.199878
1 0.391257 0.208927
0.0508125 0.172946 0.143969
0.0581064 0.180865 0.132845
0.0649424 0.191394 0.117418
0.0740063 0.204547 0.0943618
0.095613 0.218143 0.0686656
0.135241 0.226307 0.0528115
0.184604 0.228855 0.0485237
0.23061 0.229465 0.0495613
0.27039 0.230228 0.051194
0.309438 0.234302 0.0533608
0.349233 0.239139 0.0565499
0.387533 0.244312 0.0600137
0.425437 0.250919 0.0650339
0.462119 0.25948 0.0712749
0.499001 0.268101 0.0784314
0.536339 0.277134 0.085771
0.573098 0.285451 0.0922408
0.610208 0.293873 0.0983444
0.645548 0.301381 0.103838
0.681208 0.309361 0.110124
0.715099 0.316762 0.115679
0.747509 0.324056 0.121202
0.778866 0.331243 0.127092
0.809018 0.338476 0.132952
0.837537 0.345892 0.139284
0.862226 0.354025 0.146273
0.884489 0.363241 0.154528
0.905608 0.372686 0.163226
0.925155 0.382101 0.171817
0.945586 0.39205 0.181369
0.96582 0.401343 0.189944
0.985733 0.410422 0.198734
1 0.420203 0.20824
0.0450752 0.191928 0.150973
0.0526741 0.200504 0.140291
0.0596628 0.212253 0.125231
0.0684977 0.226703 0.105394
0.084184 0.242847 0.079942
0.117769 0.256901 0.0590524
0.165576 0.264622 0.0494545
0.218631 0.267491 0.048249
0.265919 0.268666 0.0501411
0.306203 0.270359 0.0522774
0.345754 0.275242 0.0552987
0.385733 0.28072 0.059556
0.423575 0.287068 0.0638895
0.460822 0.293935 0.0697948
0.498344 0.302281 0.0772106
0.535637 0.310414 0.0841993
0.573358 0.318547 0.0911574
0.609812 0.325887 0.0972
0.646342 0.333684 0.103441
0.681117 0.340673 0.108995
0.714992 0.347372 0.1149
0.747189 0.354269 0.120516
0.778332 0.360937 0.125856
0.80824 0.367636 0.131975
0.835767 0.374777 0.137728
0.860853 0.383291 0.145312
0.883055 0.392233 0.15349
0.903746 0.401404 0.161959
0.924147 0.411276 0.171542
0.943709 0.420432 0.179904
0.964553 0.430182 0.189609
0.98468 0.439384 0.198566
1 0.448218 0.207538
0.0388037 0.21033 0.156863
0.04654 0.219837 0.146609
0.0539101 0.23183 0.132418
0.0622263 0.246921 0.114092
0.0759289 0.264851 0.0914626
0.102785 0.282856 0.0687572
0.147753 0.296315 0.0546578
0.20296 0.303258 0.0497139
0.257954 0.306218 0.05037
0.305974 0.308431 0.053254
0.345846 0.310597 0.0557107
0.385382 0.316167 0.0602426
0.424338 0.322438 0.0655375
0.461784 0.329061 0.0710613
0.498878 0.336126 0.0773022
0.53724 0.34345 0.0843824
0.574487 0.350561 0.0906081
0.611231 0.358083 0.0970779
0.646601 0.364187 0.102235
0.681682 0.371084 0.108186
0.714641 0.377661 0.113756
0.747021 0.383886 0.119448
0.777844 0.390295 0.124697
0.807431 0.396704 0.130571
0.835538 0.404303 0.13753
0.859953 0.412253 0.144472
0.882551 0.421012 0.153307
0.903502 0.430686 0.162325
0.923354 0.439719 0.171374
0.943862 0.449302 0.181109
0.964446 0.459083 0.190326
0.984482 0.467369 0.199191
1 0.476738 0.208392
0.0322118 0.227848 0.162341
0.039704 0.23769 0.151843
0.0472725 0.250202 0.13843
0.0560922 0.265995 0.122316
0.0687724 0.284291 0.101854
0.0914931 0.304738 0.0803845
0.130709 0.323308 0.0636301
0.186084 0.335195 0.0545968
0.245884 0.341115 0.0525521
0.301579 0.344411 0.0543679
0.348959 0.347372 0.0579843
0.388418 0.350332 0.061326
0.425956 0.355932 0.0665904
0.46302 0.36289 0.0726482
0.500771 0.369436 0.0784619
0.538155 0.376135 0.0843061
0.575143 0.382544 0.0903029
0.611383 0.38851 0.0957656
0.647257 0.395087 0.10132
0.6813 0.400946 0.106752
0.715068 0.407004 0.112886
0.747219 0.413336 0.118502
0.778332 0.419348 0.124331
0.808209 0.426352 0.130571
0.835874 0.433127 0.137514
0.860761 0.441291 0.14522
0.883268 0.450355 0.154208
0.903899 0.458854 0.163134
0.92401 0.46862 0.172488
0.944411 0.477867 0.182071
0.965011 0.486809 0.191333
0.984955 0.495705 0.200366
1 0.504463 0.209812
0.0254215 0.244465 0.16733
0.0329442 0.25452 0.157031
0.0406195 0.267292 0.144656
0.0501564 0.282856 0.1299
0.0622263 0.301518 0.112261
0.082414 0.323079 0.0924239
0.116411 0.345159 0.0742657
0.166674 0.362707 0.0621042
0.229267 0.373098 0.0565499
0.290959 0.378943 0.0563821
0.345434 0.382391 0.0590372
0.391318 0.385763 0.0628672
0.428397 0.389029 0.0668345
0.46511 0.394797 0.072221
0.5019 0.400717 0.0772869
0.539208 0.406653 0.0833448
0.575631 0.412695 0.0889906
0.61239 0.41883 0.0948806
0.647578 0.424369 0.100237
0.682094 0.430442 0.105837
0.715663 0.436164 0.112062
0.748653 0.442405 0.118532
0.779461 0.448737 0.124514
0.809476 0.454917 0.130861
0.83743 0.462364 0.138354
0.862409 0.470634 0.146654
0.884108 0.478737 0.154894
0.905043 0.488106 0.164309
0.925139 0.497215 0.174151
0.944915 0.506279 0.182712
0.965698 0.515618 0.192538
0.985412 0.523751 0.201328
1 0.532631 0.210513
0.0183719 0.260334 0.171786
0.0261692 0.270497 0.161807
0.0341955 0.282887 0.150805
0.0433967 0.298146 0.136736
0.0558022 0.31725 0.120745
0.0741588 0.339086 0.103227
0.10341 0.363409 0.0853285
0.148028 0.385473 0.0709697
0.208423 0.401205 0.0626078
0.275319 0.410224 0.0599985
0.336889 0.415656 0.061265
0.389075 0.419196 0.0641489
0.431464 0.422629 0.0684367
0.467369 0.425711 0.0716716
0.504036 0.430991 0.0768749
0.540124 0.436728 0.0823224
0.576913 0.442298 0.0882887
0.613046 0.447562 0.0937514
0.648692 0.453834 0.0999161
0.683467 0.45948 0.105653
0.717327 0.465614 0.112215
0.749752 0.471702 0.118379
0.781079 0.477699 0.124987
0.811124 0.484596 0.131411
0.838712 0.491051 0.13872
0.863035 0.499352 0.146822
0.885435 0.508171 0.1561
0.90576 0.516716 0.165164
0.925704 0.525887 0.174609
0.94612 0.535149 0.184329
0.965911 0.543877 0.19295
0.98584 0.551995 0.201984
1 0.560754 0.211337
0.0120546 0.275669 0.176684
0.0195468 0.285557 0.167346
0.027863 0.297749 0.156191
0.0371862 0.312688 0.143832
0.049485 0.331273 0.129381
0.0662852 0.353506 0.112886
0.0916609 0.378744 0.0958267
0.131029 0.404089 0.0806897
0.187518 0.424475 0.0697948
0.255161 0.437873 0.0643015
0.323445 0.445808 0.0635538
0.381933 0.450401 0.0650034
0.43003 0.454185 0.0688334
0.470375 0.457435 0.0727398
0.505592 0.460395 0.0762798
0.541833 0.465675 0.0816205
0.577813 0.47126 0.0871443
0.614466 0.477302 0.093431
0.649577 0.482734 0.0993057
0.684749 0.488914 0.105425
0.718227 0.494652 0.111788
0.751003 0.500984 0.118349
0.782254 0.507225 0.124804
0.812284 0.513268 0.13138
0.839826 0.520729 0.138949
0.864378 0.528725 0.147677
0.885786 0.536797 0.155795
0.906645 0.54583 0.165743
0.926375 0.55462 0.175021
0.946212 0.563378 0.184253
0.966659 0.572213 0.193683
0.985855 0.580102 0.202152
1 0.588724 0.211841
0.00614939 0.291142 0.183017
0.0137789 0.300328 0.173373
0.0218357 0.312123 0.162509
0.0312352 0.326757 0.150271
0.0426795 0.344839 0.13666
0.0587167 0.366705 0.121233
0.0816052 0.392096 0.105226
0.115923 0.419013 0.0907149
0.165713 0.443366 0.0789044
0.231479 0.461448 0.0712291
0.301472 0.472648 0.0670176
0.367407 0.479759 0.0669718
0.421942 0.484703 0.0695506
0.468223 0.488716 0.073579
0.507668 0.492073 0.077409
0.543374 0.495384 0.0813458
0.579675 0.500694 0.0869764
0.615198 0.506279 0.0928054
0.65098 0.512474 0.0990158
0.685725 0.518074 0.104952
0.71931 0.524056 0.111421
0.751766 0.530053 0.117647
0.783276 0.536187 0.124361
0.813382 0.542947 0.131182
0.840558 0.549279 0.138537
0.864607 0.557519 0.147066
0.886885 0.566064 0.156405
0.90692 0.574487 0.165515
0.926696 0.5832 0.174975
0.946685 0.591943 0.184833
0.966552 0.60029 0.193454
0.986328 0.608225 0.202945
1 0.616266 0.211414
0.000411994 0.307164 0.190082
0.00856031 0.31577 0.179904
0.0163424 0.326863 0.169284
0.025452 0.340795 0.157092
0.0365759 0.358206 0.143694
0.0512703 0.379416 0.129137
0.0724346 0.404746 0.114504
0.102647 0.432044 0.0999313
0.146807 0.459129 0.0879225
0.206592 0.481529 0.0782177
0.277073 0.496757 0.0717174
0.34638 0.50605 0.0685893
0.408515 0.513237 0.0698711
0.460151 0.518959 0.073991
0.505943 0.523659 0.0787823
0.545769 0.527245 0.082887
0.580926 0.530434 0.0866255
0.616999 0.536202 0.0929427
0.651987 0.54136 0.0982986
0.686687 0.547494 0.10457
0.719982 0.553109 0.110582
0.752926 0.559213 0.11725
0.784131 0.565347 0.123598
0.813825 0.57145 0.130541
0.841215 0.578729 0.138277
0.865507 0.586328 0.147097
0.886946 0.594553 0.155581
0.907439 0.603082 0.165499
0.926757 0.611505 0.17464
0.946731 0.620081 0.184451
0.966781 0.628229 0.193561
0.985855 0.635554 0.202106
1 0.643687 0.211551
0 0.324926 0.199817
0.00384527 0.332464 0.188235
0.0120851 0.342626 0.176852
0.0203098 0.355474 0.164401
0.0307927 0.372152 0.151156
0.0445716 0.392294 0.137224
0.0641947 0.416617 0.123552
0.091249 0.443671 0.109453
0.129381 0.472251 0.0965133
0.18291 0.4981 0.0854505
0.250034 0.517327 0.0764477
0.322484 0.530068 0.0712139
0.389914 0.539391 0.0702678
0.448157 0.547402 0.0738842
0.498726 0.55378 0.0786603
0.544396 0.558679 0.0840467
0.583078 0.562173 0.0883345
0.618097 0.565286 0.0924392
0.653696 0.571038 0.0982376
0.687709 0.576379 0.104143
0.720897 0.582147 0.109972
0.753399 0.587884 0.116365
0.784924 0.593912 0.122927
0.814679 0.600549 0.130175
0.841749 0.606973 0.137697
0.865614 0.61474 0.14609
0.887526 0.623041 0.155535
0.907362 0.631189 0.16466
0.927062 0.63949 0.174334
0.946654 0.647639 0.183703
0.966506 0.65565 0.192828
0.985885 0.663127 0.201938
1 0.670527 0.21059
0 0.345342 0.212634
0.000808728 0.351156 0.199802
0.00814832 0.35964 0.186435
0.0160525 0.371878 0.173571
0.0264134 0.387304 0.160204
0.0391852 0.405875 0.146227
0.0571603 0.429007 0.132555
0.081529 0.455482 0.118959
0.11487 0.48426 0.105531
0.161257 0.512047 0.09337
0.223087 0.534936 0.0823377
0.295521 0.551492 0.0751659
0.367727 0.563851 0.0719615
0.431662 0.573571 0.0738689
0.488411 0.58201 0.0783398
0.537865 0.587976 0.0832074
0.582238 0.59292 0.0887465
0.620401 0.596399 0.0931106
0.654551 0.599466 0.0974136
0.688762 0.60528 0.103548
0.722087 0.610727 0.109468
0.754376 0.616571 0.115709
0.785504 0.622507 0.122301
0.815045 0.628397 0.129366
0.842298 0.635416 0.13698
0.866224 0.642802 0.145556
0.887358 0.65066 0.154223
0.907713 0.658885 0.164294
0.926863 0.66688 0.173266
0.946777 0.675013 0.183032
0.966171 0.682414 0.191821
0.985336 0.689509 0.200671
1 0.697154 0.210178
0 0.368704 0.22884
0 0.372793 0.214176
0.00639353 0.379995 0.2
0.0141909 0.390143 0.185702
0.0234531 0.404013 0.172
0.0348516 0.421256 0.156817
0.0515755 0.442618 0.143084
0.0732586 0.468086 0.128557
0.102495 0.496239 0.114443
0.142412 0.524941 0.101366
0.197696 0.550286 0.08925
0.26775 0.57055 0.079942
0.342 0.58587 0.0749371
0.412299 0.598383 0.0745861
0.472923 0.608469 0.0780499
0.52842 0.616129 0.0831311
0.576364 0.621942 0.0881361
0.61973 0.626703 0.0938277
0.656901 0.630625 0.0985885
0.689677 0.633219 0.102541
0.723156 0.638926 0.108812
0.755642 0.64477 0.115175
0.786175 0.650324 0.121721
0.8159 0.656657 0.128878
0.842863 0.662837 0.136248
0.866239 0.670283 0.14435
0.887907 0.678126 0.153903
0.907576 0.686015 0.162936
0.927092 0.693797 0.172671
0.946609 0.701549 0.181857
0.96585 0.708431 0.190692
0.985107 0.716045 0.2
1 0.722896 0.208972
0 0.391959 0.246235
9.15541e-05 0.396307 0.231754
0.0068513 0.402548 0.2168
0.0139925 0.411292 0.20145
0.0219883 0.423148 0.186404
0.0328985 0.438819 0.170809
0.0472877 0.458427 0.155291
0.0668345 0.48188 0.140246
0.0927138 0.508858 0.125628
0.127916 0.537667 0.110903
0.175448 0.564294 0.0975509
0.240406 0.587701 0.0865949
0.315358 0.606043 0.0787671
0.389059 0.620798 0.0763714
0.455589 0.633433 0.0785077
0.514534 0.64268 0.0825666
0.568032 0.649897 0.0879377
0.614878 0.655406 0.0934615
0.656336 0.659922 0.09897
0.692576 0.66392 0.104219
0.724636 0.666789 0.108492
0.75639 0.67219 0.114458
0.787274 0.677928 0.121553
0.816434 0.683513 0.127962
0.843397 0.690211 0.135607
0.867079 0.697383 0.14406
0.887724 0.704631 0.152621
0.908034 0.712551 0.162417
0.92697 0.720287 0.171679
0.946563 0.727672 0.181125
0.965606 0.734173 0.189487
0.984817 0.741299 0.19881
1 0.748241 0.207858
0 0.415106 0.263752
0.00106813 0.419638 0.249638
0.00741588 0.425391 0.234165
0.0147707 0.433845 0.218738
0.0227817 0.445304 0.202838
0.0330205 0.459678 0.18645
0.0462043 0.47808 0.169696
0.0633097 0.499382 0.153063
0.0854658 0.524102 0.136995
0.115587 0.551537 0.121477
0.157565 0.578714 0.107042
0.215228 0.603723 0.0948196
0.287144 0.624872 0.0851606
0.364172 0.642267 0.0805524
0.434058 0.656291 0.0802319
0.497627 0.66772 0.0833295
0.55523 0.676387 0.0880751
0.607263 0.682933 0.0934615
0.652552 0.688594 0.0992905
0.692409 0.692775 0.104814
0.727169 0.696559 0.109834
0.758038 0.699504 0.114626
0.788266 0.704784 0.120745
0.8177 0.710521 0.127687
0.844038 0.716564 0.134829
0.86717 0.723568 0.142977
0.88864 0.73106 0.152605
0.907927 0.738338 0.161181
0.927184 0.745693 0.170962
0.94638 0.752956 0.179736
0.965499 0.759243 0.188388
0.984588 0.766339 0.197803
1 0.772717 0.2065
0 0.437842 0.282124
0.00199893 0.442359 0.267567
0.00848402 0.447959 0.252094
0.0157473 0.456626 0.236362
0.0238346 0.467613 0.220188
0.0334173 0.481147 0.202701
0.0452888 0.49807 0.185657
0.0606699 0.518074 0.167758
0.0803845 0.541176 0.150393
0.106584 0.566491 0.134005
0.142809 0.593668 0.11809
0.194568 0.619913 0.104372
0.261158 0.642939 0.093492
0.337514 0.66212 0.0863203
0.411566 0.678096 0.0836957
0.477821 0.691386 0.0853742
0.539635 0.701427 0.0887007
0.595499 0.7093 0.0936751
0.645594 0.715434 0.0994888
0.689311 0.720745 0.10547
0.727352 0.724544 0.110643
0.760403 0.728237 0.115709
0.789929 0.731197 0.120714
0.818601 0.736385 0.127031
0.84506 0.742657 0.134463
0.867964 0.749249 0.142657
0.888624 0.756161 0.15111
0.908583 0.763546 0.161013
0.927321 0.770703 0.16968
0.946624 0.777615 0.179095
0.965499 0.78381 0.187228
0.984298 0.790036 0.196399
1 0.79649 0.205188
0 0.460517 0.300175
0.00280766 0.465049 0.285451
0.00920119 0.470695 0.269123
0.0166476 0.479164 0.253117
0.024155 0.489784 0.236439
0.0334173 0.502922 0.218906
0.0441291 0.518395 0.200839
0.0581369 0.536721 0.182956
0.0759899 0.55816 0.164462
0.0991836 0.58201 0.146914
0.131075 0.60856 0.130297
0.17641 0.635325 0.115694
0.238163 0.660136 0.103227
0.310918 0.680781 0.0939956
0.387457 0.698497 0.0887922
0.457099 0.71339 0.088426
0.521492 0.725277 0.0907454
0.58143 0.734157 0.0944686
0.635554 0.74139 0.0997787
0.683238 0.746914 0.105425
0.724804 0.751766 0.111421
0.760769 0.755444 0.116732
0.792477 0.758877 0.122332
0.820188 0.761975 0.127016
0.846082 0.767727 0.134051
0.868818 0.774166 0.142245
0.889677 0.781186 0.151095
0.908614 0.787762 0.159838
0.927779 0.794736 0.169177
0.946639 0.801358 0.177768
0.965515 0.807126 0.186328
0.984222 0.813519 0.195392
1 0.818845 0.203571
0 0.483085 0.318074
0.00320439 0.487175 0.303273
0.00972 0.493065 0.287556
0.0165866 0.500847 0.270558
0.0240024 0.511055 0.253437
0.0327459 0.523217 0.235767
0.0428321 0.538155 0.217227
0.0558633 0.555734 0.197879
0.0716259 0.57499 0.179583
0.0928664 0.597986 0.160861
0.121721 0.623545 0.143175
0.161501 0.650523 0.127733
0.216953 0.676219 0.114092
0.286229 0.698512 0.102892
0.361929 0.71751 0.0957351
0.434577 0.733623 0.0924392
0.501839 0.74696 0.0932174
0.565118 0.757992 0.0965133
0.622873 0.765743 0.100618
0.674327 0.772045 0.105821
0.719646 0.777188 0.111421
0.759136 0.781659 0.11754
0.79324 0.785229 0.123339
0.82266 0.788678 0.128771
0.847486 0.79234 0.134173
0.869902 0.798321 0.141955
0.890257 0.804791 0.150561
0.909636 0.811643 0.159625
0.92813 0.818219 0.168353
0.94728 0.824414 0.17731
0.965377 0.829618 0.185
0.983719 0.834958 0.193439
1 0.840131 0.201999
0 0.505257 0.335424
0.00318914 0.509209 0.320485
0.00981155 0.514717 0.305501
0.0162814 0.521431 0.289235
0.0234989 0.53048 0.272084
0.0311589 0.542031 0.254185
0.0408789 0.556207 0.235157
0.0526741 0.572839 0.215518
0.0679026 0.591928 0.195575
0.0876783 0.614404 0.176074
0.11342 0.638605 0.157748
0.149248 0.6654 0.140734
0.198703 0.6916 0.126223
0.262501 0.715053 0.113283
0.33695 0.735576 0.103975
0.411109 0.752682 0.098146
0.480156 0.767803 0.0974136
0.546761 0.779583 0.0987564
0.607874 0.788998 0.102388
0.663005 0.795911 0.106615
0.711818 0.801556 0.112154
0.754681 0.806455 0.118395
0.79176 0.810468 0.124544
0.823987 0.814343 0.13051
0.850111 0.817975 0.136141
0.871534 0.821836 0.142397
0.89192 0.828153 0.151125
0.910674 0.834058 0.159167
0.929107 0.840208 0.168215
0.947219 0.845228 0.175921
0.965789 0.850355 0.184375
0.983459 0.8551 0.19202
1 0.858732 0.199725
0 0.527169 0.3523
0.0030518 0.530678 0.337545
0.00918593 0.535958 0.322164
0.0154726 0.542397 0.305959
0.0227359 0.551247 0.289067
0.0298924 0.562005 0.271458
0.0389563 0.574746 0.252598
0.049958 0.590478 0.232853
0.0641337 0.608606 0.212497
0.0825818 0.630289 0.192462
0.106859 0.654353 0.173159
0.138735 0.680186 0.155077
0.183169 0.706722 0.139178
0.241764 0.731014 0.125048
0.312093 0.752575 0.113878
0.386938 0.770809 0.105928
0.458106 0.787243 0.102998
0.526467 0.800458 0.103212
0.591012 0.810498 0.104997
0.649409 0.818402 0.108553
0.702403 0.824506 0.113283
0.74844 0.829602 0.119371
0.789029 0.834073 0.125612
0.823911 0.838071 0.132235
0.852293 0.842008 0.138628
0.8748 0.845945 0.145357
0.89395 0.849668 0.151644
0.912825 0.855314 0.160311
0.930999 0.860624 0.168765
0.948608 0.864637 0.176196
