luts/stills/KA Pacific.cube
TITLE "Generated by Resolve"
LUT_3D_SIZE 5
0.0393072 0.0393072 0.0393072
0.192691 0.0477607 0.0261234
0.469657 0.0240635 0
0.672831 0.0232395 0
0.848264 0.0416419 0
0.0503548 0.200763 0.0591592
0.247089 0.204852 0.0113222
0.570291 0.233371 0.0412451
0.784863 0.263172 0.0532387
0.992508 0.289494 0.0807507
0.0325322 0.400351 0.0431067
0.141451 0.408835 0.238651
0.514 0.396338 0
0.844785 0.534264 0.09337
0.999985 0.562264 0.0843824
0.0652171 0.635233 0.0812543
0.135546 0.618189 0.234241
0.375875 0.643915 0.401022
0.738445 0.622278 0
1 0.707027 0.0746166
0.118181 0.828504 0.139879
0.182849 0.807645 0.212955
0.401633 0.771954 0.525872
0.500359 0.827817 0.320226
0.915434 0.775921 0
0.0270542 0.0392309 0.26569
0.226856 0.0347753 0.2392
0.495918 0.0108644 0.179843
0.723705 0.00198367 0.217777
0.885878 0.0209964 0.17995
0.0234531 0.235966 0.233875
0.227298 0.254108 0.254063
0.527581 0.259037 0.224048
0.744976 0.289601 0.219669
0.930114 0.323308 0.220722
0.0461738 0.527108 0.250034
0.244465 0.486656 0.270069
0.536156 0.477119 0.18349
0.792859 0.559335 0.27895
0.971344 0.573754 0.267842
0.187366 0.730373 0.476326
0.224125 0.665125 0.264698
0.417609 0.629053 0.478767
0.710002 0.631495 0.104601
1 0.745007 0.314137
0.335378 0.83714 0.622721
0.27013 0.831846 0.306661
0.395987 0.776135 0.46923
0.600229 0.789319 0.608637
0.885756 0.781048 0.066331
0.0105287 0.0351873 0.568109
0.209506 0.0345769 0.54786
0.519875 0 0.489586
0.676371 0.00047303 0.374517
0.885512 0.0249943 0.450874
0 0.269688 0.517815
0.223209 0.280293 0.583093
0.560098 0.250797 0.541115
0.760464 0.26804 0.52282
0.985306 0.29308 0.595499
0.0176394 0.537896 0.526223
0.223926 0.562814 0.55317
0.553155 0.552422 0.54464
0.752895 0.568917 0.530282
0.919219 0.585443 0.510903
0.0899214 0.785748 0.579614
0.31664 0.77882 0.583215
0.542428 0.703136 0.538857
0.735348 0.697353 0.453376
0.958724 0.757626 0.559838
0.123354 0.96643 0.613321
0.496605 0.885222 0.682948
0.493751 0.80824 0.496696
0.62855 0.775387 0.659205
0.853864 0.783963 0.289052
0.00631724 0.0362554 0.765667
0.228992 0.0313268 0.746899
0.494392 0.0122683 0.719722
0.735103 0.00236515 0.694102
0.891173 0.0105745 0.621347
0 0.313527 0.621668
0.23328 0.319646 0.80293
0.587671 0.301228 0.778653
0.799054 0.280018 0.765499
0.92108 0.266285 0.682872
0.0193484 0.628794 0.819013
0.186542 0.636637 0.779538
0.570626 0.593866 0.77908
0.775402 0.563638 0.749386
0.931136 0.56144 0.727489
0.0660716 0.794842 0.772564
0.247517 0.799573 0.778393
0.554925 0.768124 0.748272
0.762173 0.761837 0.743435
0.923583 0.7682 0.730205
0.106569 0.973373 0.782818
0.317037 0.963912 0.774929
0.59707 0.935454 0.754513
0.734325 0.862821 0.71931
0.89337 0.857572 0.665263
0 0.0419928 0.959136
0.233555 0.0325933 0.942168
0.516136 0.0192416 0.903609
0.725628 0.025742 0.914305
0.950134 0.0346227 0.895293
0 0.360983 0.760739
0.217914 0.339376 1
0.616053 0.319188 0.983963
0.798489 0.327901 0.988022
1 0.31429 0.969741
0 0.627604 0.918669
0.09337 0.677043 0.875151
0.586297 0.628641 0.996674
0.797925 0.613565 0.967742
0.965286 0.570626 0.92723
0.0461585 0.865553 1
0.249134 0.880735 1
0.534371 0.826108 0.957549
0.781659 0.798077 0.966796
0.945083 0.762219 0.915465
0.0710155 0.983474 0.95671
0.246174 0.984421 0.959045
0.551431 0.949538 0.925521
0.758633 0.941665 0.919005
0.940734 0.940734 0.919753
