luts/stills/KA Pacific.cube
TITLE "Generated by Resolve"
LUT_3D_SIZE 33
0.0393072 0.0393072 0.0393072
0.0549935 0.0406653 0.0384222
0.0708019 0.0428931 0.0378729
0.0863508 0.0455024 0.0375982
0.10193 0.0477302 0.0369726
0.118746 0.0495155 0.0361791
0.137438 0.0507057 0.0345159
0.160372 0.0505226 0.0315557
0.192691 0.0477607 0.0261234
0.234867 0.0417639 0.0174105
0.278752 0.0356146 0.0087129
0.315068 0.0324407 0.00282292
0.346029 0.0311437 0
0.376669 0.029633 0
0.407416 0.027863 0
0.438346 0.026154 0
0.469657 0.0240635 0
0.500435 0.0221408 0
0.529885 0.0205844 0
0.557061 0.0197452 0
0.582177 0.0198672 0
0.605722 0.0204776 0
0.628458 0.0211948 0
0.650706 0.0221103 0
0.672831 0.0232395 0
0.694942 0.0248417 0
0.716899 0.0266575 0
0.738598 0.0286564 0
0.760204 0.0307317 0
0.781842 0.0330358 0
0.803738 0.0356603 0
0.826062 0.0386969 0
0.848264 0.0416419 0
0.0424506 0.0600748 0.0438239
0.0595102 0.0621653 0.0398108
0.0757305 0.06421 0.0429999
0.0916152 0.0660563 0.043183
0.109285 0.0672007 0.0445411
0.128664 0.0678111 0.045182
0.1523 0.0670787 0.0441749
0.184436 0.0641337 0.0396735
0.226642 0.0577707 0.0310826
0.272633 0.0503853 0.0213626
0.31249 0.0454719 0.014435
0.345998 0.0433509 0.0109102
0.376333 0.0428779 0.00854505
0.406439 0.0421302 0.00541695
0.437049 0.0407416 0.00151064
0.468513 0.038819 0
0.499382 0.0370794 0
0.529 0.0357977 0
0.556542 0.0352636 0
0.581872 0.0354772 0
0.605661 0.0361486 0
0.62884 0.0371557 0
0.651606 0.0385138 0
0.674083 0.0401312 0
0.696208 0.0420539 0
0.718379 0.0441291 0
0.740627 0.0466468 0
0.762814 0.0493172 0
0.784985 0.0521706 0
0.807095 0.0551003 0
0.82945 0.0584268 0
0.851926 0.0618601 0
0.8748 0.0656291 0
0.0462654 0.0810864 0.0490578
0.0582132 0.082002 0.0697642
0.0789349 0.0851453 0.04065
0.0972 0.0860304 0.0478218
0.111971 0.0881666 0.0458839
0.130373 0.0891432 0.0426947
0.15555 0.0876783 0.0395819
0.189715 0.0832227 0.0340276
0.234043 0.0761273 0.0258335
0.280919 0.0690318 0.0181582
0.320699 0.0642252 0.0135805
0.355489 0.0618601 0.0125429
0.389075 0.0605783 0.0132753
0.422187 0.0594034 0.0133059
0.455711 0.0576944 0.0110323
0.488914 0.0557259 0.00769055
0.520836 0.0539559 0.00424201
0.550561 0.0529793 0.00138857
0.578027 0.0530861 0
0.603387 0.0539101 0
0.627634 0.0550088 0
0.65127 0.0563668 0
0.67454 0.0580911 0
0.698024 0.0604868 0
0.721157 0.0629587 0
0.744198 0.0658122 0
0.766842 0.0686503 0
0.789548 0.0717021 0
0.812543 0.0751659 0
0.83563 0.0788586 0
0.858549 0.0824598 0
0.881773 0.086305 0.000274662
0.905211 0.0901656 0.00135805
0.0493172 0.101045 0.0537881
0.06009 0.102266 0.0732128
0.0712291 0.104479 0.0849165
0.0977951 0.107027 0.0406653
0.119966 0.10721 0.05066
0.137896 0.10927 0.0517891
0.158358 0.110094 0.0474403
0.187686 0.108186 0.0404059
0.230747 0.101946 0.0313268
0.279789 0.0941939 0.0223239
0.321538 0.0886549 0.0163577
0.357519 0.0855726 0.0139162
0.391959 0.0839551 0.0138552
0.425666 0.0827344 0.0142367
0.460594 0.0809033 0.0134585
0.495674 0.0789197 0.011902
0.529702 0.0774701 0.0106813
0.561151 0.0764782 0.00972
0.589776 0.0765545 0.00979629
0.616312 0.077348 0.0102693
0.642115 0.0787976 0.010605
0.667369 0.0807202 0.0112306
0.692348 0.0830243 0.0120241
0.716579 0.0854047 0.0127565
0.740902 0.0883192 0.0139162
0.764981 0.0913558 0.0150607
0.78883 0.0946059 0.0163577
0.81265 0.098085 0.0178073
0.836515 0.101778 0.0193484
0.860502 0.105562 0.0210269
0.884535 0.109667 0.0228428
0.908644 0.113664 0.0244907
0.93283 0.117678 0.0261387
0.0516976 0.120546 0.0573129
0.062501 0.122347 0.0702373
0.0751965 0.122972 0.0981918
0.0800488 0.129717 0.0824445
0.117235 0.128557 0.0394598
0.145281 0.127504 0.0496834
0.171832 0.128862 0.0530709
0.203922 0.126925 0.049134
0.240909 0.123888 0.0402686
0.282338 0.119615 0.0308995
0.321614 0.115541 0.0232395
0.35816 0.11223 0.019028
0.393973 0.110033 0.01738
0.428901 0.108675 0.0170138
0.464805 0.107027 0.0160983
0.500755 0.10547 0.0149691
0.535225 0.104479 0.0142214
0.567285 0.104326 0.0142214
0.596643 0.104982 0.0150301
0.62414 0.106203 0.0163882
0.650919 0.107866 0.0181735
0.677592 0.110155 0.0204013
0.703883 0.112596 0.0229343
0.729839 0.115282 0.0257725
0.755367 0.117983 0.0285649
0.780591 0.121004 0.0311742
0.805966 0.124681 0.0339513
0.830839 0.128344 0.0363012
0.85568 0.132082 0.0386206
0.880629 0.136126 0.0411688
0.905592 0.139986 0.0435187
0.930694 0.144091 0.0459297
0.956054 0.148318 0.0483558
0.0534524 0.140246 0.0600443
0.0648661 0.142123 0.0682994
0.0760662 0.142123 0.101884
0.0867933 0.145556 0.114092
0.0893416 0.156451 0.06009
0.138842 0.149523 0.0368658
0.177523 0.145968 0.0454108
0.222278 0.145144 0.0495003
0.263615 0.142611 0.0455482
0.302739 0.139803 0.0399481
0.334752 0.139132 0.0334173
0.365011 0.138918 0.0278325
0.397726 0.138125 0.0240482
0.432242 0.137545 0.0218051
0.469245 0.136172 0.0205539
0.50602 0.135012 0.0194858
0.541131 0.134371 0.018967
0.573678 0.134554 0.0192721
0.60354 0.13576 0.0206149
0.632166 0.137881 0.0228885
0.659556 0.140017 0.0251774
0.686412 0.142443 0.0277409
0.713146 0.145373 0.030808
0.739544 0.148363 0.0339513
0.765698 0.151598 0.0372931
0.791897 0.155215 0.0408484
0.81767 0.158633 0.0444038
0.843641 0.162387 0.0482795
0.869612 0.166018 0.0520638
0.89543 0.169696 0.0558633
0.921431 0.173434 0.0596933
0.947555 0.17734 0.0633097
0.973587 0.181018 0.06598
0.0536355 0.159655 0.0612497
0.0657511 0.161975 0.0665293
0.074464 0.162966 0.0996414
0.0886397 0.164431 0.123125
0.0975509 0.169497 0.124666
0.105623 0.181155 0.0394293
0.164904 0.169726 0.0314336
0.22089 0.161868 0.0374914
0.280613 0.160586 0.0424811
0.32108 0.161959 0.0431983
0.353979 0.161822 0.0406348
0.384237 0.162264 0.0365911
0.413474 0.163668 0.0313268
0.443671 0.164965 0.0275578
0.476753 0.166079 0.025742
0.511116 0.166735 0.0238651
0.546242 0.166964 0.0236362
0.57937 0.16762 0.0243687
0.609995 0.169467 0.0262455
0.638727 0.171695 0.0285801
0.667002 0.174517 0.0315251
0.694484 0.177432 0.0345617
0.721431 0.180468 0.0377508
0.748058 0.183703 0.0411078
0.774823 0.187427 0.0449531
0.801053 0.190967 0.0486305
0.827253 0.194751 0.0525673
0.853239 0.198474 0.0564431
0.879072 0.202106 0.0602121
0.905333 0.206027 0.0641337
0.931258 0.209598 0.0677653
0.957275 0.213107 0.0714122
0.983993 0.216648 0.0750896
0.0528572 0.179934 0.0612192
0.0648661 0.181994 0.0640116
0.0729534 0.183719 0.0924086
0.0878309 0.183871 0.12517
0.0999161 0.189639 0.13933
0.104814 0.196567 0.124956
0.126528 0.205203 0.0251774
0.200259 0.188388 0.0233005
0.270359 0.176837 0.0272679
0.329107 0.179843 0.0356146
0.369604 0.186206 0.0411231
0.40209 0.189029 0.0406806
0.433524 0.190341 0.0393378
0.463844 0.192432 0.0375219
0.493156 0.195315 0.0346075
0.523476 0.197955 0.0319677
0.555047 0.200504 0.0302586
0.585565 0.20296 0.0299992
0.614633 0.205631 0.0306554
0.643809 0.208301 0.0332952
0.672282 0.211215 0.0362707
0.700069 0.214282 0.0394446
0.727642 0.217884 0.0430762
0.754559 0.221286 0.0466011
0.78114 0.224735 0.0502022
0.807752 0.228473 0.0541085
0.833814 0.232013 0.0578012
0.859739 0.235554 0.0615244
0.885847 0.23946 0.0654917
0.91162 0.242939 0.0691386
0.937575 0.246387 0.0727703
0.963516 0.249683 0.0762341
0.989761 0.252705 0.0794537
0.0503548 0.200763 0.0591592
0.0625315 0.202808 0.0604257
0.0709697 0.205097 0.0842145
0.0839551 0.205631 0.122499
0.0989242 0.209186 0.144884
0.109148 0.216495 0.150652
0.107332 0.227649 0.106065
0.154543 0.227726 0.0114595
0.247089 0.204852 0.0113222
0.316091 0.194751 0.0159915
0.369314 0.202121 0.027863
0.414649 0.213001 0.0378576
0.449485 0.219669 0.041474
0.482078 0.22266 0.0429389
0.513924 0.225391 0.0441901
0.543282 0.229252 0.0435645
0.570291 0.233371 0.0412451
0.597131 0.237461 0.0390021
0.623514 0.241703 0.0384222
0.649851 0.245548 0.0390021
0.676051 0.249378 0.0400397
0.703685 0.252995 0.0428016
0.731044 0.256275 0.0460975
0.758038 0.259632 0.0495613
0.784863 0.263172 0.0532387
0.811215 0.26656 0.0567788
0.837232 0.269932 0.0603037
0.863249 0.273564 0.0639963
0.888869 0.276768 0.0673686
0.91458 0.280095 0.0708476
0.940322 0.283345 0.0742962
0.966094 0.286366 0.0775006
0.992508 0.289494 0.0807507
0.0472419 0.222522 0.0563058
0.0593576 0.224323 0.0561532
0.0684215 0.226459 0.0758984
0.0788128 0.228016 0.11458
0.0961166 0.229282 0.144991
0.110231 0.238254 0.16228
0.119402 0.244739 0.159213
0.111559 0.26041 0.0813916
0.184085 0.250629 0.00106813
0.288777 0.224277 0.00144961
0.350942 0.216251 0.00909438
0.404608 0.22565 0.0228885
0.456397 0.241779 0.037995
0.496681 0.252766 0.0458991
0.530404 0.259083 0.0496529
0.560906 0.262425 0.0518044
0.588769 0.266316 0.0525216
0.613413 0.271321 0.051545
0.636576 0.276432 0.0492866
0.660029 0.281559 0.0478981
0.684077 0.28629 0.0473335
0.708659 0.290578 0.0473945
0.733562 0.294667 0.0487526
0.759167 0.298543 0.0505379
0.785489 0.30164 0.0535744
0.811719 0.305013 0.0569009
0.837598 0.308202 0.0601511
0.863264 0.31133 0.0633707
0.889036 0.314611 0.0667887
0.914504 0.317556 0.0699016
0.939956 0.320455 0.0729534
0.965759 0.323644 0.0761883
0.992111 0.326345 0.0791943
0.0434577 0.244755 0.0527047
0.0559243 0.246616 0.0517891
0.06598 0.2486 0.0687724
0.0747692 0.250721 0.104387
0.091783 0.251102 0.141314
0.107622 0.257694 0.165911
0.12076 0.267933 0.176211
0.12784 0.274922 0.159808
0.120668 0.292378 0.0526741
0.223911 0.271397 0
0.323751 0.245823 0
0.382025 0.238773 0.00209049
0.437461 0.248966 0.0177157
0.495125 0.269032 0.035935
0.540902 0.28574 0.0493782
0.574639 0.296132 0.0559701
0.602625 0.301595 0.0585794
0.628168 0.305592 0.0603342
0.651698 0.31046 0.0605631
0.673823 0.315755 0.0591287
0.695094 0.320989 0.0568551
0.71722 0.326101 0.0553445
0.739773 0.330648 0.0542611
0.763058 0.334859 0.054139
0.786801 0.339071 0.0551766
0.810834 0.342855 0.0559548
0.835843 0.346059 0.0582132
0.861509 0.349142 0.0613413
0.887007 0.352041 0.0643778
0.912581 0.355001 0.0674754
0.938521 0.358389 0.0708782
0.964446 0.361456 0.0741436
0.991226 0.364538 0.0774853
0.039704 0.268193 0.0491188
0.0519875 0.269734 0.0470283
0.0623789 0.270985 0.0611887
0.0706798 0.273152 0.0926223
0.0853742 0.274327 0.134859
0.103426 0.277317 0.164294
0.120348 0.289296 0.185336
0.131533 0.297139 0.186923
0.132753 0.307515 0.148562
0.137774 0.321508 0.0254978
0.267353 0.291188 0
0.354864 0.268727 0
0.412848 0.261769 0
0.469306 0.271641 0.0108034
0.530159 0.294774 0.0325017
0.579263 0.31722 0.0503853
0.612665 0.332036 0.0597086
0.639246 0.340688 0.0642557
0.66331 0.345022 0.0663005
0.686305 0.349233 0.0671702
0.7084 0.354101 0.0671397
0.728969 0.359182 0.0651102
0.749477 0.36437 0.0630045
0.770367 0.369345 0.0611124
0.791852 0.373861 0.0597391
0.81445 0.378058 0.0595102
0.837705 0.382239 0.0604715
0.861402 0.38616 0.0612955
0.885649 0.390234 0.0628672
0.91136 0.39353 0.0660563
0.937179 0.396643 0.0692607
0.963333 0.399908 0.0726329
0.989914 0.402701 0.0756695
0.0358129 0.292103 0.0454261
0.0482185 0.293172 0.0424201
0.0590829 0.293736 0.0546426
0.0675822 0.296025 0.0825666
0.0796826 0.297642 0.124727
0.0990311 0.298299 0.160098
0.116381 0.307851 0.187304
0.133318 0.320562 0.202411
0.144518 0.326802 0.19527
0.13637 0.341283 0.127962
0.167681 0.346517 0.0027924
0.307103 0.312016 0
0.385122 0.292332 0
0.444144 0.286 0
0.50251 0.295872 0.00274662
0.562356 0.320302 0.0257115
0.611383 0.346883 0.0475013
0.645808 0.365728 0.0611582
0.672648 0.377249 0.0680705
0.6963 0.383337 0.0711681
0.718807 0.387274 0.0727092
0.740917 0.391592 0.0733959
0.761776 0.396567 0.0726024
0.781949 0.401694 0.0710918
0.80235 0.407233 0.0694438
0.823087 0.412375 0.0677348
0.844388 0.417258 0.0667735
0.867002 0.421897 0.0668498
0.88983 0.426291 0.0670024
0.913527 0.430243 0.0683757
0.937453 0.43415 0.0695048
0.962493 0.437385 0.0716411
0.988815 0.440009 0.0743572
0.0330053 0.317082 0.042771
0.0452888 0.317494 0.0388647
0.0560311 0.317479 0.0486305
0.0645151 0.318868 0.0732586
0.0745861 0.320699 0.112551
0.0929274 0.321218 0.153994
0.111406 0.326009 0.18439
0.132052 0.34081 0.210071
0.146334 0.350484 0.216281
0.157137 0.356741 0.196323
0.141161 0.374929 0.099794
0.214374 0.366979 0
0.343374 0.334676 0
0.416892 0.317037 0
0.476448 0.311009 0
0.534218 0.320531 0
0.59144 0.345739 0.0194095
0.639765 0.375036 0.0440833
0.676265 0.397269 0.0619211
0.704509 0.411475 0.0712444
0.72903 0.420386 0.0760052
0.751568 0.425391 0.0785534
0.773846 0.42974 0.0804761
0.795422 0.434669 0.0814374
0.815961 0.439704 0.0807507
0.835813 0.445121 0.0792554
0.855924 0.450553 0.0775921
0.876417 0.455589 0.0757763
0.897566 0.460426 0.0748608
0.919585 0.464729 0.0741131
0.942046 0.468467 0.0740215
0.965255 0.472007 0.0745556
0.98912 0.475273 0.0747997
0.0308385 0.343038 0.0407721
0.0426184 0.342687 0.0356298
0.0539864 0.341817 0.0442054
0.062623 0.342473 0.0657206
0.0716564 0.34432 0.1019
0.0869001 0.34493 0.145892
0.107271 0.346242 0.180468
0.126909 0.358221 0.210452
0.148104 0.372671 0.22974
0.162997 0.379461 0.225818
0.167666 0.38851 0.184421
0.154086 0.407584 0.0646677
0.273136 0.384527 0
0.377844 0.359136 0
0.448646 0.342702 0
0.508751 0.336904 0
0.564645 0.346258 0
0.617639 0.371405 0.0133211
0.666102 0.402213 0.0405432
0.705653 0.427695 0.0618143
0.736584 0.445365 0.0750286
0.762066 0.456809 0.0819867
0.784894 0.4636 0.0857557
0.806745 0.467948 0.0879835
0.828367 0.472435 0.0893416
0.849287 0.477256 0.0898146
0.869032 0.482155 0.0886091
0.888487 0.487114 0.0867933
0.907729 0.491905 0.0839857
0.927642 0.496391 0.0818341
0.948165 0.500618 0.0801251
0.969604 0.504204 0.0784161
0.991791 0.507256 0.0772869
0.0307317 0.370748 0.0409247
0.0421302 0.369375 0.0347906
0.0531777 0.367483 0.0414282
0.0615091 0.367102 0.0599069
0.0698558 0.368261 0.0923781
0.0828717 0.369116 0.136614
0.103059 0.369268 0.175753
0.12163 0.37557 0.208042
0.14638 0.391913 0.237476
0.166308 0.402274 0.246983
0.182223 0.407095 0.235065
0.175937 0.420752 0.170916
0.175067 0.436744 0.0395514
0.315602 0.406775 0
0.409613 0.384421 0
0.480537 0.369024 0
0.540368 0.363989 0
0.593835 0.373571 0
0.643549 0.397864 0.00849927
0.691661 0.428763 0.0368505
0.734112 0.457267 0.0616159
0.766918 0.478035 0.0776837
0.792996 0.491829 0.0861677
0.816068 0.500496 0.0908064
0.837446 0.505318 0.0931258
0.858579 0.509209 0.0947738
0.879484 0.513237 0.0954757
0.899153 0.517311 0.0944686
0.918181 0.521416 0.0926223
0.936767 0.525734 0.0895705
0.955612 0.529625 0.0863508
0.975372 0.533318 0.083299
0.995132 0.536461 0.0805524
0.0325322 0.400351 0.0431067
0.0432136 0.397894 0.0358434
0.053666 0.394949 0.0403601
0.0623331 0.393454 0.0567483
0.0699779 0.393805 0.0859083
0.0807507 0.394476 0.127596
0.0986191 0.393881 0.171115
0.119051 0.396139 0.205814
0.141451 0.408835 0.238651
0.168307 0.423636 0.261112
0.186114 0.430518 0.261952
0.202258 0.43537 0.239109
0.18468 0.453925 0.151537
0.205737 0.463478 0.0159915
0.351293 0.431495 0
0.44155 0.411002 0
0.514 0.396338 0
0.571939 0.392233 0
0.621637 0.401892 0
0.668482 0.424216 0.00369268
0.717113 0.455741 0.0334936
0.760479 0.486183 0.0597238
0.794965 0.509194 0.0780499
0.821805 0.524422 0.0880751
0.844785 0.534264 0.09337
0.865873 0.539925 0.0959487
0.885969 0.543297 0.0969863
0.906554 0.546319 0.0976272
0.926329 0.549691 0.0972457
0.945449 0.552926 0.0953994
0.963623 0.556146 0.0924239
0.982025 0.559152 0.0884108
0.999985 0.562264 0.0843824
0.0354925 0.43125 0.0466773
0.046067 0.428611 0.038941
0.0562905 0.424872 0.0420386
0.0645914 0.421836 0.0558938
0.0717479 0.421149 0.0816968
0.0806897 0.421256 0.119982
0.0958724 0.420645 0.165713
0.116869 0.42005 0.203937
0.137011 0.4271 0.237583
0.166064 0.442954 0.26862
0.191638 0.453574 0.2813
0.210269 0.458045 0.273198
0.220523 0.4654 0.234607
0.195621 0.487907 0.126452
0.250462 0.487785 0
0.386114 0.458198 0
0.47631 0.438254 0
0.547097 0.424308 0
0.601114 0.420737 0
0.647669 0.429831 0
0.694194 0.451545 0.000183108
0.741634 0.482689 0.0294347
0.785 0.513848 0.0562753
0.820508 0.53782 0.0763561
0.847776 0.553613 0.08748
0.871015 0.564187 0.0935683
0.892149 0.570535 0.0966354
0.911757 0.573968 0.0975052
0.931792 0.576196 0.0978714
0.951507 0.57847 0.0972305
0.971054 0.580697 0.0955062
0.989288 0.583261 0.0929732
1 0.586084 0.089601
0.037995 0.462501 0.0499275
0.0484169 0.459892 0.0417029
0.0588083 0.456046 0.0441596
0.0677043 0.45272 0.0565957
0.0747082 0.45124 0.0797589
0.0826123 0.450523 0.114778
0.0951705 0.449271 0.160311
0.115251 0.447471 0.202976
0.135698 0.449546 0.238071
0.161166 0.461875 0.271855
0.19353 0.475639 0.294438
0.217685 0.482185 0.297902
0.238987 0.48574 0.281773
0.237156 0.498604 0.222965
0.214221 0.521813 0.0980697
0.303532 0.511696 0
0.423224 0.485817 0
0.512108 0.465873 0
0.578378 0.453086 0
0.628489 0.450034 0
0.674006 0.459098 0
0.719188 0.479637 0
0.765026 0.509377 0.024918
0.807965 0.53962 0.0518959
0.843915 0.563272 0.0722667
0.872251 0.579507 0.0850843
0.895933 0.590143 0.0919814
0.916976 0.597009 0.0955062
0.937133 0.600946 0.0967269
0.956664 0.603006 0.0969711
0.976822 0.604578 0.0966201
0.996155 0.606668 0.0957351
1 0.608865 0.0937972
0.0404669 0.493294 0.0531014
0.0507973 0.490822 0.0447089
0.0614023 0.487068 0.0464179
0.0703593 0.483543 0.0572518
0.077409 0.481453 0.0780194
0.084947 0.480781 0.11014
0.0955215 0.479774 0.15436
0.113298 0.477562 0.202136
0.135302 0.476066 0.239506
0.157443 0.483116 0.27364
0.19176 0.49688 0.303212
0.224598 0.506142 0.315908
0.246967 0.510399 0.311116
0.267048 0.514702 0.285679
0.252262 0.533242 0.20267
0.242939 0.553063 0.0688334
0.349233 0.536751 0
0.459876 0.512963 0
0.545571 0.493889 0
0.606973 0.482673 0
0.654994 0.480415 0
0.699687 0.488945 0
0.743236 0.507652 0
0.787427 0.534981 0.0195773
0.829389 0.56318 0.0459144
0.865705 0.586206 0.0668193
0.895476 0.602197 0.08159
0.920119 0.613123 0.0896162
0.942336 0.620722 0.0943008
0.963531 0.625238 0.0964981
0.983322 0.627848 0.0972457
1 0.629557 0.0971542
1 0.631037 0.0966659
0.0433356 0.52343 0.056672
0.0533303 0.52105 0.0476844
0.0638285 0.517266 0.0485084
0.0728466 0.513726 0.0580453
0.0802625 0.511467 0.0768749
0.0869917 0.510384 0.106294
0.0961929 0.509377 0.147646
0.111299 0.507134 0.197574
0.133593 0.504479 0.239719
0.155612 0.506676 0.27512
0.187259 0.516991 0.307668
0.227878 0.528374 0.32929
0.256931 0.535103 0.333761
0.278981 0.538796 0.322103
0.292088 0.546075 0.283055
0.270146 0.568566 0.178561
0.282673 0.581872 0.0417639
0.392981 0.562966 0
0.4981 0.540444 0
0.578088 0.523003 0
0.63447 0.513176 0
0.681086 0.510903 0
0.724437 0.518456 0
0.766842 0.535103 0
0.809339 0.559564 0.0140383
0.850065 0.58526 0.0394293
0.886687 0.60647 0.060502
0.918257 0.622797 0.0771954
0.94522 0.634012 0.087602
0.969055 0.642252 0.0935531
0.99028 0.647715 0.0969558
1 0.651057 0.0984512
1 0.652857 0.098558
0.046891 0.552514 0.0608377
0.0565499 0.550362 0.0513924
0.0670024 0.546792 0.0517586
0.0761425 0.543206 0.0598001
0.0834058 0.540642 0.0765545
0.0901961 0.539666 0.104051
0.0984665 0.538781 0.14258
0.111467 0.536721 0.192325
0.131456 0.533562 0.239368
0.155276 0.532067 0.276768
0.182803 0.537835 0.310002
0.225971 0.549111 0.338933
0.26453 0.558419 0.35288
0.28957 0.563226 0.351751
0.310658 0.567102 0.334569
0.313024 0.57882 0.278264
0.291112 0.602014 0.156176
0.323079 0.609461 0.0205844
0.436622 0.58854 0
0.535683 0.567224 0
0.608454 0.551904 0
0.661295 0.542962 0
0.706264 0.540688 0
0.748653 0.547051 0
0.789746 0.561303 0
0.830213 0.582422 0.00779736
0.870085 0.604913 0.032105
0.907561 0.625284 0.0541848
0.941238 0.641703 0.0727703
0.970397 0.653513 0.0852216
0.995117 0.662425 0.0927901
1 0.668925 0.0974899
1 0.673075 0.0993515
0.0514992 0.580636 0.0661784
0.060853 0.578592 0.0561685
0.0712291 0.575082 0.0558633
0.0801709 0.571557 0.0626383
0.0877699 0.56907 0.0777752
0.0942855 0.567803 0.102693
0.101778 0.567102 0.138735
0.11281 0.565362 0.186603
0.130373 0.562142 0.237903
0.15465 0.558679 0.277974
0.181674 0.560784 0.313222
0.222171 0.569253 0.344564
0.268025 0.579934 0.367361
0.300282 0.586725 0.375051
0.319387 0.591226 0.369436
0.337407 0.596002 0.345464
0.331609 0.611429 0.268727
0.314977 0.633539 0.135271
0.364538 0.635355 0.00222782
0.480751 0.612955 0
0.572137 0.593576 0
0.637339 0.580011 0
0.687373 0.571283 0
0.731044 0.568734 0
0.772137 0.573953 0
0.811597 0.585718 0
0.850889 0.603342 0.0011902
0.890135 0.623438 0.0250248
0.928481 0.642695 0.0481422
0.964538 0.659297 0.0677806
0.994873 0.672251 0.0822919
1 0.681758 0.091783
1 0.68893 0.0973068
0.0575113 0.607843 0.0728771
0.066804 0.605951 0.0624247
0.0769665 0.60267 0.0614176
0.0858473 0.59939 0.0671092
0.0931411 0.596719 0.0807813
0.0996872 0.595453 0.10367
0.106996 0.594812 0.136889
0.116747 0.593393 0.182528
0.13167 0.590585 0.236164
0.155123 0.586648 0.280766
0.183749 0.585077 0.317784
0.218647 0.590097 0.349706
0.267643 0.599863 0.377523
0.308125 0.608606 0.393866
0.330755 0.614374 0.396994
0.348531 0.618372 0.386069
0.360479 0.624689 0.351522
0.349584 0.643137 0.253788
0.341375 0.662867 0.114305
0.406027 0.659464 0
0.523613 0.635645 0
0.605722 0.618509 0
0.665248 0.606363 0
0.71339 0.598108 0
0.755398 0.594888 0
0.795132 0.598611 0
0.833249 0.608209 0
0.871427 0.622873 0
0.910491 0.640864 0.0181888
0.950042 0.659648 0.041886
0.986755 0.676188 0.0623331
1 0.690044 0.078996
1 0.700267 0.0897536
0.0652171 0.635233 0.0812543
0.0742809 0.633387 0.0704967
0.0843671 0.630014 0.0687724
0.0931868 0.62678 0.0734874
0.100771 0.624231 0.085893
0.1075 0.622843 0.106813
0.114092 0.622126 0.137789
0.122942 0.621012 0.180636
0.135546 0.618189 0.234241
0.156741 0.614466 0.284504
0.18616 0.610712 0.322408
0.218677 0.612146 0.355261
0.265049 0.618936 0.385306
0.311986 0.628183 0.407858
0.340551 0.635508 0.418372
0.358816 0.640162 0.416709
0.375875 0.643915 0.401022
0.380682 0.653284 0.351553
0.366796 0.673548 0.231754
0.369787 0.68983 0.0907912
0.448646 0.681178 0
0.562829 0.657115 0
0.636225 0.642039 0
0.692119 0.63032 0
0.738445 0.622278 0
0.779065 0.618784 0
0.817166 0.620768 0
0.854734 0.628611 0
0.892119 0.641108 0
0.931365 0.657954 0.0115663
0.971344 0.6757 0.0351263
1 0.692805 0.056611
1 0.707027 0.0746166
0.0736858 0.662516 0.0904707
0.0825818 0.660731 0.0794995
0.0925612 0.657404 0.0772106
0.101381 0.654017 0.0810864
0.109133 0.651164 0.0920119
0.11577 0.649378 0.111116
0.122133 0.648463 0.139376
0.130053 0.647501 0.179416
0.141283 0.645441 0.232364
0.159701 0.641749 0.287144
0.18909 0.636957 0.327871
0.222263 0.634684 0.361776
0.262486 0.638178 0.391806
0.312154 0.646159 0.418051
0.347539 0.654871 0.435676
0.368658 0.660288 0.440238
0.384024 0.664042 0.433677
0.399863 0.667933 0.411444
0.397757 0.680446 0.343969
0.382971 0.702068 0.206058
0.399344 0.713863 0.0666514
0.491081 0.700679 0
0.597375 0.678065 0
0.663981 0.663813 0
0.717479 0.652506 0
0.762188 0.644236 0
0.801648 0.640284 0
0.839078 0.641642 0
0.875944 0.647837 0
0.913481 0.659144 0
0.952392 0.674647 0.00517281
0.992508 0.692027 0.0287785
1 0.708537 0.0507973
0.082002 0.689189 0.0994888
0.0907607 0.68748 0.0881666
0.100771 0.684184 0.0856794
0.109743 0.680812 0.088777
0.117479 0.677806 0.098558
0.124346 0.675731 0.115908
0.130602 0.674434 0.142077
0.138033 0.673594 0.178973
0.147677 0.671748 0.230045
0.163821 0.668147 0.287068
0.191012 0.663005 0.333654
0.225772 0.657862 0.367773
0.26273 0.65832 0.397528
0.309773 0.663615 0.425254
0.349966 0.672145 0.447517
0.37612 0.678843 0.458106
0.393133 0.683085 0.45861
0.408225 0.686107 0.447013
0.419638 0.690959 0.415579
0.412085 0.706386 0.328511
0.39942 0.728054 0.178836
0.42887 0.735134 0.0423896
0.532341 0.717525 0
0.627131 0.697459 0
0.689845 0.683925 0
0.741573 0.672999 0
0.784955 0.664729 0
0.823789 0.66038 0
0.860883 0.661082 0
0.897505 0.666636 0
0.934554 0.67657 0
0.97377 0.690867 0
1 0.707286 0.0217441
0.0902571 0.715373 0.108415
0.0990005 0.71371 0.0968948
0.108995 0.710491 0.0941024
0.118074 0.707118 0.0963455
0.125933 0.704067 0.105287
0.133013 0.701823 0.121248
0.139269 0.700374 0.145525
0.146517 0.699794 0.180255
0.155642 0.698116 0.228565
