luts/stills/KA Streets.cube
TITLE "Generated by Resolve"
LUT_3D_SIZE 9
0 0 0
0 0.0267796 0.0236667
0.124636 0.0102693 0
0.490501 0 0
0.671412 0 0
0.801816 0 0
0.912856 0 0
1 0.00814832 0
1 0.0708019 0
0 0.0943465 0.0856489
0 0.111192 0.0886397
0.262318 0.0543526 0
0.603006 0.0569619 0
0.753307 0.0723888 0
0.885573 0.106874 0
1 0.166659 0
1 0.228779 0
1 0.29398 0
0 0.218143 0.143725
0.0356451 0.235843 0.148714
0.237018 0.240803 0.107073
0.814145 0.227008 0
0.975204 0.242649 0
1 0.28101 0
1 0.345418 0
1 0.413443 0
1 0.479698 0.0096437
0.320516 0.50692 0.30425
0.415595 0.559915 0.347768
0.502297 0.579705 0.336645
0.690669 0.587411 0.247913
0.871595 0.609628 0.115663
1 0.631296 0.0556954
1 0.669795 0.048127
1 0.708919 0.0572213
1 0.740612 0.0662547
0.467994 0.668391 0.417639
0.553353 0.723201 0.465583
0.632929 0.745129 0.459449
0.759594 0.734203 0.361349
0.857404 0.7476 0.324742
0.983642 0.775952 0.227222
1 0.808011 0.157824
1 0.836149 0.129091
1 0.856672 0.10576
0.623911 0.845304 0.560861
0.693431 0.892256 0.603265
0.75758 0.903716 0.587716
0.841627 0.868254 0.468101
0.91191 0.870954 0.425528
0.987564 0.882689 0.396231
1 0.910185 0.323796
1 0.932464 0.311971
1 0.95137 0.449012
0.82118 1 0.78114
0.940948 1 0.9196
0.961364 1 0.925307
0.927245 0.983871 0.63566
0.968887 0.976562 0.597055
1 0.977295 0.629892
1 0.984741 0.752605
1 0.998627 0.964599
1 1 1
1 1 1
1 1 1
1 1 1
1 1 1
1 1 1
1 1 1
1 1 1
1 1 1
1 1 1
1 1 1
1 1 1
1 1 1
1 1 1
1 1 1
1 1 1
1 1 1
1 1 1
1 1 1
0 0.0153658 0.0186618
0 0.0389258 0.0466773
0.152209 0.00619516 0.00595102
0.546715 0 0
0.721874 0 0
0.83949 0 0
0.955276 0 0
1 0.00920119 0
1 0.0698711 0
0 0.105074 0.104295
0 0.119127 0.116381
0.227253 0.0738842 0.00155642
0.626535 0.0644236 0
0.782452 0.0805676 0
0.917128 0.115724 0
1 0.174594 0
1 0.233799 0
1 0.301839 0
0 0.228168 0.165408
0.0771191 0.241001 0.171679
0.24712 0.252811 0.143603
0.796124 0.251896 0.0387579
0.931777 0.280903 0.000610361
1 0.325216 0
1 0.392004 0
1 0.460838 0
1 0.527031 0.00746166
0.352285 0.528603 0.344198
0.44921 0.583185 0.393103
0.532998 0.604089 0.39089
0.703075 0.605402 0.297261
0.888182 0.626017 0.15906
1 0.645365 0.103532
1 0.681224 0.102907
1 0.717861 0.119112
1 0.747417 0.135958
0.496971 0.691218 0.462135
0.583154 0.746365 0.513817
0.665354 0.772213 0.518883
0.770581 0.750042 0.412665
0.864973 0.761715 0.373846
0.992386 0.788174 0.270253
1 0.817227 0.201343
1 0.842741 0.176013
1 0.860945 0.157748
0.648066 0.8663 0.607034
0.717647 0.912306 0.651469
0.784466 0.92668 0.645808
0.850813 0.881407 0.519905
0.915953 0.880919 0.47425
0.989792 0.891463 0.443305
1 0.917327 0.366934
1 0.938125 0.38677
1 0.957259 0.545174
0.879576 1 0.865888
1 1 1
1 1 1
0.939895 0.988815 0.730602
0.96994 0.980346 0.674083
1 0.980682 0.703899
1 0.988373 0.82501
1 1 0.995789
1 1 1
1 1 1
1 1 1
1 1 1
1 1 1
1 1 1
1 1 1
1 1 1
1 1 1
1 1 1
1 1 1
1 1 1
1 1 1
1 1 1
1 1 1
1 1 1
1 1 1
1 1 1
1 1 1
0 0.0394141 0.0624247
0 0.0669871 0.105882
0 0.0679942 0.110857
0.531762 0 0.0124514
0.712276 0 0
0.841749 0 0
0.969497 0 0
1 0.0137179 0
1 0.0766003 0.00122072
0 0.135454 0.179248
0 0.148104 0.189761
0.0973373 0.129427 0.157931
0.657526 0.0722972 0.0707256
0.835081 0.0821851 0.0311131
0.978592 0.11426 0.0210727
1 0.17055 0.0360723
1 0.232959 0.0637675
1 0.298116 0.0931716
0 0.257084 0.229633
0.0621958 0.267079 0.235386
0.236759 0.261067 0.228305
0.673594 0.294453 0.0932174
0.838468 0.327031 0.0595407
0.969299 0.36672 0.0467231
1 0.428443 0.057908
1 0.493355 0.0811475
1 0.554925 0.101915
0.351568 0.559304 0.4121
0.461738 0.607523 0.464164
0.551125 0.607965 0.469368
0.682811 0.60087 0.386725
0.898009 0.626261 0.262623
1 0.647807 0.252491
1 0.682277 0.287251
1 0.718181 0.325765
1 0.749584 0.352148
0.505516 0.720577 0.537331
0.604868 0.774395 0.596796
0.708354 0.801572 0.626734
0.767086 0.75668 0.519249
0.857008 0.769055 0.481346
0.996643 0.794827 0.370275
1 0.817807 0.318105
1 0.839078 0.312963
1 0.854871 0.324407
0.657206 0.89279 0.686915
0.736614 0.936599 0.737606
0.826413 0.957198 0.760403
0.86482 0.902525 0.646311
0.910445 0.888472 0.588769
0.979751 0.896529 0.554788
1 0.920073 0.4748
1 0.938994 0.514122
1 0.959594 0.673793
0.964569 1 0.971786
1 1 1
1 1 1
0.98909 0.998627 0.965728
0.971237 0.984649 0.816709
0.994904 0.982681 0.811429
1 0.991287 0.904601
1 1 1
1 1 1
1 1 1
1 1 1
1 1 1
1 1 1
1 1 1
1 1 1
1 1 1
1 1 1
1 1 1
1 1 1
1 1 1
1 1 1
1 1 1
1 1 1
1 1 1
1 1 1
1 1 1
1 1 1
0 0.0781415 0.180285
0 0.107591 0.247608
0 0.130999 0.277852
0.232776 0.0702678 0.195666
0.379355 0.0553597 0.203677
0.543847 0.049958 0.223102
0.715572 0.07953 0.266346
0.865461 0.135256 0.327871
1 0.194385 0.389822
0 0.180652 0.321767
0 0.206287 0.344305
0.15021 0.228107 0.356435
0.441855 0.240787 0.338415
0.594064 0.247089 0.370809
0.767056 0.260975 0.409857
0.936294 0.30248 0.462028
1 0.358831 0.520882
1 0.416022 0.575677
0.0523537 0.322499 0.399802
0.231998 0.369665 0.443854
0.391012 0.403784 0.471138
0.611734 0.451011 0.493156
0.775891 0.457328 0.529717
0.949111 0.464408 0.542
1 0.5019 0.562631
1 0.553079 0.594919
1 0.601053 0.618524
0.324666 0.60592 0.555779
0.441688 0.661219 0.612818
0.543648 0.653727 0.605768
0.628656 0.574212 0.525521
0.791165 0.600397 0.467781
0.929458 0.645472 0.449729
1 0.702922 0.45771
1 0.753033 0.473472
1 0.796414 0.481392
0.458076 0.768948 0.669917
0.560433 0.821698 0.726223
0.679667 0.833005 0.740932
0.73228 0.71902 0.635782
0.783505 0.71722 0.600214
0.959014 0.736355 0.53872
1 0.770367 0.575448
1 0.810513 0.585748
1 0.851286 0.571847
0.600809 0.936553 0.809155
0.684565 0.977462 0.855283
0.833219 0.985534 0.892164
0.852079 0.877485 0.773098
0.854566 0.841886 0.712703
0.913542 0.848371 0.68098
1 0.874495 0.599069
1 0.893019 0.602945
1 0.924163 0.72604
1 1 1
1 1 1
1 1 1
1 1 1
0.954818 0.972366 0.882795
0.961105 0.950332 0.802228
1 0.962722 0.826734
1 0.98587 0.910842
1 1 1
1 1 1
1 1 1
1 1 1
1 1 1
1 1 1
1 1 1
1 1 1
1 1 1
1 1 1
1 1 1
1 1 1
1 1 1
1 1 1
1 1 1
1 1 1
1 1 1
1 1 1
1 1 1
0 0.0920882 0.240558
0 0.119417 0.30956
0 0.140063 0.337453
0.169665 0.11223 0.282612
0.329992 0.0901656 0.247379
0.45098 0.104814 0.275578
0.608042 0.14728 0.338628
0.757168 0.2094 0.417777
0.905653 0.270207 0.496223
0 0.194507 0.379812
0 0.223255 0.406531
0.1738 0.249241 0.426108
0.42681 0.312444 0.457496
0.570184 0.304891 0.438544
0.695674 0.340551 0.491218
0.844297 0.391333 0.567346
0.978012 0.45124 0.646799
1 0.507897 0.721614
0.0977188 0.347845 0.471489
0.268986 0.406561 0.528771
0.462318 0.475303 0.593271
0.671702 0.588678 0.672297
0.780194 0.571191 0.656229
0.88864 0.592477 0.699062
1 0.623835 0.754894
1 0.6654 0.807996
1 0.70016 0.84448
0.35259 0.635615 0.641993
0.470207 0.693431 0.703532
0.61146 0.722423 0.735393
0.68893 0.646784 0.650233
0.765316 0.664225 0.657298
0.920394 0.679179 0.686244
1 0.715343 0.689509
1 0.756436 0.696651
1 0.794171 0.695766
0.467384 0.787457 0.745068
0.569009 0.84097 0.803128
0.701289 0.869627 0.83505
0.725795 0.734188 0.690486
0.765576 0.709255 0.664622
0.887144 0.732555 0.620371
0.998978 0.773709 0.609445
1 0.812757 0.612299
1 0.84947 0.611353
0.599603 0.953811 0.880552
0.685618 0.993057 0.925811
0.86334 0.995392 0.955108
0.828702 0.873182 0.801221
0.840925 0.822156 0.753552
0.879179 0.82118 0.725383
1 0.837705 0.67863
1 0.8589 0.702037
1 0.894392 0.715816
1 1 1
1 1 1
1 1 1
0.988174 0.996887 0.987152
0.934157 0.94902 0.876112
0.934081 0.921981 0.819684
0.978103 0.927352 0.798764
1 0.94725 0.787625
1 0.976013 0.904295
1 1 1
1 1 1
1 1 1
1 1 1
1 1 1
1 1 1
0.994369 0.991669 0.965316
1 1 1
1 1 1
1 1 1
1 1 1
1 1 1
1 1 1
1 1 1
1 1 1
1 1 1
1 1 1
1 1 1
0 0.107073 0.303273
0 0.132082 0.367285
0 0.150332 0.384314
0.129061 0.150729 0.33193
0.317098 0.126085 0.322652
0.436103 0.135103 0.317968
0.574685 0.193347 0.385794
0.713832 0.264759 0.472648
0.852094 0.330694 0.559304
0 0.211002 0.431479
0 0.242893 0.462333
0.205646 0.273655 0.488945
0.438514 0.368017 0.526345
0.585779 0.369451 0.549615
0.695613 0.386831 0.552239
0.820981 0.452552 0.632059
0.942565 0.521538 0.721202
1 0.584268 0.808209
0.142077 0.377935 0.538308
0.302693 0.440772 0.601343
0.495857 0.514382 0.672679
0.727352 0.660075 0.780926
0.819501 0.678294 0.815229
0.902113 0.666209 0.788937
1 0.718685 0.858625
1 0.767468 0.929335
1 0.801144 0.983673
0.386328 0.66952 0.721309
0.504082 0.729625 0.786755
0.672496 0.785763 0.848585
0.789761 0.759945 0.811032
0.847974 0.792645 0.826993
0.929641 0.805432 0.839872
1 0.834592 0.891051
1 0.85275 0.915984
1 0.883055 0.922087
0.495323 0.81857 0.824262
0.595819 0.871946 0.883375
0.738369 0.910811 0.927382
0.79089 0.804868 0.811307
0.80943 0.76614 0.765377
0.866163 0.780407 0.77174
0.992203 0.796063 0.797559
1 0.819455 0.794583
1 0.847135 0.783825
0.609659 0.970382 0.945052
0.720684 1 0.984283
0.928817 0.998978 0.993698
0.844709 0.908156 0.877943
0.835431 0.833188 0.796475
0.866041 0.815152 0.777249
0.962295 0.835157 0.740856
1 0.860868 0.727504
1 0.889738 0.720562
1 1 1
1 1 1
1 1 1
1 1 1
0.916289 0.944213 0.890913
0.923888 0.906355 0.850477
0.954849 0.906462 0.827893
1 0.9178 0.796658
1 0.943252 0.861234
1 1 1
1 1 1
1 1 1
1 1 1
1 1 1
0.984207 0.987045 0.967849
0.980041 0.972915 0.930053
0.99646 0.98172 0.94548
1 1 1
1 1 1
1 1 1
1 1 1
1 1 1
1 1 1
1 1 1
1 1 1
1 1 1
1 1 1
0 0.125628 0.373342
0 0.147112 0.418555
0 0.165698 0.429496
0.156878 0.179294 0.375357
0.297444 0.178195 0.399924
0.458351 0.1832 0.398032
0.584573 0.231571 0.438025
0.713024 0.311604 0.526406
0.838865 0.38352 0.615106
0 0.234882 0.484642
0.0255131 0.266545 0.516365
0.2589 0.311498 0.559258
0.487617 0.420294 0.602213
0.59559 0.446342 0.652094
0.729671 0.454475 0.659388
0.836316 0.50045 0.697551
0.946654 0.578866 0.78822
1 0.649424 0.879622
0.199161 0.418372 0.609522
0.347951 0.483192 0.675868
0.536919 0.558511 0.750454
0.768017 0.712276 0.881849
0.851911 0.761791 0.915892
0.947723 0.761334 0.932815
1 0.784298 0.944183
1 0.845838 1
1 0.923613 1
0.430381 0.712795 0.802457
0.54728 0.774456 0.870787
0.721828 0.838758 0.941512
0.887556 0.873137 0.968536
0.943816 0.909178 0.998978
0.992935 0.967483 1
1 0.985245 0.99913
1 1 1
1 1 1
0.532494 0.858335 0.904936
0.631113 0.910735 0.96405
0.776745 0.951308 1
0.878111 0.901808 0.952636
0.892729 0.864591 0.905852
0.932204 0.886213 0.91516
0.996902 0.900206 0.927977
1 0.925597 0.959335
1 0.951049 0.972992
0.645151 0.99971 1
0.84271 1 1
1 1 1
0.914992 0.965774 0.976959
0.886519 0.891142 0.897368
0.899016 0.86038 0.860166
0.943755 0.87219 0.865583
1 0.880034 0.883192
1 0.897749 0.875959
1 1 1
1 1 1
1 1 1
1 1 1
0.937987 0.968826 0.953506
0.919173 0.914961 0.885832
0.944884 0.902007 0.871733
1 0.91458 0.845335
1 0.938598 0.854566
1 1 1
1 1 1
1 1 1
1 1 1
1 1 1
0.97702 0.984436 0.96875
0.97499 0.964065 0.937438
0.989456 0.968734 0.937377
1 0.99144 0.978805
1 1 1
1 1 1
1 1 1
1 1 1
1 1 1
1 1 1
1 1 1
1 1 1
1 1 1
0 0.142672 0.430335
0 0.161807 0.454887
0 0.183337 0.469291
0.199207 0.20856 0.42092
0.314473 0.225696 0.455787
0.476539 0.239124 0.483543
0.623621 0.286381 0.516686
0.731136 0.347967 0.576852
0.847883 0.42504 0.66508
0 0.261601 0.533165
0.110658 0.291768 0.564584
0.315755 0.353475 0.626032
0.536828 0.469718 0.675807
0.627665 0.507164 0.723476
0.752605 0.524727 0.763607
0.87602 0.564446 0.791043
0.96733 0.621714 0.848493
1 0.698604 0.939864
0.252262 0.459113 0.673381
0.393347 0.525139 0.741955
0.580682 0.603738 0.82118
0.807691 0.760754 0.967391
0.895018 0.820157 0.993683
0.974929 0.84773 1
1 0.863416 1
1 0.920806 1
1 1 1
0.472786 0.755123 0.872953
0.588388 0.817273 0.942718
0.763607 0.884459 1
0.964019 0.963943 1
1 1 1
1 1 1
1 1 1
1 1 1
1 1 1
0.568139 0.896437 0.973877
0.664652 0.947082 1
0.852705 0.979583 1
0.97229 0.983612 1
0.96524 0.95668 1
0.990005 0.981476 1
1 1 1
1 1 1
1 1 1
0.746044 1 1
0.997742 1 1
1 1 1
1 1 1
0.952972 0.962097 0.988098
0.952697 0.929244 0.958114
0.977203 0.947845 0.962905
1 0.959457 0.970947
1 0.985473 0.992035
1 1 1
1 1 1
1 1 1
1 1 1
1 1 1
0.951186 0.952438 0.954681
0.960922 0.930282 0.928267
0.985397 0.939284 0.933623
1 0.952422 0.94966
1 1 1
1 1 1
1 1 1
1 1 1
1 1 1
1 1 1
0.974365 0.970077 0.957626
0.98645 0.967971 0.955596
1 0.988235 0.975631
1 1 1
1 1 1
1 1 1
1 1 1
1 1 1
1 1 1
1 1 1
1 1 1
1 1 1
0 0.157855 0.474098
0 0.178683 0.494728
0 0.202914 0.512627
0.245808 0.242802 0.47657
0.350164 0.274662 0.513634
0.490028 0.302678 0.568002
0.65272 0.348959 0.614908
0.767437 0.40441 0.661021
0.865843 0.46334 0.720027
0 0.291341 0.586435
0.174563 0.32784 0.62565
0.370886 0.397696 0.697063
0.581933 0.517235 0.754101
0.668528 0.563714 0.793957
0.771069 0.597436 0.857237
0.905821 0.63801 0.906477
1 0.688762 0.948882
1 0.742596 1
0.299641 0.499641 0.738872
0.4383 0.568612 0.811551
0.623697 0.64979 0.894728
0.84622 0.808438 1
0.933669 0.872267 1
0.993255 0.931105 1
1 1 1
1 1 1
1 1 1
0.513771 0.797665 0.945632
0.628199 0.859861 1
0.803082 0.92903 1
1 1 1
1 1 1
1 1 1
1 1 1
1 1 1
1 1 1
0.60209 0.933806 1
0.708537 0.979706 1
0.980575 0.998444 1
1 1 1
1 1 1
1 1 1
1 1 1
1 1 1
1 1 1
0.910582 1 1
1 1 1
1 1 1
1 1 1
1 1 1
1 1 1
1 1 1
1 1 1
1 1 1
1 1 1
1 1 1
1 1 1
1 1 1
1 1 1
1 1 1
1 0.999619 1
1 1 1
1 1 1
1 1 1
1 1 1
1 1 1
1 1 1
1 1 1
1 1 1
1 1 1
1 1 1
1 1 1
1 1 1
1 1 1
1 1 1
1 1 1
1 1 1
1 1 1
1 1 1
1 1 1
1 1 1
