luts/stills/KA Steph.cube
TITLE "Generated by Resolve"
LUT_3D_SIZE 5
0.00823987 0.0152132 0.0141604
0.0714122 0.00843824 0.00662242
0.280842 0 0
0.618326 0 0
0.966537 0 0
0 0.15758 0
0.209552 0.201404 0
0.413474 0.154559 0
0.687007 0.15845 0
1 0.229694 0.0440681
0 0.348363 0
0.149676 0.399908 0
0.529442 0.48658 0.0164645
0.835813 0.484123 0.0378271
1 0.536706 0.0800488
0 0.642939 0
0.160861 0.667628 0
0.539574 0.762615 0.000961318
0.936629 0.815 0.0501106
1 0.831998 0.0804456
0 0.950362 0
0.248005 0.961761 0
0.58436 1 0.00766003
0.979812 1 0.619455
1 1 1
0 0 0
0.192599 0 0.201633
0.380163 0 0.131243
0.626795 0 0.113375
0.956374 0 0.163302
0 0.211948 0.208759
0.230304 0.238209 0.237018
0.425116 0.164279 0.162142
0.668513 0.140047 0.137606
0.992508 0.180392 0.178454
0 0.400824 0.11075
0.140475 0.418173 0.128222
0.521508 0.494697 0.204379
0.79939 0.469657 0.210193
1 0.497734 0.243168
0 0.660487 0.0857252
0.117144 0.655192 0.0818341
0.477836 0.728298 0.156237
0.911238 0.810132 0.241886
1 0.820722 0.277378
0 0.965026 0.147814
0.184497 0.945296 0.122759
0.502403 0.972595 0.163775
0.963546 1 0.690898
1 1 1
0 0 0
0.108721 0 0.344457
0.47274 0 0.477974
0.718166 0 0.408362
1 0 0.429816
0 0.161898 0.468162
0.14197 0.166293 0.498329
0.501564 0.173068 0.504204
0.729412 0.141787 0.420661
1 0.168185 0.435462
0 0.513848 0.510185
0.17998 0.525597 0.52343
0.506111 0.505379 0.505455
0.770596 0.460624 0.460609
1 0.470771 0.470741
0 0.786252 0.471336
0.15346 0.752117 0.433249
0.428229 0.708171 0.401679
0.871153 0.799023 0.500191
1 0.810407 0.536355
0 1 0.496117
0.184466 0.992111 0.425406
0.434348 0.943008 0.385931
0.866773 1 0.54519
1 1 1
0 0.000991836 0.0487678
0.0905776 0 0.616358
0.44271 0 0.783368
0.806836 0 0.782528
1 0 0.777142
0 0.14519 0.776486
0.0934768 0.130617 0.779202
0.447501 0.13373 0.801282
0.822873 0.142321 0.794659
1 0.149371 0.763378
0 0.492866 0.814694
0.141054 0.492378 0.828199
0.464652 0.475288 0.835187
0.829206 0.447974 0.79733
1 0.447303 0.756466
0 0.866011 0.866087
0.207919 0.871885 0.87361
0.502419 0.847639 0.851072
0.807889 0.771023 0.775402
1 0.77174 0.776135
0.0249485 1 0.90486
0.300801 1 0.879973
0.535637 1 0.811658
0.754528 0.967437 0.705623
1 1 1
0 0 1
0.13608 0 1
0.461646 0 1
0.830243 0 1
1 0 1
0 0.190753 1
0.0990921 0.144762 1
0.438819 0.1393 1
0.815641 0.131136 1
1 0.15819 1
0 0.530221 1
0.131014 0.491356 1
0.450111 0.469429 1
0.821012 0.441367 1
1 0.438315 1
0 0.888853 1
0.191913 0.869444 1
0.505501 0.861234 1
0.82472 0.794369 1
1 0.739834 1
0.11606 1 1
0.989013 1 1
1 1 1
1 1 1
1 1 1
