luts/stills/KA Steph.cube
TITLE "Generated by Resolve"
LUT_3D_SIZE 9
0.00823987 0.0152132 0.0141604
0.0318608 0.012604 0.0112612
0.0714122 0.00843824 0.00662242
0.14847 0 0
0.280842 0 0
0.456031 0 0
0.618326 0 0
0.797055 0 0
0.966537 0 0
0 0.0844892 0.00108339
0.0931716 0.103395 0.00463874
0.169375 0.0738842 0
0.260365 0.0478218 0
0.36585 0.0282139 0
0.484428 0.0191196 0
0.633082 0.0247959 0
0.813931 0.0499886 0
0.993255 0.0945144 0.0139773
0 0.15758 0
0.0581674 0.176028 0
0.209552 0.201404 0
0.312093 0.171893 0
0.413474 0.154559 0
0.532937 0.148867 0
0.687007 0.15845 0
0.865339 0.186206 0.0171206
1 0.229694 0.0440681
0 0.241093 0
0.0251621 0.260914 0
0.176196 0.299199 0
0.360296 0.332219 0.00129702
0.478309 0.312932 0.00654612
0.606104 0.306996 0.0152132
0.756588 0.315587 0.0250248
0.923842 0.340948 0.041001
1 0.380255 0.0655222
0 0.348363 0
0.00427253 0.36463 0
0.149676 0.399908 0
0.34406 0.452369 0
0.529442 0.48658 0.0164645
0.677485 0.477821 0.0240482
0.835813 0.484123 0.0378271
0.997452 0.504906 0.0564584
1 0.536706 0.0800488
0 0.484001 0
0.00318914 0.494514 0
0.142229 0.52192 0
0.332998 0.574228 0
0.530724 0.62385 0.00862135
0.728511 0.649653 0.0318151
0.895705 0.653819 0.0441901
1 0.668116 0.062089
1 0.689738 0.0838941
0 0.642939 0
0.0253605 0.648356 0
0.160861 0.667628 0
0.340764 0.707362 0
0.539574 0.762615 0.000961318
0.748028 0.798352 0.0311131
0.936629 0.815 0.0501106
1 0.823133 0.0641489
1 0.831998 0.0804456
0 0.808011 0
0.0626535 0.810788 0
0.19881 0.82269 0
0.367819 0.850889 0
0.558114 0.899336 0
0.769421 0.939651 0.0317388
0.960021 0.958465 0.0537728
1 0.961654 0.0830854
1 0.966033 0.357473
0 0.950362 0
0.110719 0.954284 0
0.248005 0.961761 0
0.406821 0.981888 0
0.58436 1 0.00766003
0.789578 1 0.0437781
0.979812 1 0.619455
1 1 1
1 1 1
0.00180056 0.00341802 0.00868238
0.0733196 0.0171969 0.0836957
0.124407 0.00880446 0.0599222
0.20412 0 0.0420539
0.322942 0 0.0245212
0.469856 0 0.0105898
0.616312 0 0.0133364
0.788586 0 0.0323644
0.958511 0 0.0679026
0 0.109163 0.105547
0.10248 0.120302 0.117617
0.181155 0.0833143 0.0801556
0.271901 0.0545815 0.0510719
0.373754 0.0334936 0.0297093
0.486 0.0207828 0.016846
0.624506 0.0194247 0.0154726
0.793957 0.0348211 0.0310521
0.968811 0.0707256 0.0674144
0 0.179767 0.0570993
0.0619364 0.192996 0.0692912
0.219852 0.2177 0.0914931
0.316609 0.182452 0.0758526
0.415442 0.160418 0.0601358
0.530083 0.149386 0.0510872
0.673609 0.15053 0.0527504
0.842588 0.168612 0.0703746
1 0.204334 0.103593
0 0.260746 0.0129244
0.0288701 0.276829 0.0275273
0.176608 0.308675 0.0560311
0.363546 0.341817 0.0851606
0.476387 0.316335 0.081239
0.595285 0.305531 0.0828412
0.736431 0.305882 0.0868238
0.896239 0.322362 0.101946
1 0.355901 0.130785
0 0.362661 0
0.00479133 0.375097 0
0.144823 0.403204 0.0218051
0.336278 0.453681 0.0605783
0.52575 0.489754 0.0964675
0.669032 0.476005 0.100893
0.815503 0.47396 0.110765
0.967926 0.487678 0.128527
1 0.516289 0.155596
0 0.490379 0
0 0.496239 0
0.129396 0.517357 0
0.312459 0.562646 0.0353704
0.517449 0.620935 0.0840162
0.719158 0.648859 0.114961
0.879316 0.645212 0.124743
1 0.654322 0.143435
1 0.675639 0.169467
0 0.64303 0
0.00927749 0.642512 0
0.138888 0.656321 0
0.310018 0.687449 0.0221866
0.511116 0.746715 0.070634
0.727016 0.790951 0.111513
0.921523 0.809903 0.136126
1 0.814984 0.151705
1 0.827771 0.172961
0 0.806271 0
0.0381628 0.80116 0
0.167376 0.808484 0.00231937
0.330404 0.82855 0.0254978
0.517891 0.875288 0.0659648
0.738338 0.927077 0.11107
0.94081 0.95378 0.141085
1 0.961273 0.190417
1 0.966308 0.465568
0 0.953384 0.0268406
0.0835737 0.947738 0.019379
0.214847 0.95079 0.0313573
0.370382 0.963272 0.0495155
0.545724 0.99794 0.0816052
0.760021 1 0.122591
0.972793 1 0.659419
1 1 1
1 1 1
0 0 0
0.0369879 0.00848402 0.0998398
0.192599 0 0.201633
0.281041 0 0.159152
0.380163 0 0.131243
0.491997 0 0.115557
0.626795 0 0.113375
0.790417 0 0.12784
0.956374 0 0.163302
0 0.0775769 0.193637
0.0581064 0.0833753 0.221515
0.220783 0.0890669 0.22945
0.303349 0.0618143 0.172259
0.394675 0.0404822 0.141543
0.500862 0.0252689 0.124788
0.633021 0.0200198 0.120211
0.794827 0.0309148 0.132921
0.964797 0.0619211 0.168139
0 0.211948 0.208759
0.0612345 0.224872 0.222507
0.230304 0.238209 0.237018
0.327138 0.195026 0.193271
0.425116 0.164279 0.162142
0.533883 0.145922 0.143557
0.668513 0.140047 0.137606
0.827955 0.150729 0.148425
0.992508 0.180392 0.178454
0 0.305898 0.155306
0.0366217 0.31281 0.160815
0.180514 0.327047 0.177752
0.367025 0.354681 0.207095
0.473304 0.322454 0.190784
0.587045 0.304707 0.180438
0.725002 0.298268 0.177401
0.877852 0.30602 0.185565
1 0.333349 0.211521
0 0.400824 0.11075
0.0133059 0.403891 0.115602
0.140475 0.418173 0.128222
0.324269 0.455283 0.164431
0.521508 0.494697 0.204379
0.660609 0.475608 0.203845
0.79939 0.469657 0.210193
0.942535 0.474586 0.219608
1 0.497734 0.243168
0 0.517464 0.0857404
0 0.515435 0.0871595
0.116121 0.524407 0.0932937
0.289174 0.553918 0.126024
0.500053 0.617273 0.181125
0.713466 0.652827 0.222126
0.869596 0.643442 0.228733
1 0.64506 0.24271
1 0.662547 0.267216
0 0.660487 0.0857252
0.00619516 0.652628 0.0816205
0.117144 0.655192 0.0818341
0.279255 0.673304 0.106188
0.477836 0.728298 0.156237
0.709422 0.788312 0.212299
0.911238 0.810132 0.241886
1 0.809735 0.255253
1 0.820722 0.277378
0 0.818128 0.106737
0.0305486 0.805539 0.0954757
0.139773 0.802869 0.0907454
0.295964 0.812696 0.109133
0.475578 0.848905 0.145922
0.704189 0.912276 0.202777
0.921889 0.950195 0.243412
1 0.960235 0.312016
1 0.969253 0.601587
0 0.965026 0.147814
0.0742199 0.951476 0.13193
0.184497 0.945296 0.122759
0.335302 0.948791 0.136172
0.502403 0.972595 0.163775
0.717968 1 0.210758
0.963546 1 0.690898
1 1 1
1 1 1
0 0 0
0.0129091 0.00354009 0.0764477
0.144854 0 0.277928
0.33901 0 0.343938
0.43743 0 0.292683
0.535409 0 0.256352
0.659709 0 0.243229
0.811276 0 0.252842
0.969848 0 0.286168
0 0.0494545 0.261509
0.0243534 0.0556497 0.330968
0.176333 0.0604562 0.354406
0.347799 0.0616464 0.351644
0.441291 0.037583 0.295476
0.535821 0.0248875 0.259922
0.658763 0.0203555 0.246738
0.809949 0.0290684 0.255299
0.970733 0.0556344 0.287282
0 0.183383 0.333547
0.0288396 0.190082 0.347524
0.179553 0.196353 0.367681
0.367849 0.201846 0.369879
0.458213 0.170687 0.312764
0.558465 0.152544 0.28217
0.686885 0.144518 0.269795
0.836713 0.150011 0.275685
0.99353 0.17377 0.303014
0 0.34995 0.347097
0.0450904 0.360357 0.35816
0.187472 0.367803 0.366522
0.369268 0.369711 0.36965
0.472145 0.330373 0.330068
0.588663 0.305882 0.305364
0.725261 0.294438 0.293812
0.871656 0.295399 0.294789
1 0.315511 0.315068
0 0.469276 0.309331
0.0310369 0.471626 0.309804
0.156252 0.466911 0.302815
0.321187 0.466117 0.30988
0.511513 0.497078 0.343328
0.642222 0.473716 0.33434
0.77969 0.465415 0.331655
0.924559 0.466484 0.334997
1 0.48246 0.352117
0 0.583688 0.272435
0.0173342 0.573159 0.26276
0.128603 0.560403 0.250553
0.280522 0.563394 0.258198
0.473442 0.605371 0.302358
0.695476 0.648692 0.349187
0.853239 0.639857 0.35642
0.997543 0.640787 0.368551
1 0.65185 0.385138
0 0.710353 0.255619
0.0146181 0.691676 0.239475
0.119371 0.676631 0.225345
0.2598 0.674693 0.226017
0.441382 0.705303 0.263554
0.681239 0.778531 0.331655
0.900725 0.812238 0.373236
1 0.808225 0.384207
1 0.814908 0.402472
0 0.856321 0.266697
0.0315862 0.832532 0.24445
0.134981 0.81529 0.228061
0.2692 0.808331 0.222919
0.435737 0.824384 0.248005
0.657801 0.886763 0.308156
0.901869 0.947112 0.367895
1 0.961013 0.468071
1 0.973342 0.734905
0 0.997955 0.303151
0.0716411 0.97293 0.276921
0.175799 0.953536 0.257572
0.305715 0.942901 0.24802
0.46183 0.950408 0.265751
0.662394 0.991821 0.308034
0.934508 1 0.640589
1 1 1
1 1 1
0 0 0
0.00314336 0.00141909 0.0353094
0.108721 0 0.344457
0.305638 0 0.472313
0.47274 0 0.477974
0.589303 0 0.435142
0.718166 0 0.408362
0.859403 0 0.405341
1 0 0.429816
0 0.0301366 0.30219
0.00135805 0.035935 0.423743
0.141268 0.0396735 0.483238
0.312444 0.0359503 0.485359
0.478706 0.039292 0.483146
0.591257 0.019913 0.435386
0.713497 0.0146487 0.40589
0.851682 0.0237736 0.402121
0.998917 0.0479896 0.424842
0 0.161898 0.468162
0.00402838 0.166079 0.479225
0.14197 0.166293 0.498329
0.326986 0.168124 0.508782
0.501564 0.173068 0.504204
0.612085 0.148623 0.451057
0.729412 0.141787 0.420661
0.86482 0.147311 0.41593
1 0.168185 0.435462
0 0.326528 0.483452
0.019501 0.333364 0.494514
0.153323 0.338369 0.508751
0.326863 0.334295 0.515572
0.509255 0.33344 0.51014
0.618402 0.30634 0.459144
0.743786 0.295552 0.438483
0.884321 0.295583 0.435798
1 0.311254 0.451316
0 0.513848 0.510185
0.049958 0.521645 0.518624
0.17998 0.525597 0.52343
0.334051 0.513603 0.512459
0.506111 0.505379 0.505455
0.628931 0.474266 0.474235
0.770596 0.460624 0.460609
0.918135 0.45977 0.459754
1 0.470771 0.470741
0 0.650187 0.487541
0.0477455 0.652628 0.488396
0.168521 0.649104 0.481376
0.30602 0.620844 0.452811
0.463218 0.607645 0.449836
0.670405 0.63975 0.48539
0.821744 0.62884 0.487297
0.968307 0.631937 0.495308
1 0.643076 0.508919
0 0.786252 0.471336
0.044358 0.772335 0.455695
0.15346 0.752117 0.433249
0.277546 0.715312 0.400519
0.428229 0.708171 0.401679
0.636606 0.753643 0.450614
0.871153 0.799023 0.500191
1 0.800595 0.516442
1 0.810407 0.536355
0 0.925551 0.470588
0.0527199 0.898146 0.441108
0.152346 0.866499 0.409171
0.272847 0.831632 0.379446
0.412909 0.819974 0.374228
0.60264 0.85156 0.414099
0.866972 0.931655 0.490761
1 0.960769 0.614862
1 0.980087 0.855833
0 1 0.496117
0.0862745 1 0.46041
0.184466 0.992111 0.425406
0.302281 0.958007 0.396185
0.434348 0.943008 0.385931
0.605509 0.956741 0.409522
0.866773 1 0.54519
1 1 1
1 1 1
0 0 0
0.00225834 0.000717174 0.0617838
0.0901808 0 0.43679
0.2804 0 0.617014
0.453529 0 0.623697
0.627115 0 0.624018
0.770016 0 0.594705
0.917159 0 0.583169
1 0 0.597253
0 0.0230869 0.397528
0 0.0233616 0.52491
0.116518 0.0234989 0.622492
0.284138 0.0211948 0.629847
0.453025 0.0170291 0.624933
0.631266 0.0242924 0.626841
0.76968 0.0129702 0.592523
0.910765 0.0168917 0.576593
1 0.0376898 0.586374
0 0.148074 0.614694
0 0.150088 0.620783
0.113878 0.144884 0.634058
0.293004 0.149432 0.650248
0.469017 0.1449 0.647471
0.65362 0.152728 0.645243
0.786374 0.136782 0.6038
0.918791 0.138552 0.582147
1 0.1579 0.587915
0 0.311467 0.632151
0.000732433 0.315343 0.63975
0.131838 0.317113 0.654658
0.299931 0.313664 0.667262
0.47834 0.306081 0.664775
0.662715 0.305715 0.651804
0.792569 0.285924 0.607156
0.920241 0.286702 0.586664
1 0.302815 0.59263
0 0.497475 0.656199
0.0286259 0.502342 0.664332
0.157336 0.506203 0.674769
0.31078 0.49659 0.672847
0.474952 0.480583 0.665415
0.664363 0.472038 0.651667
0.791913 0.452934 0.610636
0.927565 0.453056 0.601663
1 0.465049 0.61088
0 0.684749 0.682445
0.0601663 0.69131 0.689769
0.195315 0.701137 0.700603
0.341009 0.688426 0.688716
0.480217 0.659052 0.659937
0.655116 0.640116 0.641901
0.795651 0.620005 0.621363
0.946502 0.619028 0.620371
1 0.630472 0.632059
0 0.838483 0.680064
0.066743 0.835706 0.675502
0.196002 0.838758 0.6757
0.337484 0.822278 0.657023
0.460014 0.773281 0.608652
0.615015 0.746792 0.5935
0.832044 0.778439 0.628885
0.990448 0.779492 0.641764
1 0.793149 0.660105
0 0.989914 0.685847
0.0812085 0.976013 0.667445
0.196063 0.959304 0.646647
0.322194 0.922637 0.609369
0.43476 0.865736 0.558618
0.582284 0.847608 0.551507
0.809033 0.895018 0.602853
1 0.938811 0.666377
1 0.963546 0.833432
0.0173953 1 0.708858
0.114824 1 0.68127
0.220523 1 0.645853
0.332433 1 0.59707
0.440864 0.970397 0.550362
0.577005 0.947921 0.536583
0.782864 0.978653 0.574884
1 1 1
1 1 1
0 0.000991836 0.0487678
0.00030518 0 0.244495
0.0905776 0 0.616358
0.269276 0 0.783185
0.44271 0 0.783368
0.61825 0 0.779385
0.806836 0 0.782528
0.962936 0 0.769924
1 0 0.777142
0 0.0226444 0.615427
0 0.0180362 0.699855
0.101015 0.014435 0.774777
0.264668 0.0122835 0.781537
0.436469 0.00610361 0.779919
0.61387 0.00762951 0.776715
0.808087 0.0193484 0.782788
0.958999 0.0174105 0.763943
1 0.0319982 0.765667
0 0.14519 0.776486
0 0.141192 0.773907
0.0934768 0.130617 0.779202
0.266835 0.136049 0.795178
0.447501 0.13373 0.801282
0.628763 0.131426 0.793774
0.822873 0.142321 0.794659
0.967636 0.136416 0.768032
1 0.149371 0.763378
0 0.307149 0.791623
0 0.303593 0.791165
0.114977 0.301091 0.803082
0.279026 0.298711 0.818601
0.460395 0.297551 0.824643
0.637354 0.282719 0.806119
0.82771 0.288182 0.797528
0.968551 0.278416 0.765957
1 0.289281 0.757031
0 0.492866 0.814694
0.0107118 0.489494 0.815366
0.141054 0.492378 0.828199
0.299199 0.488121 0.835004
0.464652 0.475288 0.835187
0.644755 0.454948 0.818357
0.829206 0.447974 0.79733
0.966766 0.436255 0.763958
1 0.447303 0.756466
0 0.681712 0.839536
0.0410163 0.679164 0.840131
0.174105 0.685496 0.851896
0.328649 0.681865 0.854139
0.472145 0.658106 0.835935
0.63566 0.628672 0.813138
0.823209 0.612039 0.790463
0.957366 0.603128 0.761288
1 0.614923 0.764996
0 0.866011 0.866087
0.0737316 0.865248 0.866011
0.207919 0.871885 0.87361
0.367651 0.875441 0.878279
0.502419 0.847639 0.851072
0.637537 0.8 0.803693
0.807889 0.771023 0.775402
0.952483 0.761868 0.766079
1 0.77174 0.776135
0 1 0.879286
0.0950027 1 0.871077
0.222309 1 0.866636
0.373724 1 0.860746
0.509194 0.98761 0.831708
0.624994 0.918624 0.764248
0.779034 0.879713 0.737438
0.98204 0.907652 0.768887
1 0.921401 0.812024
0.0249485 1 0.90486
0.134096 1 0.89192
0.300801 1 0.879973
0.476967 1 0.865614
0.535637 1 0.811658
0.606821 1 0.726726
0.754528 0.967437 0.705623
0.9776 0.993072 0.896284
1 1 1
0 0 0.502388
0 0 0.650401
0.107637 0 0.899962
0.273045 0 0.955505
0.444404 0 0.952743
0.621881 0 0.945708
0.812238 0 0.943511
0.995636 0 0.949096
1 0 0.952132
0 0.0346532 0.943664
0 0.0217136 0.939879
0.0993057 0.0174411 0.942
0.259449 0.0123293 0.943679
0.431006 0.00556954 0.942916
0.609979 0.00334173 0.938857
0.805356 0.0107424 0.939116
0.992813 0.0241093 0.945708
1 0.0339818 0.944549
0 0.158968 0.955062
0 0.146181 0.942962
0.0869306 0.129198 0.939498
0.2542 0.131289 0.949538
0.434897 0.130694 0.957717
0.617304 0.125368 0.953323
0.812024 0.129427 0.947555
0.999344 0.142779 0.950347
1 0.150011 0.942687
0 0.320836 0.964904
0 0.307301 0.955581
0.105043 0.29482 0.958144
0.261936 0.287282 0.96846
0.445884 0.290898 0.978958
0.627176 0.280156 0.970703
0.813245 0.272175 0.951492
0.99733 0.282429 0.947234
1 0.285801 0.934218
0 0.503944 0.983719
0.0041352 0.490684 0.976013
0.127703 0.482933 0.979889
0.286641 0.478935 0.989258
0.457801 0.473136 0.998642
0.643 0.461692 0.992172
0.816861 0.4336 0.957336
0.994354 0.435401 0.943145
1 0.435233 0.926406
0 0.690867 1
0.0328985 0.679881 0.999451
0.158938 0.676463 1
0.318807 0.676707 1
0.475639 0.665354 1
0.643534 0.640192 0.994858
0.818753 0.607095 0.962417
0.986282 0.593988 0.934508
1 0.592203 0.916701
0 0.873732 1
0.0648203 0.866285 1
0.193194 0.865049 1
0.352239 0.866896 1
0.503456 0.855329 1
0.645609 0.814618 0.987778
0.802976 0.77171 0.949248
0.972107 0.749065 0.920501
1 0.749126 0.905165
0 1 1
0.0973831 1 1
0.228153 1 1
0.38378 1 1
0.553994 1 1
0.679973 0.994293 1
0.801343 0.930861 0.93724
0.951461 0.894041 0.900877
1 0.89276 0.899413
0.0402075 1 1
0.315908 1 1
0.708888 1 1
0.999512 1 1
1 1 1
1 1 1
0.901671 1 0.951095
0.943999 0.980331 0.9066
1 1 1
0 0 1
0.009308 0 1
0.13608 0 1
0.295613 0 1
0.461646 0 1
0.640558 0 1
0.830243 0 1
1 0 1
1 0 1
0 0.0652781 1
0 0.0430457 1
0.113939 0.0341039 1
0.272679 0.0248264 1
0.441794 0.0168612 1
0.622324 0.0122225 1
0.816739 0.0147555 1
1 0.0245212 1
1 0.0416266 1
0 0.190753 1
0 0.168017 1
0.0990921 0.144762 1
0.263066 0.142245 1
0.438819 0.1393 1
0.621653 0.133074 1
0.815641 0.131136 1
1 0.139879 1
1 0.15819 1
0 0.35227 1
0 0.328984 1
0.112566 0.307912 1
0.262516 0.292012 1
0.441505 0.292317 1
0.625055 0.285588 1
0.812924 0.273304 1
0.994934 0.275731 1
1 0.292302 1
0 0.530221 1
0.0127871 0.508614 1
0.131014 0.491356 1
0.282856 0.478279 1
0.450111 0.469429 1
0.641062 0.466468 1
0.821012 0.441367 1
0.990326 0.426719 1
1 0.438315 1
0 0.711681 1
0.0379492 0.69427 1
0.159274 0.682261 1
0.31162 0.673198 1
0.475059 0.667201 1
0.653071 0.652323 1
0.83415 0.6262 1
0.985061 0.587442 1
1 0.590158 1
0 0.888853 1
0.0668803 0.877241 1
0.191913 0.869444 1
0.344747 0.86389 1
0.505501 0.861234 1
0.664881 0.834806 1
0.82472 0.794369 1
0.978088 0.750713 1
1 0.739834 1
0 1 1
0.0964675 1 1
0.225162 1 1
0.376242 1 1
0.573175 1 1
0.743069 1 1
0.822858 0.952926 1
0.954467 0.900725 1
1 0.879728 1
0.11606 1 1
0.498085 1 1
0.989013 1 1
1 1 1
1 1 1
1 1 1
1 1 1
1 1 1
1 1 1
