luts/stills/KA Streets.cube
TITLE "Generated by Resolve"
LUT_3D_SIZE 5
0 0 0
0.124636 0.0102693 0
0.671412 0 0
0.912856 0 0
1 0.0708019 0
0 0.218143 0.143725
0.237018 0.240803 0.107073
0.975204 0.242649 0
1 0.345418 0
1 0.479698 0.0096437
0.467994 0.668391 0.417639
0.632929 0.745129 0.459449
0.857404 0.7476 0.324742
1 0.808011 0.157824
1 0.856672 0.10576
0.82118 1 0.78114
0.961364 1 0.925307
0.968887 0.976562 0.597055
1 0.984741 0.752605
1 1 1
1 1 1
1 1 1
1 1 1
1 1 1
1 1 1
0 0.0394141 0.0624247
0 0.0679942 0.110857
0.712276 0 0
0.969497 0 0
1 0.0766003 0.00122072
0 0.257084 0.229633
0.236759 0.261067 0.228305
0.838468 0.327031 0.0595407
1 0.428443 0.057908
1 0.554925 0.101915
0.505516 0.720577 0.537331
0.708354 0.801572 0.626734
0.857008 0.769055 0.481346
1 0.817807 0.318105
1 0.854871 0.324407
0.964569 1 0.971786
1 1 1
0.971237 0.984649 0.816709
1 0.991287 0.904601
1 1 1
1 1 1
1 1 1
1 1 1
1 1 1
1 1 1
0 0.0920882 0.240558
0 0.140063 0.337453
0.329992 0.0901656 0.247379
0.608042 0.14728 0.338628
0.905653 0.270207 0.496223
0.0977188 0.347845 0.471489
0.462318 0.475303 0.593271
0.780194 0.571191 0.656229
1 0.623835 0.754894
1 0.70016 0.84448
0.467384 0.787457 0.745068
0.701289 0.869627 0.83505
0.765576 0.709255 0.664622
0.998978 0.773709 0.609445
1 0.84947 0.611353
1 1 1
1 1 1
0.934157 0.94902 0.876112
0.978103 0.927352 0.798764
1 0.976013 0.904295
1 1 1
1 1 1
1 1 1
1 1 1
1 1 1
0 0.125628 0.373342
0 0.165698 0.429496
0.297444 0.178195 0.399924
0.584573 0.231571 0.438025
0.838865 0.38352 0.615106
0.199161 0.418372 0.609522
0.536919 0.558511 0.750454
0.851911 0.761791 0.915892
1 0.784298 0.944183
1 0.923613 1
0.532494 0.858335 0.904936
0.776745 0.951308 1
0.892729 0.864591 0.905852
0.996902 0.900206 0.927977
1 0.951049 0.972992
1 1 1
1 1 1
0.937987 0.968826 0.953506
0.944884 0.902007 0.871733
1 0.938598 0.854566
1 1 1
1 1 1
1 1 1
1 1 1
1 1 1
0 0.157855 0.474098
0 0.202914 0.512627
0.350164 0.274662 0.513634
0.65272 0.348959 0.614908
0.865843 0.46334 0.720027
0.299641 0.499641 0.738872
0.623697 0.64979 0.894728
0.933669 0.872267 1
1 1 1
1 1 1
0.60209 0.933806 1
0.980575 0.998444 1
1 1 1
1 1 1
1 1 1
1 1 1
1 1 1
1 1 1
1 0.999619 1
1 1 1
1 1 1
1 1 1
1 1 1
1 1 1
1 1 1
