luts/stills/KA Streets.cube
TITLE "Generated by Resolve"
LUT_3D_SIZE 33
0 0 0
0 0.00762951 0.0080415
0 0.0153506 0.0155184
0 0.0218204 0.0208591
0 0.0267796 0.0236667
0 0.0295415 0.0230716
0.0105745 0.0275883 0.0167849
0.0589303 0.0197452 0.0043946
0.124636 0.0102693 0
0.206989 0 0
0.30309 0 0
0.403189 0 0
0.490501 0 0
0.55494 0 0
0.602991 0 0
0.638514 0 0
0.671412 0 0
0.700908 0 0
0.732219 0 0
0.767895 0 0
0.801816 0 0
0.831815 0 0
0.860136 0 0
0.886976 0 0
0.912856 0 0
0.945205 0 0
0.97081 0 0
0.996887 0 0
1 0.00814832 0
1 0.0252079 0
1 0.0365148 0
1 0.0549477 0
1 0.0708019 0
0 0.0254368 0.0269322
0 0.0319219 0.0330358
0 0.0372625 0.036759
0 0.0416419 0.0400549
0 0.0459602 0.03888
0 0.0480964 0.0337835
0.00444038 0.04477 0.0226596
0.0714122 0.0326085 0.0037232
0.153689 0.0200198 0
0.250568 0.00640879 0
0.357992 0 0
0.464347 0 0
0.551385 0 0
0.610285 0 0
0.650278 0 0
0.677211 0 0
0.7019 0 0
0.724636 0 0
0.749996 0 0
0.782666 0 0
0.818936 0 0
0.851255 0 0
0.88159 0 0
0.910719 0 0
0.939132 0.00900282 0
0.967086 0.0218662 0
0.994812 0.0357519 0
1 0.0504311 0
1 0.0656748 0
1 0.081239 0
1 0.0968795 0
1 0.11284 0
1 0.128832 0
0 0.0490578 0.0496223
0 0.054902 0.0545357
0 0.0597086 0.0574807
0 0.0624857 0.0540627
0 0.0617075 0.052903
0 0.0598154 0.0459144
0.0335546 0.0525063 0.0241855
0.0914473 0.0442206 0.00263981
0.181292 0.0314031 0
0.286168 0.0180209 0
0.396262 0.00552377 0
0.495979 0 0
0.571054 0 0
0.623194 0 0
0.661006 0 0
0.688716 0 0
0.714458 0 0
0.738247 0 0
0.764889 0 0
0.799374 0.00201419 0
0.837903 0.0104067 0
0.872587 0.0204623 0
0.905287 0.0321355 0
0.936538 0.0451362 0
0.966567 0.0592203 0
0.995712 0.0741436 0
1 0.089662 0
1 0.105516 0
1 0.121492 0
1 0.137285 0
1 0.152728 0
1 0.167987 0
1 0.183536 0
0 0.0714275 0.0687266
0 0.0769665 0.0728923
0 0.0818494 0.0754559
0 0.0856184 0.075761
0 0.0855116 0.0636912
0 0.0764477 0.0524147
0.0745098 0.0582437 0.0305028
0.132815 0.0515755 0.00410468
0.214847 0.0432288 0
0.314717 0.0341497 0
0.413947 0.0277867 0
0.507546 0.0236057 0
0.583658 0.0218051 0
0.637018 0.0222934 0
0.675959 0.0239414 0
0.704601 0.0260777 0
0.731319 0.0288701 0
0.756085 0.0322271 0
0.783963 0.0370031 0
0.820233 0.0449226 0
0.860868 0.05626 0
0.897154 0.068864 0
0.931014 0.0826734 0
0.962966 0.0973983 0
0.993347 0.112764 0
1 0.128527 0
1 0.144442 0
1 0.160281 0
1 0.175753 0
1 0.190967 0
1 0.206287 0
1 0.222019 0
1 0.238315 0
0 0.0943465 0.0856489
0 0.0997482 0.0892042
0 0.104753 0.0914778
0 0.108843 0.091783
0 0.111192 0.0886397
0 0.105577 0.0632029
0.083299 0.0772412 0.0308537
0.175738 0.0612955 0.0133364
0.262318 0.0543526 0
0.343709 0.0536965 0
0.435584 0.0538338 0
0.527092 0.0548562 0
0.603006 0.0569619 0
0.656901 0.0602884 0
0.696559 0.0641489 0
0.725887 0.0679789 0
0.753307 0.0723888 0
0.77879 0.0772412 0
0.807355 0.0836347 0
0.844404 0.0935225 0
0.885573 0.106874 0
0.922042 0.120958 0
0.955749 0.135805 0
0.987198 0.151125 0
1 0.166659 0
1 0.182147 0
1 0.197436 0
1 0.21297 0
1 0.228779 0
1 0.244739 0
1 0.260792 0
1 0.277165 0
1 0.29398 0
0 0.11899 0.100664
0 0.124193 0.103548
0 0.12903 0.105455
0 0.13315 0.105653
0 0.135805 0.10312
0 0.1355 0.0951553
0.0447395 0.11368 0.0455329
0.178653 0.0888685 0.0157015
0.305776 0.0717784 0
0.39733 0.0715953 0
0.479423 0.0793469 0
0.563027 0.0881514 0
0.635584 0.0956436 0
0.687755 0.102312 0
0.726452 0.1084 0
0.755199 0.113725 0
0.782132 0.119448 0
0.807157 0.125414 0
0.835248 0.132921 0
0.871534 0.14406 0
0.911742 0.158389 0
0.947066 0.172946 0
0.9794 0.187808 0
1 0.202655 0
1 0.217716 0
1 0.23328 0
1 0.249226 0
1 0.265492 0
1 0.281926 0
1 0.298451 0
1 0.314961 0
1 0.331731 0
1 0.348806 0
0 0.145205 0.113176
0 0.149798 0.115434
0 0.153887 0.116991
0 0.157534 0.117464
0 0.160388 0.115846
0 0.16144 0.11043
0 0.157 0.0960708
0.140337 0.13312 0.0347906
0.311192 0.108431 0.0019379
0.444221 0.0993668 0
0.546166 0.104997 0
0.627771 0.118227 0
0.692729 0.130999 0
0.739422 0.140932 0
0.774456 0.149111 0
0.800717 0.15581 0
0.825513 0.162615 0
0.848646 0.169436 0
0.874708 0.177722 0
0.908476 0.189502 0
0.945876 0.204013 0
0.979065 0.218112 0
1 0.232853 0
1 0.248203 0
1 0.264057 0
1 0.280293 0
1 0.296818 0
1 0.313527 0
1 0.330327 0
1 0.347143 0
1 0.363882 0
1 0.380743 0
1 0.397833 0
0 0.172015 0.123949
0 0.176837 0.126589
0 0.18172 0.128954
0 0.186374 0.130541
0 0.19028 0.130297
0 0.192096 0.126085
0.0353857 0.185367 0.110628
0.109285 0.17908 0.0910201
0.273411 0.164431 0.019089
0.44564 0.149676 0
0.586191 0.146319 0
0.693858 0.15314 0
0.76762 0.163027 0
0.814374 0.172549 0
0.847562 0.180987 0
0.871809 0.187991 0
0.894392 0.195102 0
0.915282 0.202152 0
0.938689 0.210544 0
0.969207 0.222492 0
1 0.237659 0
1 0.252995 0
1 0.268818 0
1 0.285039 0
1 0.301549 0
1 0.318318 0
1 0.335241 0
1 0.352255 0
1 0.369284 0
1 0.386236 0
1 0.403067 0
1 0.419898 0
1 0.436851 0
0 0.218143 0.143725
0 0.224765 0.147646
0 0.230991 0.151034
0 0.236149 0.152956
0.0356451 0.235843 0.148714
0.0760357 0.237324 0.144762
0.112657 0.238819 0.138445
0.156786 0.239475 0.127901
0.237018 0.240803 0.107073
0.391852 0.239475 0.030457
0.566186 0.231373 0
0.712428 0.227024 0
0.814145 0.227008 0
0.876249 0.229496 0
0.918563 0.233448 0
0.948348 0.23769 0
0.975204 0.242649 0
0.999405 0.248096 0
1 0.255329 0
1 0.26627 0
1 0.28101 0
1 0.2963 0
1 0.312261 0
1 0.328679 0
1 0.345418 0
1 0.362371 0
1 0.379416 0
1 0.396475 0
1 0.413443 0
1 0.430243 0.00251774
1 0.446769 0.00491341
1 0.463233 0.00726329
1 0.479698 0.0096437
0.00674449 0.280995 0.173449
0.0654459 0.283055 0.172396
0.100801 0.290639 0.176913
0.131014 0.298878 0.181918
0.158572 0.306722 0.186084
0.184619 0.313313 0.1879
0.209842 0.317464 0.18529
0.237995 0.318486 0.176486
0.290791 0.32018 0.159686
0.369543 0.325902 0.138918
0.509438 0.330861 0.0555581
0.668971 0.325567 0.00775158
0.791791 0.320653 0
0.870985 0.318807 0
0.925444 0.319371 0
0.963958 0.321065 0
0.998322 0.323751 0
1 0.327382 0.000656138
1 0.332616 0.0033875
1 0.341344 0.0069276
1 0.353704 0.0112917
1 0.367086 0.0158236
1 0.38143 0.0207523
1 0.396429 0.0260777
1 0.411841 0.0317693
1 0.427512 0.0377508
1 0.443259 0.0439307
1 0.4589 0.0501411
1 0.474342 0.0561685
1 0.489479 0.0617838
1 0.504143 0.0667582
1 0.518715 0.0718395
1 0.533135 0.0766461
0.158938 0.354116 0.210529
0.189883 0.366278 0.21973
0.21709 0.377844 0.228489
0.242039 0.388525 0.236301
0.265278 0.397833 0.24242
0.286976 0.405005 0.245502
0.307012 0.409079 0.243763
0.326757 0.409277 0.235309
0.36054 0.406653 0.21651
0.415259 0.41001 0.197406
0.492119 0.41767 0.175616
0.613291 0.426978 0.0919661
0.735912 0.426062 0.0359503
0.822141 0.424475 0.0143282
0.883131 0.424323 0.00561532
0.92665 0.425177 0.00210575
0.965927 0.426886 0.000534066
1 0.429297 0.000259403
1 0.433097 0.00108339
1 0.439719 0.00364691
1 0.449638 0.00840772
1 0.460822 0.0142367
1 0.473091 0.0209049
1 0.486046 0.0281224
1 0.499474 0.0357824
1 0.513161 0.0436255
1 0.526955 0.0514992
1 0.540597 0.0593576
1 0.553887 0.0670481
1 0.566674 0.0744488
1 0.57882 0.0814221
1 0.590768 0.0881514
1 0.602472 0.0945602
0.254261 0.437903 0.261173
0.281132 0.451301 0.272038
0.305592 0.463935 0.282246
0.328893 0.475792 0.291585
0.351431 0.486564 0.299413
0.373251 0.495476 0.30454
0.393561 0.50135 0.305028
0.412161 0.503029 0.298665
0.437324 0.499428 0.279942
0.475929 0.497917 0.258396
0.532769 0.502602 0.237171
0.60325 0.509773 0.214267
0.691081 0.519646 0.14551
0.768734 0.523461 0.0941939
0.82829 0.525475 0.0657816
0.872328 0.527184 0.0500038
0.912947 0.529198 0.0388037
0.94995 0.531579 0.0310521
0.990494 0.534997 0.024918
1 0.540795 0.020325
1 0.549386 0.0188144
1 0.559136 0.0200504
1 0.569863 0.0229191
1 0.581231 0.0268406
1 0.592981 0.0314488
1 0.604898 0.0365301
1 0.616724 0.0418555
1 0.628275 0.0472572
1 0.639323 0.0525978
1 0.649699 0.0576791
1 0.659297 0.0625772
1 0.668803 0.0676127
1 0.677989 0.0726177
0.320516 0.50692 0.30425
0.346334 0.521401 0.316472
0.370138 0.535088 0.327977
0.393103 0.548028 0.338598
0.415595 0.559915 0.347768
0.437873 0.570199 0.354452
0.45919 0.577829 0.356939
0.478721 0.581491 0.352926
0.502297 0.579705 0.336645
0.532174 0.575463 0.313375
0.576272 0.575631 0.289799
0.632959 0.580896 0.267491
0.690669 0.587411 0.247913
0.745678 0.596475 0.205417
0.794949 0.602243 0.165026
0.834058 0.606119 0.137743
0.871595 0.609628 0.115663
0.906783 0.612985 0.0983597
0.946181 0.617075 0.0824598
0.996338 0.623117 0.0669871
1 0.631296 0.0556954
1 0.640146 0.0499733
1 0.649683 0.0475471
1 0.659632 0.0471656
1 0.669795 0.048127
1 0.679957 0.0499428
1 0.689982 0.0522316
1 0.699687 0.0547341
1 0.708919 0.0572213
1 0.71751 0.0595254
1 0.725368 0.0615396
1 0.733135 0.0638743
1 0.740612 0.0662547
0.370047 0.560388 0.339773
0.39501 0.575418 0.352773
0.418097 0.589502 0.364889
0.440406 0.602777 0.376059
0.462287 0.614908 0.385672
0.484062 0.625422 0.392782
0.504997 0.63331 0.395727
0.524361 0.637461 0.392493
0.547295 0.636744 0.377752
0.573678 0.632136 0.354498
0.611246 0.629725 0.329259
0.660304 0.63299 0.306401
0.710719 0.638758 0.287633
0.751461 0.644038 0.273808
0.788571 0.651469 0.24683
0.8206 0.656931 0.219593
0.853117 0.661845 0.193256
0.884688 0.6663 0.170397
0.920989 0.671305 0.147616
0.968338 0.67808 0.123278
1 0.686442 0.103014
1 0.694942 0.090425
1 0.703777 0.0825055
1 0.712764 0.0776226
1 0.721843 0.074815
1 0.730877 0.0733959
1 0.739742 0.0728008
1 0.748302 0.0726635
1 0.756405 0.0725872
1 0.763867 0.072343
1 0.770581 0.0717784
1 0.777234 0.0718242
1 0.783581 0.0719921
0.408545 0.602594 0.369223
0.432807 0.617868 0.38265
0.455268 0.632136 0.395132
0.476982 0.645502 0.406546
0.498314 0.657664 0.416373
0.519539 0.668177 0.423606
0.540063 0.676081 0.426703
0.559106 0.680369 0.423789
0.581537 0.680171 0.409857
0.605875 0.67541 0.386709
0.639246 0.671168 0.360067
0.683299 0.672572 0.336233
0.728923 0.677348 0.317174
0.766003 0.682139 0.303899
0.795529 0.686366 0.294057
0.821195 0.69218 0.277195
0.848524 0.69778 0.254307
0.876158 0.702922 0.23093
0.908904 0.708629 0.20531
0.952758 0.716045 0.175677
1 0.724666 0.148913
1 0.733013 0.130846
1 0.741421 0.118318
1 0.749859 0.109514
1 0.758282 0.103395
1 0.766629 0.0991073
1 0.774762 0.0959487
1 0.782574 0.0934462
1 0.789899 0.0911116
1 0.796628 0.0886091
1 0.802609 0.085771
1 0.808515 0.0838178
1 0.814099 0.0820478
0.438636 0.635798 0.393301
0.462318 0.651179 0.406973
0.484245 0.665476 0.419623
0.505425 0.678813 0.431159
0.526268 0.690913 0.441016
0.547036 0.701335 0.448264
0.567132 0.709133 0.451347
0.58584 0.71339 0.448508
0.607767 0.713375 0.434989
0.630747 0.708461 0.411841
0.661311 0.702892 0.384085
0.701854 0.702754 0.359243
0.744198 0.706538 0.339788
0.778744 0.710811 0.326558
0.806317 0.714717 0.316823
0.827802 0.718059 0.309758
0.850904 0.723629 0.295155
0.875074 0.729015 0.275074
0.904448 0.735073 0.250294
0.944915 0.74287 0.218616
0.991089 0.75172 0.188037
1 0.760037 0.166171
1 0.768246 0.15021
1 0.776379 0.138415
1 0.784405 0.129656
1 0.792309 0.123049
1 0.799969 0.1178
1 0.807294 0.113313
1 0.81413 0.109071
1 0.820371 0.104723
1 0.825879 0.0999771
1 0.831281 0.0963302
1 0.836362 0.0929427
0.467994 0.668391 0.417639
0.491066 0.683757 0.431479
0.512413 0.698009 0.444205
0.533043 0.711238 0.455756
0.553353 0.723201 0.465583
0.573617 0.73344 0.47274
0.59324 0.741039 0.4757
0.611521 0.745159 0.472816
0.632929 0.745129 0.459449
0.654658 0.739986 0.43624
0.682719 0.733242 0.407416
0.720165 0.731517 0.381399
0.759594 0.734203 0.361349
0.791836 0.737881 0.347677
0.817639 0.741344 0.33814
0.837842 0.744396 0.331167
0.857404 0.7476 0.324742
0.878019 0.752789 0.312154
0.904036 0.758907 0.290517
0.940627 0.766918 0.259937
0.983642 0.775952 0.227222
1 0.784298 0.202457
1 0.792386 0.183566
1 0.800275 0.169039
1 0.808011 0.157824
1 0.815549 0.148959
1 0.822812 0.141649
1 0.829709 0.13521
1 0.836149 0.129091
1 0.841962 0.12282
1 0.847044 0.116152
1 0.852018 0.110811
1 0.856672 0.10576
0.4963 0.699992 0.441917
0.518715 0.715267 0.455802
0.539467 0.729381 0.468544
0.559518 0.742443 0.480034
0.579278 0.754192 0.489738
0.598993 0.764172 0.496712
0.618112 0.771511 0.499474
0.63592 0.775387 0.496406
0.656703 0.775204 0.483024
0.677226 0.769665 0.459541
0.70309 0.761807 0.429679
0.737819 0.758602 0.402472
0.774624 0.760113 0.381689
0.804852 0.763088 0.367666
0.829053 0.76611 0.35787
0.84802 0.768811 0.350881
0.866499 0.771695 0.344518
0.884153 0.774685 0.338674
0.906661 0.780514 0.32462
0.939529 0.78854 0.297459
0.979171 0.797665 0.264698
1 0.806012 0.238163
1 0.814023 0.217044
1 0.821729 0.200198
1 0.829206 0.186755
1 0.836439 0.17583
1 0.843366 0.166567
1 0.849928 0.158282
1 0.856016 0.150347
1 0.861479 0.142245
1 0.866224 0.1337
1 0.870848 0.12665
1 0.875181 0.120974
0.529198 0.736996 0.471092
0.55082 0.752071 0.484947
0.570825 0.765942 0.497581
0.590143 0.778683 0.508888
0.609186 0.790082 0.518334
0.628199 0.799664 0.525002
0.646647 0.806577 0.527382
0.663828 0.810071 0.523995
0.683787 0.809522 0.510384
0.703059 0.803525 0.486564
0.726482 0.794293 0.45536
0.758129 0.789212 0.426551
0.792096 0.789258 0.404715
0.820127 0.791318 0.390158
0.842649 0.793774 0.37998
0.860349 0.796063 0.373022
0.877577 0.798596 0.366445
0.894163 0.801236 0.360647
0.913283 0.804578 0.354284
0.941711 0.812192 0.335637
0.977142 0.82121 0.306188
1 0.829526 0.279255
1 0.8374 0.256428
1 0.844923 0.237491
1 0.85214 0.221866
1 0.859068 0.208774
1 0.865675 0.197406
1 0.87187 0.18703
1 0.877592 0.17702
1 0.882719 0.166827
1 0.887144 0.15613
1 0.891646 0.154025
1 0.896361 0.165042
0.573388 0.787182 0.51194
0.59382 0.801785 0.525521
0.61268 0.815106 0.537789
0.630915 0.827268 0.548653
0.648875 0.837995 0.557565
0.666835 0.84686 0.563577
0.684245 0.852979 0.565209
0.70042 0.855741 0.561135
0.718975 0.854292 0.546746
0.736507 0.847395 0.522148
0.756909 0.836347 0.489128
0.784787 0.828809 0.458061
0.815305 0.826886 0.434714
0.840772 0.827741 0.419364
0.86128 0.829404 0.408728
0.877455 0.831159 0.401236
0.893233 0.833158 0.394705
0.908431 0.83534 0.388693
0.926055 0.838148 0.382254
0.949523 0.842374 0.37435
0.979324 0.850721 0.354833
1 0.858717 0.33106
1 0.866361 0.30811
1 0.87361 0.287648
1 0.880507 0.269917
1 0.887068 0.25449
1 0.893263 0.240696
1 0.899062 0.227863
1 0.904372 0.216052
1 0.909285 0.213306
1 0.913817 0.221485
1 0.918593 0.241901
1 0.923552 0.273106
0.623911 0.845304 0.560861
0.642756 0.859022 0.573785
0.660136 0.871427 0.585306
0.67689 0.882582 0.595331
0.693431 0.892256 0.603265
0.709957 0.899962 0.608164
0.725978 0.904891 0.608606
0.74078 0.906493 0.603342
0.75758 0.903716 0.587716
0.773037 0.895476 0.561837
0.790478 0.882475 0.526818
0.814572 0.872343 0.493248
0.841627 0.868254 0.468101
0.864485 0.86772 0.451728
0.882979 0.868437 0.440497
0.897612 0.869535 0.432593
0.91191 0.870954 0.425528
0.925704 0.872602 0.419242
0.941711 0.874769 0.412711
0.96318 0.878172 0.404532
0.987564 0.882689 0.396231
1 0.88983 0.381353
1 0.896941 0.361395
1 0.903716 0.342306
1 0.910185 0.323796
1 0.916304 0.306905
1 0.922042 0.297948
1 0.927428 0.300069
1 0.932464 0.311971
1 0.937209 0.332708
1 0.941695 0.361547
1 0.94641 0.400656
1 0.95137 0.449012
0.669047 0.898024 0.606592
0.686229 0.910597 0.618524
0.702022 0.921798 0.628977
0.71725 0.931731 0.637842
0.732311 0.940139 0.644572
0.747433 0.946593 0.648203
0.762142 0.950317 0.647364
0.775738 0.95079 0.640925
0.790997 0.946746 0.624048
0.80473 0.937224 0.596887
0.819791 0.92256 0.560067
0.840925 0.910231 0.52433
0.865125 0.90428 0.49752
0.885878 0.902495 0.480201
0.902739 0.902358 0.468376
0.916136 0.902861 0.46006
0.929244 0.903731 0.452628
0.941909 0.90486 0.446006
0.956634 0.906508 0.438956
0.976364 0.909133 0.430594
0.998917 0.91281 0.421973
1 0.916732 0.415045
1 0.922957 0.402777
1 0.929107 0.389349
1 0.934859 0.384741
1 0.940276 0.389044
1 0.945403 0.402167
1 0.950256 0.423682
1 0.95491 0.453101
1 0.959381 0.489799
1 0.963745 0.533547
1 0.968338 0.585992
1 0.973205 0.646647
0.709621 0.946242 0.649317
0.725093 0.957473 0.660014
0.739361 0.967407 0.669261
0.753201 0.97615 0.676966
0.767376 0.983185 0.683146
0.783413 0.987457 0.689235
0.799207 0.988922 0.691646
0.812284 0.98793 0.686427
0.824384 0.983398 0.66627
0.833829 0.974075 0.631495
0.846052 0.95845 0.590204
0.864683 0.944244 0.552529
0.886519 0.936614 0.524178
0.905486 0.933715 0.505943
0.920989 0.932784 0.493538
0.933318 0.932708 0.48481
0.945418 0.933074 0.477043
0.957122 0.93373 0.470115
0.970748 0.934844 0.462699
0.989013 0.936797 0.454215
1 0.939544 0.448783
1 0.942428 0.450095
1 0.945495 0.457633
1 0.950347 0.470573
1 0.955154 0.486931
1 0.959823 0.509422
1 0.964324 0.539422
1 0.968704 0.575647
1 0.972961 0.618418
1 0.977157 0.66743
1 0.981353 0.72256
1 0.985763 0.784802
1 0.990478 0.853895
0.746197 0.989624 0.689296
0.765484 0.997269 0.706065
0.787381 1 0.726986
0.810803 1 0.749981
0.834165 1 0.772473
0.855329 1 0.791028
0.871351 1 0.800855
0.880278 1 0.797757
0.882445 1 0.772534
0.878248 0.995697 0.721019
0.87631 0.985336 0.64947
0.887434 0.972976 0.59057
0.906142 0.964843 0.555322
0.923232 0.961044 0.535973
0.93727 0.95935 0.524529
0.948379 0.958633 0.517678
0.959121 0.958328 0.512734
0.969329 0.958328 0.50985
0.98088 0.958648 0.508507
0.995636 0.959518 0.510704
1 0.961044 0.519722
1 0.962966 0.534264
1 0.965179 0.55433
1 0.967666 0.579126
1 0.971588 0.613153
1 0.97557 0.650584
1 0.979522 0.692683
1 0.983398 0.740612
1 0.987274 0.793469
1 0.99118 0.851408
1 0.995178 0.913848
1 0.999451 0.977523
1 1 0.994629
0.82118 1 0.78114
0.853666 1 0.817212
0.885039 1 0.853223
0.914733 1 0.888136
0.940948 1 0.9196
0.961059 1 0.944121
0.972107 1 0.956985
0.972869 1 0.954253
0.961364 1 0.925307
0.939879 1 0.861631
0.919005 0.998306 0.766247
0.91603 0.990463 0.682902
0.927245 0.983871 0.63566
0.9402 0.980209 0.613596
0.951385 0.978256 0.603281
0.960296 0.977218 0.598764
0.968887 0.976562 0.597055
0.976959 0.976196 0.597787
0.985931 0.976074 0.60148
0.99704 0.976379 0.611292
1 0.977295 0.629892
1 0.978683 0.653681
1 0.980438 0.682597
1 0.982452 0.715816
1 0.984741 0.752605
1 0.988113 0.801205
1 0.991547 0.852705
1 0.995041 0.907683
1 0.998627 0.964599
1 1 0.994415
1 1 0.998901
1 1 1
1 1 1
0.942367 1 0.930205
0.97969 1 0.974853
1 1 1
1 1 1
1 1 1
1 1 1
1 1 1
1 1 1
1 1 1
1 1 0.999954
0.970672 1 0.915373
0.950729 0.998779 0.812802
0.951492 0.994766 0.754147
0.958556 0.992035 0.728542
0.96585 0.990433 0.71812
0.971969 0.989502 0.714809
0.977966 0.988861 0.715053
0.983612 0.988464 0.718242
0.989792 0.988281 0.725444
0.997192 0.988418 0.740581
1 0.98912 0.765728
1 0.990265 0.796002
1 0.991791 0.830839
1 0.993606 0.869322
1 0.995682 0.910628
1 0.998032 0.953307
1 1 0.994018
1 1 0.998657
1 1 1
1 1 1
1 1 1
1 1 1
1 1 1
1 1 1
1 1 1
1 1 1
1 1 1
1 1 1
1 1 1
1 1 1
1 1 1
1 1 1
1 1 1
1 1 1
0.990158 1 0.961959
0.979324 0.999603 0.895949
0.979477 0.998291 0.867216
0.982254 0.997391 0.856306
0.985183 0.996841 0.853498
0.988312 0.996475 0.854871
0.991302 0.996262 0.859556
0.994568 0.996216 0.868894
0.998245 0.99649 0.887358
1 0.997299 0.916381
1 0.99852 0.949477
1 1 0.984161
1 1 0.996124
1 1 0.999771
1 1 1
1 1 1
1 1 1
1 1 1
1 1 1
1 1 1
1 1 1
1 1 1
1 1 1
1 1 1
1 1 1
1 1 1
1 1 1
1 1 1
1 1 1
1 1 1
1 1 1
