luts/stills/KA Steph.cube
TITLE "Generated by Resolve"
LUT_3D_SIZE 33
0.00823987 0.0152132 0.0141604
0.0132143 0.0145266 0.0134279
0.0188144 0.0139467 0.0127718
0.0249638 0.0133211 0.0120546
0.0318608 0.012604 0.0112612
0.0398718 0.0118868 0.0104372
0.0488289 0.010956 0.00939956
0.0590829 0.00981155 0.00813306
0.0714122 0.00843824 0.00662242
0.0861524 0.00677501 0.00479133
0.103883 0.00466926 0.00250248
0.124712 0.00216678 0
0.14847 0 0
0.175998 0 0
0.206882 0 0
0.242176 0 0
0.280842 0 0
0.32314 0 0
0.366583 0 0
0.411307 0 0
0.456031 0 0
0.499687 0 0
0.538705 0 0
0.577157 0 0
0.618326 0 0
0.661982 0 0
0.706432 0 0
0.751415 0 0
0.797055 0 0
0.842573 0 0
0.885801 0 0
0.926741 0 0
0.966537 0 0
0.00807202 0.0301366 0.0178225
0.0240177 0.0378729 0.0205081
0.0336614 0.0319829 0.0190127
0.0417792 0.0268254 0.0169223
0.0502937 0.0232547 0.0148013
0.0614176 0.021561 0.0128481
0.0736858 0.0197452 0.0108492
0.0873426 0.0177768 0.00856031
0.102815 0.0155489 0.00598154
0.120775 0.0131075 0.00303655
0.14136 0.0102388 0
0.164538 0.00708019 0
0.190097 0.00363165 0
0.218372 0 0
0.249622 0 0
0.283375 0 0
0.319844 0 0
0.358114 0 0
0.39649 0 0
0.434653 0 0
0.470741 0 0
0.505394 0 0
0.541665 0 0
0.579751 0 0
0.620783 0 0
0.664256 0 0
0.708354 0 0
0.753399 0 0
0.798917 0 0
0.844602 0 0
0.888228 0 0
0.929488 0 0
0.969711 0.00656138 0
0.00340276 0.047364 0.0157778
0.0176852 0.0543069 0.0163577
0.0444343 0.0603037 0.0154269
0.0598306 0.0529793 0.0141909
0.072694 0.0465705 0.0129397
0.0853742 0.0404364 0.0109865
0.0983902 0.0345464 0.00880446
0.111727 0.0289158 0.0065919
0.128161 0.0248112 0.00354009
0.148516 0.0216373 0
0.170871 0.0181735 0
0.195483 0.0145876 0
0.221958 0.0108797 0
0.250416 0.00714122 0
0.280705 0.00326543 0
0.312734 0 0
0.346059 0 0
0.37969 0 0
0.412146 0 0
0.443137 0 0
0.474632 0 0
0.508721 0 0
0.544671 0 0
0.58265 0 0
0.623499 0 0
0.666529 0 0
0.710582 0 0
0.755459 0 0
0.800824 0 0
0.846845 0.00238041 0
0.890929 0.0089723 0
0.933623 0.0203708 0
0.975631 0.0325322 0
0 0.0656443 0.00956741
0.00834669 0.0716411 0.00953689
0.0357824 0.0776837 0.00740063
0.0679789 0.0820935 0.00772107
0.0866712 0.0740978 0.00588998
0.103532 0.066804 0.00451667
0.119738 0.0599374 0.00260929
0.136889 0.0531777 0.000183108
0.155642 0.0465095 0
0.176028 0.0397803 0
0.197772 0.0331884 0
0.220676 0.0268406 0
0.244648 0.0208743 0
0.272328 0.0172274 0
0.300816 0.0137026 0
0.330098 0.0105745 0
0.359167 0.00790417 0
0.388174 0.00585946 0
0.417288 0.00408942 0
0.447547 0.00260929 0
0.478859 0.0016022 0
0.512856 0.00102235 0
0.548592 0.000869764 0
0.586358 0.00112917 0
0.626963 0.00205997 0
0.670039 0.00350958 0
0.713893 0.00575265 0
0.759121 0.0115969 0
0.80557 0.0194553 0
0.852522 0.0283513 0
0.898085 0.0391394 0
0.941466 0.0509957 0
0.983749 0.0631418 0.00608835
0 0.0844892 0.00108339
0 0.0897231 0.00120546
0.026627 0.0950484 0.000717174
0.0592203 0.0995804 0.00138857
0.0931716 0.103395 0.00463874
0.112902 0.0953384 0.00256352
0.131914 0.0878309 0.000900282
0.150195 0.080766 0
0.169375 0.0738842 0
0.190433 0.0669871 0
0.21294 0.0603494 0
0.236271 0.0539101 0
0.260365 0.0478218 0
0.285405 0.0421454 0
0.311238 0.0369573 0
0.338003 0.0322576 0
0.36585 0.0282139 0
0.394125 0.0248722 0
0.423163 0.0221561 0
0.453147 0.0202182 0
0.484428 0.0191196 0
0.518318 0.0189212 0
0.553903 0.0196689 0
0.591989 0.021622 0
0.633082 0.0247959 0
0.67628 0.0289464 0
0.721019 0.0347448 0
0.766857 0.0416876 0
0.813931 0.0499886 0
0.86186 0.0596628 0
0.907591 0.0705272 0
0.950988 0.0823377 0.00508125
0.993255 0.0945144 0.0139773
0 0.10341 0
0 0.107881 0
0.0181735 0.112032 0
0.0507973 0.116854 0
0.0845502 0.12134 0
0.11931 0.125368 0.00234989
0.14023 0.117266 0.000396735
0.161028 0.109651 0
0.181521 0.102403 0
0.202533 0.0955062 0
0.224247 0.0889448 0
0.246845 0.0826886 0
0.270405 0.0767681 0
0.294972 0.0712596 0
0.320516 0.0662089 0
0.347082 0.0616922 0
0.374472 0.0578012 0
0.40238 0.0544137 0
0.431144 0.0518654 0
0.460868 0.049958 0
0.49247 0.0488136 0
0.52639 0.0486915 0
0.562142 0.0496071 0
0.600504 0.0516976 0
0.642573 0.0552071 0
0.686091 0.0599222 0
0.731365 0.0660868 0
0.777966 0.0737316 0
0.825376 0.082414 0
0.873075 0.0920119 0
0.918502 0.10277 0.00503548
0.961776 0.114641 0.0135958
1 0.126665 0.0223087
0 0.121584 0
0 0.125277 0
0.0101167 0.129274 0
0.0425727 0.13402 0
0.075761 0.139437 0
0.110582 0.144213 0
0.146914 0.148623 0.000350958
0.169696 0.140322 0
0.192477 0.132479 0
0.215244 0.1252 0
0.237324 0.118502 0
0.259586 0.112291 0
0.282628 0.106508 0
0.306798 0.101137 0
0.33196 0.0962539 0
0.358175 0.0919051 0
0.385351 0.0880446 0
0.412772 0.0849775 0
0.441505 0.0824445 0
0.471168 0.0807813 0
0.50312 0.0798199 0
0.537194 0.0799573 0
0.573541 0.0812848 0
0.612619 0.083772 0
0.655131 0.0876783 0
0.699306 0.0929732 0
0.744686 0.0995956 0
0.791135 0.107256 0
0.838224 0.115831 0
0.885405 0.125292 0.00633249
0.930373 0.13608 0.0138552
0.973037 0.147768 0.0220798
1 0.159747 0.030518
0 0.139239 0
0 0.142962 0
0.00177005 0.146944 0
0.0341802 0.151583 0
0.0670787 0.157519 0
0.101595 0.163577 0
0.137728 0.168826 0
0.17673 0.173754 0
0.201617 0.165209 0
0.22652 0.157214 0
0.250462 0.149981 0
0.273793 0.143603 0
0.297017 0.137789 0
0.320882 0.132525 0
0.34551 0.127733 0
0.371527 0.123552 0
0.398138 0.120058 0
0.425681 0.11722 0
0.454246 0.115068 0
0.484123 0.113634 0
0.516732 0.113085 0
0.551064 0.113466 0
0.587915 0.115236 0
0.628077 0.118257 0
0.670588 0.122332 0
0.714458 0.127764 0
0.759365 0.134203 0
0.805249 0.141863 0.00335698
0.851713 0.150362 0.00892653
0.898268 0.159716 0.0150759
0.942473 0.170489 0.0222782
0.984344 0.182116 0.0300145
1 0.194034 0.0379492
0 0.15758 0
0 0.161303 0
0 0.165286 0
0.0254215 0.170108 0
0.0581674 0.176028 0
0.092256 0.183017 0
0.128649 0.189929 0
0.167498 0.195956 0
0.209552 0.201404 0
0.236133 0.192859 0
0.262135 0.185031 0
0.287388 0.178042 0
0.312093 0.171893 0
0.336629 0.166506 0
0.361639 0.161837 0
0.38735 0.157855 0
0.413474 0.154559 0
0.44094 0.151919 0
0.469474 0.15021 0
0.500313 0.149142 0
0.532937 0.148867 0
0.567452 0.149477 0
0.604578 0.151278 0
0.64506 0.154269 0
0.687007 0.15845 0
0.730282 0.163806 0.00329595
0.774456 0.170199 0.00729381
0.81973 0.177768 0.0119783
0.865339 0.186206 0.0171206
0.910826 0.195575 0.0228275
0.953948 0.206287 0.0294499
0.995026 0.217899 0.0366979
1 0.229694 0.0440681
0 0.17673 0
0 0.180529 0
0 0.184649 0
0.0159457 0.189441 0
0.0489357 0.19559 0
0.082948 0.203159 0
0.119249 0.211276 0
0.158236 0.218845 0
0.200916 0.225711 0
0.245121 0.231647 0
0.272496 0.223651 0
0.29958 0.216297 0
0.326238 0.209766 0
0.352499 0.204089 0
0.378515 0.199191 0
0.404196 0.195117 0
0.430564 0.191943 0
0.457862 0.189517 0
0.486534 0.187732 0.000106813
0.517617 0.186908 0.000640879
0.550103 0.186648 0.00120546
0.584558 0.187243 0.00198367
0.621897 0.188983 0.00332647
0.662058 0.191897 0.00535592
0.703395 0.196048 0.00791943
0.745724 0.201221 0.0110018
0.789319 0.207706 0.0147097
0.833509 0.215091 0.0189212
0.878538 0.223545 0.0237736
0.923064 0.232853 0.0291447
0.965255 0.243351 0.0354009
1 0.254826 0.0425269
1 0.266392 0.0496986
0 0.197009 0
0 0.200793 0
0 0.204929 0
0.00675975 0.209873 0
0.0402228 0.21619 0
0.0741741 0.223789 0
0.110597 0.232898 0
0.149783 0.2421 0
0.192386 0.25034 0
0.237644 0.257343 0
0.282231 0.263691 0
0.310369 0.256138 0
0.338521 0.249332 0
0.366354 0.243442 0
0.393515 0.238453 0
0.420325 0.234348 0.000823987
0.44744 0.231098 0.00231937
0.474723 0.228595 0.00350958
0.50425 0.226978 0.00483711
0.535058 0.226017 0.00593576
0.567452 0.225772 0.00695811
0.602167 0.226429 0.00810254
0.63978 0.228138 0.00961318
0.678996 0.231067 0.0116426
0.719554 0.234974 0.0140993
0.761486 0.240192 0.0172122
0.804395 0.246525 0.0209659
0.84802 0.253758 0.0250095
0.89221 0.261952 0.0297093
0.936034 0.271138 0.0350805
0.977615 0.281376 0.0412299
1 0.292515 0.0481575
1 0.303777 0.0551766
0 0.218265 0
0 0.222202 0
0 0.226505 0
0 0.231418 0
0.0321202 0.237781 0
0.0665141 0.245716 0
0.10277 0.255131 0
0.141817 0.265293 0
0.1841 0.274907 0
0.229999 0.283223 0
0.275532 0.290455 0
0.320668 0.297246 0
0.349676 0.290379 0
0.378775 0.284321 0
0.407172 0.279118 0.00108339
0.435203 0.274723 0.00256352
0.463386 0.271366 0.00445563
0.492378 0.26891 0.00642405
0.522469 0.26714 0.00827039
0.553704 0.266331 0.0100252
0.586389 0.266041 0.0115511
0.62118 0.26656 0.0130159
0.658564 0.268193 0.0148165
0.697292 0.270954 0.0171359
0.737331 0.274937 0.0198215
0.778668 0.280018 0.0231327
0.820783 0.28603 0.0266575
0.863874 0.293187 0.0309606
0.907439 0.30106 0.0355383
0.950362 0.310109 0.0408331
0.991058 0.320104 0.0469062
1 0.330755 0.0535439
1 0.341741 0.0604868
0 0.241093 0
0 0.244968 0
0 0.249287 0
0 0.254276 0
0.0251621 0.260914 0
0.059556 0.268696 0
0.095491 0.277943 0
0.134051 0.288365 0
0.176196 0.299199 0
0.222492 0.309117 0
0.269017 0.317601 0
0.31516 0.325292 0
0.360296 0.332219 0.00129702
0.389975 0.326101 0.00175479
0.419303 0.320821 0.00283818
0.448905 0.316396 0.00454719
0.478309 0.312932 0.00654612
0.509133 0.310155 0.00869764
0.540505 0.308446 0.0109865
0.572671 0.307332 0.0131685
0.606104 0.306996 0.0152132
0.641901 0.307515 0.0172427
0.678843 0.309087 0.0194705
0.717052 0.311788 0.0220035
0.756588 0.315587 0.0250248
0.797086 0.320409 0.0282597
0.838651 0.326375 0.0321965
0.881041 0.333242 0.036347
0.923842 0.340948 0.041001
0.965728 0.349538 0.0462196
1 0.35938 0.0523232
1 0.369696 0.0587472
1 0.380255 0.0655222
0 0.265324 0
0 0.269368 0
0 0.273854 0
0 0.27863 0
0.0188144 0.2851 0
0.0531777 0.292638 0
0.088777 0.30164 0
0.12668 0.31191 0
0.168612 0.323461 0
0.214908 0.334813 0
0.262654 0.344915 0
0.309667 0.353887 0
0.355993 0.361654 0
0.400809 0.368933 0.00445563
0.4309 0.363592 0.00534066
0.461158 0.35903 0.00666819
0.492378 0.355306 0.00862135
0.524605 0.352605 0.0108797
0.557397 0.3505 0.0132601
0.591089 0.349371 0.0158236
0.626047 0.34876 0.0180972
0.662318 0.349065 0.0204471
0.699397 0.35053 0.0230564
0.73756 0.353109 0.0259861
0.776623 0.356832 0.0292515
0.816846 0.361578 0.0329747
0.857664 0.367285 0.0368811
0.899336 0.373877 0.0412451
0.941375 0.381415 0.0459449
0.98233 0.389731 0.0511482
1 0.399237 0.0572824
1 0.409094 0.0636149
1 0.419043 0.0699321
0 0.291569 0
0 0.295338 0
0 0.299535 0
0 0.304204 0
0.0130159 0.310262 0
0.0473793 0.317647 0
0.0827649 0.32636 0
0.120134 0.336385 0
0.161578 0.348028 0
0.20766 0.360388 0
0.256382 0.372213 0
0.304601 0.382666 0
0.351812 0.391699 0
0.397833 0.399786 0.0018616
0.441932 0.406989 0.00807202
0.472862 0.402441 0.00933852
0.505486 0.398749 0.011017
0.538766 0.395697 0.013077
0.573098 0.393561 0.0155489
0.608072 0.392065 0.0178378
0.644739 0.391211 0.0201877
0.682078 0.391531 0.0229496
0.719707 0.392859 0.0259098
0.758144 0.39527 0.0292973
0.797116 0.398795 0.0328679
0.836866 0.403235 0.0366064
0.877516 0.408743 0.0409094
0.918532 0.415198 0.0453956
0.959869 0.422171 0.0501106
0.999893 0.430381 0.0555581
1 0.439323 0.0614176
1 0.44889 0.0678264
1 0.458259 0.0740826
0 0.319142 0
0 0.322713 0
0 0.32665 0
0 0.331014 0
0.00820935 0.336797 0
0.0423285 0.343862 0
0.0773327 0.352178 0
0.114488 0.36202 0
0.155016 0.373327 0
0.200992 0.386236 0
0.250324 0.399512 0
0.299458 0.411444 0
0.347982 0.422034 0
0.394812 0.431144 0
0.440146 0.439231 0.00604257
0.484337 0.446433 0.0122988
0.517723 0.442496 0.0136263
0.552178 0.43946 0.0155489
0.587289 0.437064 0.0175174
0.624125 0.435431 0.0198978
0.662013 0.434394 0.0222477
0.700069 0.43447 0.0250401
0.738552 0.43563 0.0281834
0.777584 0.437888 0.0316777
0.81706 0.441199 0.035523
0.856931 0.445518 0.0397345
0.897322 0.450782 0.0441138
0.937972 0.456657 0.0487068
0.978698 0.463508 0.0536049
1 0.471305 0.0591745
1 0.479805 0.0651255
1 0.488823 0.0713207
1 0.497581 0.0774395
0 0.348363 0
0 0.351522 0
0 0.355123 0
0 0.359228 0
0.00427253 0.36463 0
0.0381933 0.371481 0
0.0730755 0.379538 0
0.10959 0.388861 0
0.149676 0.399908 0
0.195026 0.412848 0
0.244511 0.426719 0
0.294697 0.440345 0
0.34406 0.452369 0
0.392355 0.462913 0
0.438376 0.472068 0.0037995
0.483467 0.479744 0.0104829
0.529442 0.48658 0.0164645
0.564355 0.483314 0.0178378
0.600671 0.480858 0.0197299
0.638819 0.478843 0.0216678
0.677485 0.477821 0.0240482
0.716701 0.477974 0.027039
0.756085 0.478996 0.0302739
0.795789 0.481056 0.033875
0.835813 0.484123 0.0378271
0.875959 0.487999 0.0419165
0.916396 0.492866 0.0465705
0.957 0.498543 0.0513313
0.997452 0.504906 0.0564584
1 0.512139 0.0618448
1 0.520226 0.0679332
1 0.528435 0.0740063
1 0.536706 0.0800488
0 0.379248 0
0 0.382025 0
0 0.38529 0
0 0.389212 0
0.0016022 0.394324 0
0.0352789 0.400641 0
0.0696727 0.408362 0
0.106081 0.41738 0
0.145418 0.427848 0
0.190097 0.440345 0
0.239704 0.454643 0
0.29015 0.4692 0
0.34081 0.482811 0
0.389792 0.494636 0
0.436957 0.504845 0.00135805
0.482841 0.513527 0.00865187
0.529564 0.520714 0.0148318
0.575891 0.526848 0.0203098
0.61294 0.524132 0.0215305
0.652232 0.522393 0.0235294
0.691707 0.521401 0.025864
0.731579 0.52134 0.0286564
0.771771 0.52224 0.0318914
0.812222 0.524102 0.035523
0.852934 0.526879 0.0396277
0.89366 0.530571 0.0439307
0.934462 0.535073 0.0485084
0.975219 0.540276 0.0534524
1 0.546075 0.0583658
1 0.552926 0.0640726
1 0.560479 0.0700084
1 0.568032 0.0760052
1 0.575601 0.0819104
0 0.412192 0
0 0.414557 0
0 0.417411 0
0 0.420966 0
0.000396735 0.425727 0
0.0337224 0.431662 0
0.0677501 0.438895 0
0.103746 0.44744 0
0.142748 0.457511 0
0.186587 0.469276 0
0.235676 0.483345 0
0.286397 0.498436 0
0.33756 0.5131 0
0.387732 0.526314 0
0.435584 0.53756 0
0.482124 0.547204 0.00627146
0.529793 0.555169 0.0130617
0.57673 0.561608 0.0186313
0.624796 0.567208 0.0237278
0.664607 0.565454 0.0254673
0.704906 0.564538 0.0277256
0.745617 0.564584 0.0305638
0.78648 0.565393 0.0337224
0.827558 0.567086 0.0372931
0.868711 0.56965 0.0412299
0.909804 0.573037 0.0455634
0.950759 0.576974 0.0500496
0.991608 0.58175 0.0548409
1 0.587167 0.0600137
1 0.593561 0.0655985
1 0.600351 0.071458
1 0.607355 0.0773175
1 0.614115 0.0831769
0 0.447303 0
0 0.44921 0
0 0.451713 0
0 0.454856 0
0.0010071 0.459174 0
0.0338445 0.464729 0
0.0674754 0.471412 0
0.103044 0.479377 0
0.141466 0.488807 0
0.184802 0.49984 0
0.233158 0.513207 0
0.283558 0.528206 0
0.334829 0.543435 0
0.385794 0.557717 0
0.434546 0.570245 0
0.481605 0.580682 0.00361639
0.530007 0.589471 0.0108339
0.577966 0.596765 0.0170138
0.627131 0.602914 0.0226444
0.676371 0.608286 0.0275273
0.717052 0.607446 0.029633
0.758114 0.607385 0.0322271
0.799512 0.608133 0.0352789
0.841138 0.609659 0.0388037
0.882841 0.611948 0.0427253
0.924392 0.614984 0.046891
0.965759 0.618677 0.0513619
1 0.62295 0.056199
1 0.627909 0.0612039
1 0.633524 0.0666667
1 0.63978 0.0723735
1 0.646097 0.0780804
1 0.652094 0.0837873
0 0.484001 0
0 0.485695 0
0 0.487816 0
0 0.490562 0
0.00318914 0.494514 0
0.0356909 0.499657 0
0.0691539 0.505867 0
0.104112 0.513252 0
0.142229 0.52192 0
0.184955 0.532113 0
0.232242 0.544564 0
0.282078 0.558999 0
0.332998 0.574228 0
0.384344 0.589212 0
0.433616 0.602655 0
0.481437 0.614099 0.00077821
0.530724 0.62385 0.00862135
0.579629 0.632059 0.0154726
0.629725 0.638773 0.0215152
0.679942 0.644617 0.0269169
0.728511 0.649653 0.0318151
0.770001 0.649622 0.0342718
0.81178 0.650309 0.037171
0.853727 0.651728 0.0404974
0.895705 0.653819 0.0441901
0.937591 0.65655 0.0482643
0.979232 0.659846 0.0526436
1 0.663676 0.0571908
1 0.668116 0.062089
1 0.673243 0.0673686
1 0.678874 0.0729076
1 0.684474 0.0785229
1 0.689738 0.0838941
0 0.522194 0
0 0.523369 0
0 0.525246 0
0 0.527611 0
0.00686656 0.531334 0
0.0390784 0.53608 0
0.0721294 0.541863 0
0.106905 0.548699 0
0.144686 0.556527 0
0.186877 0.566049 0
0.233524 0.577523 0
0.282307 0.591165 0
0.332616 0.605951 0
0.383856 0.621073 0
0.433356 0.635187 0
0.481987 0.647608 0
0.532052 0.658366 0.00648508
0.581781 0.667475 0.013901
0.632807 0.674907 0.0204318
0.683574 0.681346 0.0262913
0.73315 0.686732 0.0316472
0.780941 0.691295 0.0361334
0.823133 0.692042 0.0389715
0.8654 0.693294 0.0421912
0.907637 0.695171 0.0457618
0.94966 0.697627 0.0495918
0.991165 0.700542 0.053666
1 0.703792 0.0579843
1 0.70782 0.0627451
1 0.712505 0.0678569
1 0.717464 0.073167
1 0.722347 0.078584
1 0.726879 0.0836652
0 0.561532 0
0 0.562463 0
0 0.563806 0
0 0.566079 0
0.0119173 0.569467 0
0.0437629 0.573831 0
0.0766003 0.579126 0
0.110994 0.58529 0
0.148623 0.592645 0
0.190768 0.601373 0
0.236378 0.612009 0
0.284047 0.62443 0
0.333852 0.638697 0
0.384527 0.653681 0
0.434241 0.668299 0
0.483391 0.681437 0
0.533852 0.693095 0.00448615
0.584512 0.703014 0.0124208
0.636332 0.711192 0.0194247
0.687785 0.718196 0.025742
0.737942 0.72401 0.0314336
0.786267 0.728801 0.036286
0.833387 0.732967 0.0408026
0.875746 0.734127 0.0437476
0.918059 0.735805 0.0470588
0.960174 0.737972 0.0506905
1 0.74052 0.0546883
1 0.74345 0.0587778
1 0.747005 0.0632944
1 0.751156 0.0681926
1 0.755444 0.0733349
1 0.759625 0.0783246
1 0.762631 0.0827802
0 0.602029 0
0 0.602487 0
0 0.603632 0
0 0.605509 0
0.0180972 0.60856 0
0.0496223 0.612528 0
0.0821698 0.61735 0
0.116564 0.623072 0
0.154162 0.629725 0
0.195911 0.637644 0
0.240879 0.647349 0
0.287709 0.659052 0
0.336507 0.672602 0
0.38674 0.687205 0
0.436042 0.701778 0
0.485481 0.715633 0
0.536477 0.727916 0.00263981
0.587686 0.73846 0.0110323
0.640269 0.747448 0.0184939
0.692439 0.754986 0.0252995
0.742855 0.761303 0.0312657
0.791852 0.766339 0.0365454
0.83949 0.770703 0.0412757
0.885481 0.77435 0.0454261
0.927871 0.775814 0.0485695
0.970016 0.777676 0.052018
1 0.779919 0.0556649
1 0.782422 0.0595102
1 0.785489 0.0637522
1 0.789044 0.0684062
1 0.792706 0.073228
1 0.795666 0.0776684
1 0.797391 0.0815595
0 0.642939 0
0 0.643122 0
0 0.643885 0
0 0.64564 0
0.0253605 0.648356 0
0.0566567 0.651926 0
0.0889906 0.656336 0
0.123308 0.66154 0
0.160861 0.667628 0
0.202625 0.674922 0
0.24683 0.68394 0
0.292897 0.694743 0
0.340764 0.707362 0
0.389822 0.721386 0
0.438987 0.735882 0
0.488487 0.749981 0
0.539574 0.762615 0.000961318
0.591333 0.773892 0.00975052
0.644755 0.783505 0.0177157
0.697078 0.791623 0.0248264
0.748028 0.798352 0.0311131
0.797421 0.803708 0.0366674
0.845396 0.808255 0.0416571
0.891768 0.811978 0.0461738
0.936629 0.815 0.0501106
0.978637 0.816587 0.0532387
1 0.818448 0.0565957
1 0.820539 0.0601816
1 0.823133 0.0641489
1 0.826078 0.0685588
1 0.828702 0.0727855
1 0.830335 0.0766003
1 0.831998 0.0804456
0 0.684382 0
0 0.684413 0
0 0.684871 0
0.00332647 0.686488 0
0.0338293 0.688991 0
0.0648814 0.692195 0
0.0970779 0.696147 0
0.131411 0.700847 0
0.169085 0.70631 0
0.210544 0.712856 0
0.253941 0.721141 0
0.299123 0.731197 0
0.346258 0.742992 0
0.394507 0.756329 0
0.442802 0.770413 0
0.492088 0.784283 0
0.543526 0.797482 0
0.595483 0.809125 0.00868238
0.649332 0.819257 0.0169833
0.702052 0.827817 0.0243534
0.753262 0.834775 0.0309148
0.802838 0.84065 0.0367742
0.85098 0.845396 0.0419776
0.89781 0.84918 0.0467384
0.942977 0.852201 0.0508583
0.98645 0.854582 0.0544289
1 0.856062 0.057496
1 0.85774 0.0607767
1 0.859861 0.0645304
1 0.861769 0.0683299
1 0.863203 0.0719463
1 0.864759 0.0756542
1 0.866484 0.0795148
0 0.725963 0
0 0.725795 0
0 0.726192 0
0.0128634 0.727672 0
0.0429847 0.729809 0
0.0737926 0.732662 0
0.105943 0.736187 0
0.140429 0.740368 0
0.178302 0.745281 0
0.219455 0.751354 0
0.262181 0.758923 0
0.306584 0.768185 0
0.352529 0.778988 0
0.399771 0.791516 0
0.447547 0.80502 0
0.496406 0.818769 0
0.547784 0.831983 0
0.600015 0.843961 0.00772107
0.654093 0.854459 0.0161898
0.706874 0.863294 0.0238499
0.758282 0.870771 0.0307012
0.808179 0.876921 0.0367895
0.856596 0.881819 0.042298
0.903395 0.885725 0.0471046
0.948684 0.888777 0.0513771
0.992432 0.891051 0.0551308
1 0.892744 0.058381
1 0.893996 0.0613565
1 0.894987 0.0644541
1 0.896117 0.0677195
1 0.897612 0.0713207
1 0.899107 0.0749523
1 0.900557 0.0785687
0 0.76733 0
0 0.766995 0
0 0.767391 0
0.0227817 0.768688 0
0.0526436 0.770565 0
0.0832837 0.773083 0
0.115434 0.776196 0
0.150134 0.779858 0
0.188205 0.784237 0
