luts/stills/KA Teal.cube
TITLE "Generated by Resolve"
LUT_3D_SIZE 9
0.0182498 0.0323644 0.0387274
0.119387 0.0312047 0.0375982
0.222354 0.030396 0.03682
0.3449 0.0256962 0.0319219
0.489403 0.0155184 0.0211948
0.635935 0.00294499 0.00769055
0.770596 0 0
0.882261 0 0
0.989059 0 0
0.0256046 0.124254 0.0448005
0.153735 0.114504 0.0483406
0.24773 0.115343 0.0572518
0.358602 0.116457 0.046128
0.501137 0.110262 0.0345006
0.647883 0.0999619 0.0216831
0.784222 0.0927901 0.0132906
0.898451 0.0929427 0.0131533
1 0.0958724 0.0161593
0.0294804 0.216846 0.0476234
0.151629 0.212894 0.0340734
0.292576 0.201785 0.0597848
0.415381 0.199435 0.0819562
0.541146 0.204242 0.0687419
0.680705 0.20293 0.0535897
0.816739 0.202609 0.0464485
0.934112 0.209262 0.0498817
1 0.218677 0.0572976
0.022034 0.321462 0.0398108
0.136919 0.323445 0.0308385
0.293233 0.320455 0.0305791
0.463828 0.31136 0.0745098
0.621927 0.3093 0.111345
0.75523 0.31696 0.109346
0.880156 0.327352 0.10074
0.992721 0.341497 0.103334
1 0.355779 0.109422
0.00956741 0.447547 0.0272068
0.12694 0.455268 0.02533
0.270512 0.464042 0.0216831
0.476112 0.462593 0.0416724
0.678538 0.452384 0.0984817
0.84593 0.446754 0.141619
0.978332 0.453666 0.157809
1 0.469383 0.163439
1 0.487282 0.166964
0.0117952 0.591836 0.0279393
0.130632 0.602579 0.0299229
0.264118 0.613962 0.0281376
0.457542 0.618219 0.0253452
0.695964 0.607614 0.0617685
0.895598 0.595178 0.119387
1 0.592905 0.166979
1 0.603632 0.199191
1 0.618235 0.219425
0.0288853 0.736828 0.0424811
0.146136 0.74757 0.0448005
0.275059 0.759808 0.0446174
0.452949 0.767681 0.0372931
0.700893 0.763317 0.0491951
0.930526 0.7505 0.100038
1 0.740291 0.153017
1 0.73901 0.194263
1 0.740993 0.225162
0.0695354 0.877028 0.0791638
0.186679 0.889128 0.0829786
0.311406 0.90013 0.0821241
0.475288 0.904479 0.0697032
0.708156 0.897276 0.0607614
0.949279 0.879774 0.0910353
1 0.863035 0.13756
1 0.854719 0.178698
1 0.849851 0.21471
0.107347 1 0.113283
0.216907 1 0.111025
0.333043 1 0.104204
0.484886 1 0.0863966
0.701961 1 0.0657359
0.947951 0.992065 0.0776532
1 0.973541 0.116945
1 0.963104 0.157321
1 0.955352 0.195789
0 0.0373388 0.134829
0.118837 0.0311284 0.132387
0.221714 0.0298009 0.132052
0.344579 0.0247654 0.128222
0.489998 0.0147097 0.119524
0.637354 0.002121 0.108232
0.772702 0 0.0997787
0.884886 0 0.0981155
0.992203 0 0.0985428
0.0198825 0.12636 0.134417
0.120348 0.124315 0.133028
0.222766 0.123003 0.131716
0.346532 0.119371 0.128069
0.494499 0.112352 0.121004
0.644419 0.102815 0.111376
0.781781 0.0956741 0.104158
0.896757 0.0961166 0.104616
1 0.0994278 0.107973
0.0267948 0.218555 0.135195
0.125475 0.218143 0.137026
0.258183 0.210208 0.142718
0.372091 0.211917 0.149722
0.5131 0.213886 0.139986
0.666255 0.211963 0.134142
0.807858 0.21059 0.131273
0.928237 0.217044 0.137102
1 0.226108 0.14583
0.0219883 0.323629 0.128939
0.122866 0.326955 0.133684
0.250324 0.329366 0.125399
0.429618 0.319631 0.156939
0.582513 0.321935 0.186023
0.720241 0.335164 0.180072
0.854826 0.343603 0.175113
0.973342 0.355856 0.180667
1 0.368627 0.189059
0.0120699 0.451392 0.118975
0.118715 0.460136 0.128695
0.241733 0.469932 0.127718
0.43566 0.472328 0.129519
0.647196 0.463188 0.18291
0.815335 0.463111 0.225666
0.942641 0.472694 0.233265
1 0.489036 0.234913
1 0.506432 0.238087
0.0156252 0.596704 0.120958
0.124849 0.608209 0.133135
0.245991 0.619379 0.134524
0.417395 0.626581 0.126513
0.663828 0.621714 0.150652
0.869505 0.61091 0.208286
1 0.609415 0.25388
1 0.621027 0.281483
1 0.63679 0.296651
0.0322423 0.741329 0.134691
0.141329 0.753414 0.147219
0.262165 0.765698 0.150271
0.422263 0.774884 0.14316
0.661707 0.775738 0.142763
0.901335 0.765164 0.188067
1 0.754528 0.239948
1 0.752468 0.27921
1 0.754772 0.307561
0.0737469 0.882368 0.171283
0.182101 0.894835 0.183948
0.299382 0.904753 0.184955
0.448356 0.908919 0.17348
0.665156 0.905257 0.156619
0.91342 0.891417 0.177508
1 0.875257 0.222568
1 0.866804 0.263218
1 0.861952 0.298405
0.109285 1 0.202777
0.210315 1 0.20914
0.320531 1 0.204379
0.460563 1 0.188434
0.660471 1 0.164096
0.907057 1 0.165591
1 0.984726 0.201419
1 0.974716 0.24152
1 0.967025 0.279728
0 0.0420844 0.23183
0.106126 0.0324559 0.237705
0.219913 0.0290684 0.226459
0.34229 0.023621 0.222217
0.488182 0.0140078 0.214069
0.636225 0.00209049 0.203601
0.771984 0 0.195666
0.884459 0 0.194293
0.992004 0 0.194919
0 0.131044 0.224643
0.100145 0.128374 0.229297
0.221347 0.122148 0.227039
0.345113 0.117952 0.224079
0.493996 0.111025 0.218753
0.646128 0.102785 0.212161
0.784497 0.0958877 0.206744
0.900328 0.0965896 0.208591
1 0.10016 0.213214
0.0182498 0.22153 0.228489
0.120073 0.220615 0.228214
0.224033 0.220432 0.228687
0.34966 0.21857 0.226825
0.503014 0.216663 0.224933
0.662287 0.216052 0.224323
0.806745 0.215747 0.224002
0.928206 0.222507 0.230655
1 0.232029 0.240024
0.0160525 0.327489 0.218814
0.12221 0.330068 0.224109
0.227832 0.335241 0.231281
0.394385 0.328496 0.241337
0.538293 0.335424 0.25481
0.69221 0.347784 0.253758
0.839673 0.356054 0.257176
0.962661 0.366629 0.265553
1 0.378485 0.27599
0.0117037 0.456001 0.210315
0.121401 0.464714 0.221439
0.230823 0.47512 0.232898
0.390188 0.480354 0.224994
0.611353 0.471183 0.266133
0.777005 0.476585 0.304799
0.904723 0.492454 0.306706
1 0.50779 0.307408
1 0.523842 0.313283
0.017792 0.601801 0.213443
0.128359 0.613169 0.226551
0.238209 0.624475 0.238483
0.384451 0.630869 0.231327
0.623209 0.63151 0.237827
0.839933 0.624781 0.296925
0.998795 0.626429 0.341833
1 0.639506 0.363363
1 0.656245 0.372244
0.0352178 0.746471 0.227375
0.145205 0.758618 0.240864
0.256489 0.771634 0.254215
0.400351 0.779751 0.249805
0.617823 0.785183 0.240299
0.869169 0.779309 0.277195
1 0.768582 0.32845
1 0.766232 0.365988
1 0.769055 0.391043
0.077348 0.887846 0.263951
0.185595 0.899657 0.276875
0.292866 0.909346 0.286824
0.428855 0.911757 0.277485
0.622461 0.910079 0.256962
0.873091 0.902113 0.265919
1 0.887327 0.309133
1 0.879042 0.349767
1 0.874235 0.384039
0.110674 1 0.293034
0.211398 1 0.299672
0.312551 1 0.304097
0.442878 1 0.290913
0.622812 1 0.266056
0.86128 1 0.256718
1 0.995727 0.287633
1 0.986465 0.327611
1 0.978897 0.365774
0 0.0456855 0.348547
0.0736553 0.0358434 0.359365
0.20766 0.026566 0.350835
0.337499 0.0203098 0.335729
0.482719 0.010132 0.327031
0.631861 0 0.317678
0.76849 0 0.310628
0.881559 0 0.309819
0.989517 0 0.310842
0 0.134936 0.333761
0.0706493 0.12958 0.343679
0.199466 0.12076 0.352682
0.339864 0.114168 0.337179
0.488151 0.106722 0.331319
0.642359 0.100481 0.326741
0.78233 0.0951095 0.322866
0.899062 0.0966659 0.325536
1 0.100969 0.3308
0 0.223621 0.338933
0.0906844 0.223743 0.335546
0.196841 0.223255 0.344625
0.34638 0.216052 0.342367
0.499825 0.213519 0.341344
0.661585 0.214481 0.343832
0.809155 0.216434 0.347143
0.931563 0.223545 0.355184
1 0.233417 0.365866
0.00494392 0.330632 0.334493
0.112123 0.333822 0.338186
0.221744 0.338842 0.343679
0.351522 0.340505 0.346075
0.508843 0.342382 0.34786
0.677745 0.351049 0.356237
0.833646 0.361868 0.36669
0.959167 0.372671 0.377127
1 0.384192 0.388251
0.00195315 0.461677 0.322133
0.115831 0.470008 0.332189
0.230335 0.479347 0.344091
0.359564 0.485206 0.352346
0.562951 0.477485 0.365087
0.718288 0.488777 0.387961
0.859449 0.507881 0.391196
0.9823 0.523995 0.400595
1 0.537942 0.410605
0.0131228 0.607507 0.324422
0.126909 0.617807 0.337331
0.239109 0.628077 0.34992
0.36611 0.63386 0.357168
0.561273 0.636271 0.345235
0.792142 0.631373 0.395865
0.951904 0.64065 0.440604
1 0.660685 0.456184
1 0.677607 0.458793
0.0331884 0.751492 0.338186
0.145708 0.763256 0.352193
0.258534 0.775799 0.366445
0.386786 0.783475 0.375067
0.564843 0.787213 0.361852
0.818326 0.78854 0.379644
1 0.781399 0.433097
1 0.781079 0.470146
1 0.78526 0.489799
0.0764935 0.892515 0.374502
0.18587 0.903319 0.387259
0.293202 0.911742 0.397208
0.414862 0.913542 0.399985
0.579492 0.910079 0.380713
0.814649 0.909926 0.373983
1 0.900191 0.413794
1 0.892241 0.454597
1 0.887678 0.487663
0.108248 1 0.401419
0.209857 1 0.40798
0.311101 1 0.412772
0.428824 1 0.411978
0.586801 1 0.390097
0.799954 1 0.370642
1 1 0.39205
1 0.999054 0.431846
1 0.99176 0.470161
0 0.0487678 0.489097
0.0351263 0.0385443 0.500282
0.167575 0.0267185 0.503807
0.323232 0.014374 0.482383
0.474418 0.00378424 0.462791
0.623331 0 0.453269
0.760845 0 0.447089
0.874632 0 0.446952
0.983612 0 0.44889
0 0.136156 0.469856
0.0315709 0.128908 0.480598
0.155428 0.119951 0.493446
0.319478 0.107088 0.484901
0.478874 0.0993515 0.466178
0.632563 0.0926375 0.461097
0.774853 0.0894789 0.459403
0.893202 0.0925917 0.463523
1 0.0986191 0.470436
0 0.225208 0.462715
0.0424659 0.22295 0.465141
0.156329 0.220218 0.47924
0.315847 0.210437 0.491371
0.49073 0.206287 0.476295
0.652338 0.207141 0.478584
0.803677 0.212726 0.485344
0.9281 0.221775 0.495186
1 0.232975 0.507012
0 0.331228 0.469306
0.0827192 0.334371 0.469841
0.1832 0.339757 0.471321
0.315785 0.341436 0.48452
0.503471 0.337987 0.486976
0.671946 0.345495 0.495674
0.830839 0.35845 0.509483
0.959838 0.37203 0.523629
1 0.383703 0.535836
0 0.465614 0.46392
0.103532 0.474418 0.472908
0.218387 0.484215 0.482918
0.351659 0.489158 0.488426
0.506767 0.488472 0.488716
0.672114 0.493736 0.493721
0.832349 0.508751 0.508034
0.966674 0.52813 0.526543
1 0.544457 0.542107
0 0.613474 0.461265
0.114244 0.623362 0.471992
0.229129 0.63267 0.482658
0.362585 0.637079 0.490089
0.514305 0.638132 0.494453
0.726741 0.633036 0.510338
0.876188 0.649134 0.54052
0.995514 0.675792 0.5523
1 0.695689 0.563455
0.0211032 0.757275 0.47187
0.136904 0.768627 0.4851
0.253086 0.779904 0.498741
0.385336 0.786068 0.508232
0.533455 0.786435 0.510933
0.736477 0.78703 0.49865
0.943023 0.781796 0.54609
1 0.789136 0.584894
1 0.803265 0.600259
0.0667582 0.897414 0.506615
0.178241 0.906722 0.518303
0.287846 0.913481 0.527733
0.411765 0.913787 0.531182
0.552407 0.907881 0.527459
0.733211 0.904784 0.507195
0.964248 0.904356 0.530648
1 0.901717 0.576059
1 0.902022 0.610956
0.0981765 1 0.530907
0.201999 1 0.537163
0.305409 1 0.542077
0.424903 1 0.542275
0.562707 1 0.536065
0.732677 1 0.513512
0.957305 1 0.516579
1 1 0.556161
1 1 0.595712
0 0.0528572 0.634409
0 0.0429694 0.645945
0.125978 0.0303655 0.65333
0.288701 0.0124361 0.642756
0.462425 0 0.610895
0.615137 0 0.593164
0.752483 0 0.586862
0.866407 0 0.586801
0.975937 0 0.589242
0 0.139834 0.613825
0 0.131411 0.62443
0.114778 0.120699 0.63595
0.27451 0.104204 0.639063
0.463371 0.0911421 0.614206
0.623056 0.0850538 0.599786
0.765362 0.0819257 0.598047
0.884627 0.0859083 0.602975
1 0.0933242 0.61117
0 0.228733 0.599222
0 0.223514 0.605142
0.114595 0.217533 0.618082
0.267063 0.206561 0.633844
0.470344 0.196796 0.625116
0.641901 0.198611 0.616281
0.792447 0.203449 0.622232
0.919295 0.214832 0.634211
1 0.228183 0.64802
0 0.333318 0.596948
0.0269169 0.334188 0.595178
0.130343 0.336187 0.601007
0.270802 0.334997 0.61973
0.472084 0.328756 0.637568
0.660777 0.336233 0.632593
0.818082 0.347677 0.644816
0.95053 0.364599 0.662028
1 0.379187 0.676921
0 0.467704 0.606394
0.0812848 0.475593 0.612924
0.190616 0.483986 0.618982
0.311727 0.487282 0.6177
0.467475 0.486992 0.628641
0.664179 0.486839 0.63444
0.823163 0.499947 0.648219
0.96051 0.521675 0.669947
1 0.542199 0.69044
0 0.617639 0.608148
0.102174 0.627466 0.618006
0.216327 0.636606 0.627283
0.350118 0.642023 0.633158
0.506432 0.642496 0.634531
0.666575 0.642252 0.635294
0.821775 0.652384 0.644862
0.95816 0.673777 0.665095
1 0.694865 0.685023
0.00653086 0.762997 0.614847
0.12311 0.774594 0.626688
0.239414 0.785702 0.638315
0.373648 0.791074 0.645136
0.528099 0.788754 0.646342
0.679316 0.784466 0.645899
0.868681 0.776898 0.657465
0.988815 0.788922 0.684108
1 0.810513 0.691539
0.0517891 0.903044 0.645945
0.163241 0.911452 0.65539
0.273564 0.917021 0.662531
0.4009 0.915801 0.664408
0.547265 0.907683 0.661234
0.691035 0.898985 0.655756
0.8757 0.896712 0.644038
1 0.894881 0.685466
1 0.902419 0.72079
0.0815595 1 0.665949
0.186526 1 0.670665
0.292287 1 0.674647
0.41561 1 0.674449
0.557656 1 0.669429
0.698878 1 0.66212
0.865766 1 0.645319
1 1 0.6692
1 1 0.713939
0 0.0572366 0.766461
0 0.0477455 0.778332
0.0917372 0.035172 0.78706
0.251164 0.0157015 0.784878
0.440986 0 0.755398
0.606928 0 0.726116
0.746349 0 0.71458
0.860197 0 0.714443
0.969848 0 0.71696
0 0.144335 0.745586
0 0.136141 0.756848
0.0830854 0.125414 0.768338
0.237232 0.107942 0.775387
0.435492 0.0878614 0.758877
0.613596 0.0794385 0.732891
0.758862 0.0770275 0.725414
0.878309 0.081178 0.730434
0.994308 0.0888838 0.738842
0 0.233967 0.728542
0 0.22887 0.737453
0.0835889 0.221759 0.750027
0.231754 0.208957 0.764706
0.43299 0.192889 0.766812
0.630518 0.19202 0.749554
0.785229 0.197818 0.748791
0.911833 0.208988 0.760479
1 0.222614 0.774456
0 0.338888 0.716762
0 0.339849 0.720226
0.0937362 0.338704 0.728847
0.233585 0.332769 0.74551
0.425391 0.323201 0.76733
0.643641 0.326497 0.764874
0.80795 0.339208 0.768612
0.938628 0.354437 0.78407
1 0.370108 0.799908
0 0.47129 0.727291
0.0415503 0.478019 0.730114
0.141344 0.482399 0.730358
0.258137 0.48069 0.729
0.422629 0.477028 0.747036
0.634562 0.4748 0.767361
0.81117 0.489662 0.770291
0.946395 0.509361 0.789944
1 0.532235 0.812543
0 0.621057 0.740139
0.0875715 0.630045 0.748486
0.19939 0.638239 0.755764
0.327916 0.641794 0.757748
0.471275 0.639628 0.751202
0.630137 0.640024 0.760983
0.814481 0.645975 0.771984
0.94789 0.663951 0.789975
1 0.685405 0.8112
0 0.768078 0.749676
0.114549 0.779675 0.76112
0.230518 0.790738 0.772107
0.363851 0.795865 0.777661
0.516762 0.793149 0.776028
0.670756 0.78703 0.771221
0.811276 0.782483 0.767819
0.93286 0.789456 0.77435
1 0.804471 0.788449
0.0404669 0.907988 0.777356
0.150851 0.915587 0.785153
0.260273 0.92076 0.790784
0.38674 0.919295 0.790509
0.534096 0.91075 0.784192
0.684382 0.899977 0.777081
0.818769 0.892943 0.773831
0.96997 0.888365 0.784298
1 0.899626 0.805051
0.0669718 1 0.793072
0.17142 1 0.796384
0.277043 1 0.799008
0.400977 1 0.796887
0.546456 1 0.789899
0.694041 1 0.783123
0.825101 0.996246 0.77879
0.971679 0.99852 0.771405
1 0.99823 0.809339
0 0.0620279 0.872023
0 0.0526741 0.883955
0.066804 0.0402533 0.893294
0.223331 0.0204929 0.894911
0.417685 0 0.872892
0.597253 0 0.838758
0.74229 0 0.819821
0.857389 0 0.817182
0.967224 0 0.819821
0 0.149172 0.85098
0 0.141161 0.862623
0.0597848 0.130663 0.874281
0.211505 0.113268 0.883009
0.408469 0.0903792 0.874601
0.601694 0.0774548 0.846464
0.754986 0.0750744 0.831296
0.876249 0.0802319 0.833814
0.992447 0.0881361 0.842329
0 0.239597 0.833234
0 0.23476 0.843732
0.0618906 0.227909 0.856886
0.209583 0.215473 0.871992
0.405097 0.197528 0.879667
0.615473 0.190356 0.864424
0.781384 0.196094 0.855344
0.909682 0.207919 0.863661
1 0.22121 0.877226
0 0.345907 0.817212
0 0.347127 0.824475
0.07187 0.346227 0.836042
0.213336 0.339788 0.853162
0.398093 0.326635 0.873014
0.618296 0.32195 0.877195
0.800916 0.334905 0.873518
0.9337 0.350698 0.884642
1 0.365545 0.899626
0 0.477729 0.8224
0.00668345 0.484245 0.824903
0.107942 0.487861 0.826734
0.227924 0.482887 0.828565
0.390845 0.472801 0.844053
0.594461 0.466941 0.868894
0.798596 0.481559 0.873426
0.938689 0.502922 0.887953
1 0.523339 0.908141
0 0.625879 0.841108
0.0671855 0.63357 0.846784
0.174624 0.640665 0.851133
0.292699 0.640192 0.846387
0.425101 0.631846 0.834821
0.593484 0.630823 0.853284
0.793301 0.636591 0.876982
0.938079 0.655451 0.886061
1 0.672816 0.903334
0 0.773724 0.857633
0.108049 0.784634 0.868116
0.223102 0.795209 0.878233
0.353902 0.798825 0.881651
0.501396 0.79324 0.8757
0.644129 0.784039 0.863523
0.782208 0.780423 0.866819
0.926711 0.783993 0.874434
1 0.796017 0.886687
0.0352636 0.913008 0.885145
0.144976 0.919921 0.892149
0.253727 0.924544 0.897047
0.379568 0.922713 0.896071
0.525933 0.913787 0.888609
0.675471 0.90338 0.879805
0.81265 0.895613 0.873411
0.925658 0.893874 0.87248
1 0.89955 0.877775
0.0586252 1 0.897612
0.162737 1 0.900313
0.267933 1 0.902266
0.391287 1 0.899214
0.535988 1 0.890425
0.684611 1 0.881132
0.821561 0.998093 0.875731
0.931121 0.996353 0.876661
1 0.993545 0.887892
0 0.066865 0.971298
0 0.0576333 0.983291
0.0439155 0.045304 0.992935
0.19855 0.0256962 0.996948
0.392859 0 0.98201
0.583429 0 0.948241
0.736706 0 0.923552
0.854856 0 0.916426
0.965606 0 0.917067
0 0.154116 0.95024
0 0.146258 0.962142
0.038117 0.135882 0.973877
0.1888 0.118929 0.983734
0.382635 0.0950637 0.981247
0.585077 0.0779583 0.956695
0.748943 0.074052 0.93611
0.874418 0.0798962 0.933974
0.991928 0.0885939 0.940536
0 0.245319 0.93228
0 0.240787 0.943938
0.0419928 0.234333 0.957656
0.18999 0.222416 0.973266
0.381521 0.204089 0.984085
0.595056 0.19176 0.974868
0.774319 0.195315 0.961257
0.907866 0.207706 0.964172
1 0.221378 0.975036
0 0.353338 0.914183
0 0.354879 0.9243
0.0527657 0.354299 0.937804
0.196139 0.34815 0.955749
0.37879 0.334844 0.975906
0.592554 0.324514 0.985092
0.788922 0.331975 0.978775
0.929152 0.348089 0.983383
1 0.3635 0.995285
0 0.485496 0.913176
0 0.491936 0.917296
0.081529 0.495201 0.92224
0.207309 0.490639 0.928771
0.369375 0.47689 0.942611
0.563134 0.46537 0.964508
0.773907 0.473136 0.974929
0.929915 0.496803 0.984451
1 0.517937 1
0 0.631479 0.933013
0.0412604 0.638239 0.936461
0.144625 0.644511 0.938476
0.25835 0.642649 0.932204
0.390005 0.628672 0.921843
0.558816 0.622019 0.939712
0.751644 0.624537 0.9691
0.922148 0.644312 0.979873
1 0.662684 0.991409
0 0.779339 0.955688
0.0961471 0.789548 0.964721
0.208087 0.798642 0.972396
0.332906 0.799496 0.97142
0.466697 0.787243 0.955779
0.594827 0.770947 0.935866
0.743709 0.767697 0.949538
0.901289 0.772061 0.970108
1 0.785733 0.97467
0.0294957 0.917433 0.985779
0.138186 0.9234 0.991684
0.245914 0.927275 0.995621
0.370352 0.924559 0.993393
0.513741 0.913878 0.98349
0.657771 0.900984 0.970489
0.783444 0.8907 0.957015
0.897017 0.890608 0.96405
1 0.893782 0.971023
0.0521706 1 0.997314
0.156359 1 0.999893
0.261357 1 1
0.38436 1 0.998093
0.528847 1 0.988998
0.676966 1 0.978958
0.81326 1 0.971771
0.925689 0.999176 0.970321
1 0.998764 0.970611
