luts/stills/KA Teal.cube
TITLE "Generated by Resolve"
LUT_3D_SIZE 5
0.0182498 0.0323644 0.0387274
0.222354 0.030396 0.03682
0.489403 0.0155184 0.0211948
0.770596 0 0
0.989059 0 0
0.0294804 0.216846 0.0476234
0.292576 0.201785 0.0597848
0.541146 0.204242 0.0687419
0.816739 0.202609 0.0464485
1 0.218677 0.0572976
0.00956741 0.447547 0.0272068
0.270512 0.464042 0.0216831
0.678538 0.452384 0.0984817
0.978332 0.453666 0.157809
1 0.487282 0.166964
0.0288853 0.736828 0.0424811
0.275059 0.759808 0.0446174
0.700893 0.763317 0.0491951
1 0.740291 0.153017
1 0.740993 0.225162
0.107347 1 0.113283
0.333043 1 0.104204
0.701961 1 0.0657359
1 0.973541 0.116945
1 0.955352 0.195789
0 0.0420844 0.23183
0.219913 0.0290684 0.226459
0.488182 0.0140078 0.214069
0.771984 0 0.195666
0.992004 0 0.194919
0.0182498 0.22153 0.228489
0.224033 0.220432 0.228687
0.503014 0.216663 0.224933
0.806745 0.215747 0.224002
1 0.232029 0.240024
0.0117037 0.456001 0.210315
0.230823 0.47512 0.232898
0.611353 0.471183 0.266133
0.904723 0.492454 0.306706
1 0.523842 0.313283
0.0352178 0.746471 0.227375
0.256489 0.771634 0.254215
0.617823 0.785183 0.240299
1 0.768582 0.32845
1 0.769055 0.391043
0.110674 1 0.293034
0.312551 1 0.304097
0.622812 1 0.266056
1 0.995727 0.287633
1 0.978897 0.365774
0 0.0487678 0.489097
0.167575 0.0267185 0.503807
0.474418 0.00378424 0.462791
0.760845 0 0.447089
0.983612 0 0.44889
0 0.225208 0.462715
0.156329 0.220218 0.47924
0.49073 0.206287 0.476295
0.803677 0.212726 0.485344
1 0.232975 0.507012
0 0.465614 0.46392
0.218387 0.484215 0.482918
0.506767 0.488472 0.488716
0.832349 0.508751 0.508034
1 0.544457 0.542107
0.0211032 0.757275 0.47187
0.253086 0.779904 0.498741
0.533455 0.786435 0.510933
0.943023 0.781796 0.54609
1 0.803265 0.600259
0.0981765 1 0.530907
0.305409 1 0.542077
0.562707 1 0.536065
0.957305 1 0.516579
1 1 0.595712
0 0.0572366 0.766461
0.0917372 0.035172 0.78706
0.440986 0 0.755398
0.746349 0 0.71458
0.969848 0 0.71696
0 0.233967 0.728542
0.0835889 0.221759 0.750027
0.43299 0.192889 0.766812
0.785229 0.197818 0.748791
1 0.222614 0.774456
0 0.47129 0.727291
0.141344 0.482399 0.730358
0.422629 0.477028 0.747036
0.81117 0.489662 0.770291
1 0.532235 0.812543
0 0.768078 0.749676
0.230518 0.790738 0.772107
0.516762 0.793149 0.776028
0.811276 0.782483 0.767819
1 0.804471 0.788449
0.0669718 1 0.793072
0.277043 1 0.799008
0.546456 1 0.789899
0.825101 0.996246 0.77879
1 0.99823 0.809339
0 0.066865 0.971298
0.0439155 0.045304 0.992935
0.392859 0 0.98201
0.736706 0 0.923552
0.965606 0 0.917067
0 0.245319 0.93228
0.0419928 0.234333 0.957656
0.381521 0.204089 0.984085
0.774319 0.195315 0.961257
1 0.221378 0.975036
0 0.485496 0.913176
0.081529 0.495201 0.92224
0.369375 0.47689 0.942611
0.773907 0.473136 0.974929
1 0.517937 1
0 0.779339 0.955688
0.208087 0.798642 0.972396
0.466697 0.787243 0.955779
0.743709 0.767697 0.949538
1 0.785733 0.97467
0.0521706 1 0.997314
0.261357 1 1
0.528847 1 0.988998
0.81326 1 0.971771
1 0.998764 0.970611
