luts/stills/KA Teal.cube
TITLE "Generated by Resolve"
LUT_3D_SIZE 33
0.0182498 0.0323644 0.0387274
0.0436255 0.0315404 0.0378882
0.0691081 0.0312505 0.0375982
0.094377 0.0312963 0.0376745
0.119387 0.0312047 0.0375982
0.144442 0.0311284 0.0375372
0.169741 0.0310063 0.0374151
0.195605 0.0307622 0.0371862
0.222354 0.030396 0.03682
0.250446 0.0299382 0.0363622
0.279942 0.0289769 0.0353552
0.31136 0.0275883 0.0339055
0.3449 0.0256962 0.0319219
0.379904 0.0234684 0.0295872
0.416083 0.0210117 0.0269932
0.452873 0.0183871 0.0242313
0.489403 0.0155184 0.0211948
0.525261 0.012604 0.0180972
0.56112 0.00956741 0.0148318
0.598077 0.00624094 0.0112612
0.635935 0.00294499 0.00769055
0.672663 0 0.00418097
0.707668 0 0.00114443
0.740276 0 0
0.770596 0 0
0.799695 0 0
0.827848 0 0
0.855268 0 0
0.882261 0 0
0.908873 0 0
0.935409 0 0
0.962203 0 0
0.989059 0 0
0.0199893 0.055375 0.0401465
0.0527504 0.0527352 0.0408637
0.0762798 0.0529183 0.0432593
0.0982223 0.053727 0.041413
0.121965 0.0539712 0.0404212
0.14641 0.0540475 0.0398718
0.171374 0.0540169 0.0394751
0.197253 0.0540322 0.039292
0.22385 0.053666 0.0388037
0.251682 0.0530709 0.038117
0.281163 0.0521553 0.0371252
0.312612 0.0508278 0.0357366
0.346242 0.0490425 0.0338903
0.381521 0.0470741 0.0319066
0.417762 0.0446326 0.0294194
0.454536 0.0419776 0.0267033
0.491218 0.0392004 0.0238804
0.52723 0.0363775 0.0210117
0.563256 0.0334325 0.0179904
0.600443 0.0302586 0.014725
0.638178 0.0267643 0.0111238
0.675013 0.0235599 0.0077821
0.710155 0.0208591 0.00500496
0.742916 0.0188296 0.00289921
0.77348 0.0175479 0.0016022
0.802686 0.0166323 0.000717174
0.830884 0.0159152 6.10361e-05
0.858473 0.0154574 0
0.885664 0.0151522 0
0.912444 0.0149691 0
0.939284 0.0150149 0
0.96611 0.0150301 0
0.993164 0.0150149 0
0.0220951 0.0786755 0.0419165
0.0529793 0.0770123 0.0378729
0.0869612 0.0734417 0.0433509
0.11191 0.0725872 0.0485389
0.132677 0.0736095 0.0479896
0.153857 0.0747234 0.0459449
0.176989 0.0755627 0.0445411
0.201389 0.0758526 0.0433051
0.227176 0.0758373 0.0422065
0.254475 0.0755016 0.0410925
0.283574 0.0747997 0.0397803
0.314778 0.0736706 0.0381781
0.34844 0.0722515 0.0363622
0.383459 0.0702983 0.0340887
0.419669 0.0680705 0.0315862
0.456504 0.0656138 0.0289158
0.493233 0.0630045 0.0261234
0.529335 0.0603952 0.0233463
0.565499 0.0576486 0.0204471
0.602579 0.0544442 0.0170596
0.640375 0.0510872 0.0135195
0.677256 0.0479744 0.0102388
0.712444 0.0453498 0.00749218
0.74551 0.0436255 0.00570687
0.776104 0.0423896 0.00442512
0.805341 0.0415351 0.00358587
0.833631 0.0409552 0.00302129
0.861341 0.0406043 0.00273136
0.888792 0.0405585 0.00276188
0.915892 0.0407111 0.00300603
0.942779 0.0408331 0.00320439
0.969726 0.0409552 0.00341802
0.996918 0.0411078 0.00367742
0.0240024 0.101564 0.0435035
0.0522774 0.100526 0.0395972
0.0888991 0.0968795 0.0382544
0.120317 0.093843 0.0457465
0.146227 0.0925917 0.052079
0.168551 0.0932174 0.0541848
0.189303 0.0944839 0.052903
0.211048 0.0956741 0.05066
0.234791 0.0964065 0.0485542
0.260624 0.0966659 0.0465705
0.288869 0.0966354 0.0448005
0.319356 0.0959335 0.04271
0.352316 0.094667 0.0403449
0.386984 0.0930495 0.0378271
0.422995 0.0910964 0.0351568
0.459709 0.0889143 0.0323949
0.496635 0.0867933 0.0298314
0.532723 0.0843977 0.027039
0.568719 0.0816968 0.0239719
0.605768 0.0786145 0.0205692
0.643595 0.0753948 0.0170443
0.680598 0.0725109 0.013901
0.716045 0.070222 0.011429
0.748959 0.0684367 0.00949111
0.779629 0.0673381 0.00828565
0.809003 0.0666819 0.00758373
0.837522 0.0663462 0.00726329
0.865492 0.0663005 0.00721752
0.89308 0.066453 0.00738537
0.920211 0.0666819 0.00764477
0.947341 0.0670634 0.00810254
0.974594 0.0675059 0.00862135
1 0.0679332 0.0091249
0.0256046 0.124254 0.0448005
0.0529335 0.12343 0.0413062
0.0868544 0.120943 0.0368048
0.123247 0.117174 0.0402686
0.153735 0.114504 0.0483406
0.180285 0.1131 0.0552987
0.203861 0.113054 0.0589151
0.225757 0.114015 0.059144
0.24773 0.115343 0.0572518
0.27155 0.116594 0.0547494
0.297734 0.117159 0.0519722
0.326726 0.117113 0.0490883
0.358602 0.116457 0.046128
0.392554 0.115343 0.0431678
0.428031 0.113832 0.0401923
0.464622 0.11223 0.0374151
0.501137 0.110262 0.0345006
0.537133 0.108202 0.031693
0.573129 0.105837 0.0286717
0.610101 0.102968 0.0252079
0.647883 0.0999619 0.0216831
0.685039 0.0974136 0.0186923
0.720394 0.0952163 0.016144
0.753445 0.0936904 0.014374
0.784222 0.0927901 0.0132906
0.813703 0.0923171 0.0126802
0.842588 0.0924239 0.012726
0.87071 0.092607 0.0128328
0.898451 0.0929427 0.0131533
0.925795 0.093431 0.0136263
0.953094 0.0940261 0.0142519
0.980697 0.0948653 0.0151064
1 0.0958724 0.0161593
0.027039 0.14696 0.0459602
0.0539406 0.146227 0.0427253
0.0852522 0.144717 0.0380255
0.122408 0.141314 0.0366674
0.157076 0.137758 0.0426032
0.187121 0.135286 0.0509041
0.214405 0.133791 0.05832
0.239475 0.133394 0.0630961
0.263279 0.134157 0.0649424
0.286473 0.135363 0.0638437
0.310994 0.136568 0.0610971
0.338003 0.137346 0.0576028
0.36817 0.137469 0.0538949
0.400961 0.13724 0.0504768
0.435584 0.136416 0.0470893
0.471321 0.13518 0.0437781
0.507378 0.133669 0.0406348
0.543084 0.132021 0.0376593
0.578927 0.130053 0.0345922
0.616022 0.127779 0.031342
0.653712 0.125063 0.0277714
0.690593 0.122576 0.0245823
0.725933 0.120607 0.022034
0.759075 0.119371 0.0203708
0.790066 0.118853 0.0195163
0.819959 0.118914 0.0193484
0.848753 0.119051 0.0193027
0.877028 0.119478 0.0195621
0.905043 0.12018 0.0201572
0.932754 0.121111 0.0209964
0.960449 0.122179 0.0219883
0.988373 0.1234 0.0231937
1 0.124559 0.0243229
0.0282902 0.169848 0.0469215
0.0551156 0.169345 0.0440375
0.0847028 0.168215 0.0395819
0.119783 0.165713 0.0357366
0.157198 0.162036 0.0378119
0.190829 0.158877 0.0450446
0.221195 0.156664 0.0537728
0.249592 0.1552 0.0617227
0.276249 0.154559 0.0673686
0.301717 0.154803 0.0701152
0.326909 0.155749 0.0699168
0.353079 0.156939 0.0673686
0.381689 0.158007 0.0636454
0.412558 0.158495 0.0594949
0.445747 0.158404 0.0555123
0.48043 0.157916 0.0517586
0.515801 0.157092 0.0483253
0.551019 0.156008 0.0451514
0.586694 0.154742 0.0421302
0.623255 0.152651 0.0385138
0.660777 0.150362 0.0349126
0.697643 0.148318 0.0317693
0.732967 0.146715 0.0292973
0.766094 0.145769 0.0276646
0.797406 0.145785 0.0271611
0.827314 0.146075 0.027039
0.856397 0.146685 0.0272831
0.884901 0.147478 0.0278019
0.913069 0.148486 0.0285496
0.941314 0.150042 0.0299229
0.969329 0.151537 0.0312505
0.997497 0.153124 0.0326848
1 0.154665 0.0341039
0.0292058 0.193133 0.0475624
0.055787 0.192584 0.0447547
0.0844739 0.191806 0.0407263
0.117327 0.190158 0.0363012
0.154894 0.187106 0.0349432
0.191775 0.183749 0.0396124
0.225238 0.181003 0.0477607
0.256229 0.178775 0.0567483
0.285863 0.177157 0.0651255
0.314366 0.176303 0.0715496
0.342077 0.176257 0.0752117
0.369879 0.177142 0.0760204
0.398138 0.178286 0.0737926
0.427771 0.179416 0.0700084
0.459281 0.180194 0.0656443
0.492439 0.180529 0.0613413
0.52694 0.180621 0.0577401
0.561471 0.180392 0.0543984
0.596414 0.179599 0.0510109
0.632486 0.178058 0.0471962
0.669581 0.176211 0.0433967
0.706233 0.17467 0.0402228
0.741817 0.173846 0.0381323
0.775051 0.173434 0.0366827
0.806165 0.173602 0.0360571
0.836149 0.174243 0.0360266
0.865431 0.175296 0.0365301
0.89427 0.176654 0.0373999
0.923064 0.178454 0.0388037
0.951232 0.180117 0.0401007
0.979416 0.181949 0.0416114
1 0.183932 0.0433204
1 0.186007 0.0451057
0.0294804 0.216846 0.0476234
0.0560464 0.216388 0.0449836
0.0841688 0.215839 0.0413519
0.115373 0.214862 0.0371099
0.151629 0.212894 0.0340734
0.190066 0.209796 0.0354162
0.226581 0.206653 0.0416114
0.26041 0.203983 0.0503243
0.292576 0.201785 0.0597848
0.324056 0.200183 0.0688487
0.35494 0.199268 0.0761578
0.385214 0.198978 0.0806592
0.415381 0.199435 0.0819562
0.445365 0.200626 0.0803235
0.476173 0.201999 0.0769055
0.508232 0.203326 0.0728618
0.541146 0.204242 0.0687419
0.574517 0.20473 0.0650492
0.608652 0.204791 0.0614633
0.644144 0.204105 0.0575418
0.680705 0.20293 0.0535897
0.717144 0.202136 0.0504921
0.752255 0.201633 0.048127
0.785473 0.201801 0.0468147
0.816739 0.202609 0.0464485
0.84683 0.203769 0.0466163
0.876158 0.205203 0.0472267
0.905379 0.207248 0.0485237
0.934112 0.209262 0.0498817
0.962554 0.21146 0.0515145
0.990936 0.213703 0.0532387
1 0.216007 0.0550546
1 0.218677 0.0572976
0.0290532 0.241245 0.0470283
0.0557107 0.240955 0.0446021
0.0835737 0.240665 0.0413825
0.113832 0.240253 0.0376135
0.147997 0.238956 0.0337987
0.186191 0.236667 0.0325933
0.225116 0.233768 0.0361486
0.262089 0.230869 0.0435645
0.297078 0.228397 0.0530098
0.331075 0.226322 0.0632181
0.364706 0.224521 0.0728923
0.398123 0.223331 0.0809033
0.431159 0.222858 0.086183
0.46331 0.223331 0.0882582
0.495262 0.224826 0.0876783
0.526955 0.22652 0.0849012
0.558938 0.228199 0.0812695
0.591089 0.229587 0.0774701
0.624002 0.230518 0.0735943
0.658763 0.230808 0.069688
0.694743 0.230655 0.0657206
0.730449 0.230472 0.0623636
0.765103 0.230564 0.0598611
0.797971 0.231235 0.0584573
0.829084 0.232578 0.0581064
0.859449 0.234562 0.0586862
0.888914 0.236637 0.0595407
0.917845 0.238804 0.0606394
0.946532 0.241169 0.0620432
0.975021 0.243748 0.0637675
1 0.246448 0.0656901
1 0.24947 0.0680095
1 0.252155 0.0700084
0.0276951 0.266606 0.0455482
0.0547036 0.266667 0.043534
0.0824445 0.266621 0.0406958
0.111849 0.266484 0.0372473
0.144442 0.265858 0.0334936
0.181216 0.264424 0.0308385
0.220996 0.262196 0.0316625
0.26099 0.259739 0.0371405
0.299123 0.257099 0.0456245
0.335744 0.254627 0.0557717
0.371878 0.252338 0.0665751
0.40824 0.250385 0.0770886
0.444663 0.249165 0.0860609
0.48014 0.248951 0.0924392
0.514199 0.249516 0.0954604
0.547219 0.250935 0.0956588
0.579385 0.252964 0.0938277
0.611124 0.255146 0.0910353
0.643366 0.257099 0.0876783
0.676829 0.258274 0.0835431
0.711452 0.258824 0.079118
0.746395 0.259419 0.0756542
0.780468 0.260349 0.0730907
0.812879 0.261707 0.0716106
0.843793 0.263783 0.0713664
0.873671 0.266072 0.0717021
0.902907 0.268589 0.0724956
0.931777 0.271305 0.0737011
0.960372 0.274098 0.0751507
0.988708 0.277012 0.0768292
1 0.280324 0.0790265
1 0.283375 0.0810254
1 0.286397 0.0830854
0.0255589 0.293446 0.0433356
0.052491 0.293446 0.0412909
0.0801862 0.293614 0.0387884
0.109194 0.293858 0.0358434
0.140795 0.293873 0.032517
0.175952 0.293339 0.0294652
0.215213 0.292195 0.0285344
0.256611 0.290105 0.0311284
0.29778 0.287724 0.0378119
0.337804 0.285313 0.0473793
0.376913 0.282887 0.0584726
0.415961 0.280537 0.0702678
0.455512 0.27863 0.0818952
0.494163 0.277455 0.0917067
0.531548 0.277256 0.0989395
0.567178 0.278004 0.10312
0.601099 0.279576 0.104555
0.633677 0.282124 0.104143
0.665629 0.284459 0.101991
0.698329 0.286305 0.098436
0.731884 0.287617 0.0941482
0.765499 0.288991 0.0903182
0.798642 0.290791 0.0875868
0.830564 0.293004 0.0862135
0.860746 0.295521 0.0856794
0.890028 0.298268 0.0857862
0.918776 0.301213 0.0863966
0.947234 0.304311 0.0874342
0.975769 0.307774 0.0890211
1 0.311192 0.0907454
1 0.314504 0.0925002
1 0.3178 0.0943313
1 0.32105 0.0962234
0.022034 0.321462 0.0398108
0.0492714 0.321752 0.038117
0.0770733 0.322164 0.0359503
0.105821 0.322698 0.0334478
0.136919 0.323445 0.0308385
0.170779 0.323751 0.0280156
0.208576 0.32343 0.0260319
0.249958 0.322286 0.0264134
0.293233 0.320455 0.0305791
0.336553 0.318288 0.0385595
0.379492 0.316258 0.0495308
0.421683 0.313878 0.061738
0.463828 0.31136 0.0745098
0.50547 0.309316 0.0867781
0.54609 0.308186 0.0974289
0.585046 0.308156 0.105714
0.621927 0.3093 0.111345
0.656184 0.310994 0.114046
0.689219 0.313069 0.114473
0.722072 0.315099 0.112612
0.75523 0.31696 0.109346
0.788144 0.319112 0.106081
0.820294 0.321569 0.10341
0.850904 0.324254 0.101534
0.880156 0.327352 0.10074
0.908675 0.330709 0.100618
0.936873 0.334096 0.101137
0.96492 0.337804 0.102144
0.992721 0.341497 0.103334
1 0.345129 0.104692
1 0.34876 0.106203
1 0.352316 0.107805
1 0.355779 0.109422
0.0180667 0.350774 0.035874
0.0456703 0.351354 0.0345159
0.0737774 0.352163 0.0328527
0.102785 0.353338 0.0311131
0.133211 0.354314 0.0287938
0.16611 0.355184 0.0263218
0.202487 0.355779 0.0242618
0.243046 0.355795 0.0234836
0.287068 0.354955 0.025452
0.333059 0.353628 0.0314183
0.37908 0.351537 0.0406653
0.424796 0.349218 0.0525063
0.470192 0.346731 0.0658122
0.514626 0.344305 0.0794385
0.558145 0.342336 0.0924392
0.60032 0.341527 0.104021
0.639963 0.341512 0.113039
0.676951 0.342428 0.119493
0.712062 0.343862 0.123278
0.746441 0.345327 0.124361
0.780453 0.347402 0.123476
0.813123 0.34966 0.121386
0.844648 0.352316 0.11931
0.874418 0.355474 0.117647
0.9028 0.358999 0.116823
0.930556 0.36286 0.116655
0.957977 0.366934 0.117021
0.984955 0.370855 0.117494
1 0.374777 0.118227
1 0.378698 0.119173
1 0.382467 0.120485
1 0.386404 0.121843
1 0.390158 0.123201
0.0142977 0.381643 0.0321202
0.042237 0.382437 0.0310063
0.0708476 0.383825 0.0299992
0.0998245 0.38526 0.0286564
0.130159 0.38677 0.0270085
0.162448 0.388205 0.0250553
0.197559 0.389456 0.0231327
0.237034 0.390539 0.0220645
0.280583 0.390829 0.0225681
0.327565 0.390204 0.0260471
0.376257 0.388693 0.0332189
0.425391 0.386526 0.0437476
0.474235 0.384009 0.0567025
0.522042 0.381842 0.0711223
0.568215 0.379446 0.0853742
0.612802 0.377493 0.0988022
0.655161 0.376455 0.110536
0.694804 0.376379 0.120119
0.732479 0.376928 0.127306
0.769314 0.377905 0.132006
0.804791 0.379019 0.133928
0.838499 0.38085 0.134234
0.870161 0.383444 0.133593
0.899794 0.386694 0.132921
0.927794 0.390509 0.132692
0.955001 0.39472 0.132845
0.981414 0.398795 0.132967
1 0.40293 0.133272
1 0.407065 0.13373
1 0.4112 0.134371
1 0.415442 0.135271
1 0.419516 0.136156
1 0.423285 0.136843
0.0113375 0.414023 0.0291295
0.0399481 0.415366 0.0285801
0.0685588 0.416815 0.0277104
0.097612 0.41854 0.0267643
0.127886 0.420447 0.0256352
0.159869 0.422446 0.0243076
0.194522 0.424521 0.0230411
0.232395 0.426123 0.0217594
0.274647 0.427161 0.0212406
0.321386 0.427466 0.0228885
0.37174 0.42681 0.0278172
0.423758 0.425193 0.0364691
0.476326 0.423102 0.0485847
0.527062 0.420523 0.0624094
0.576013 0.417945 0.0770428
0.623026 0.415534 0.0915999
0.667796 0.413626 0.105165
0.709834 0.412528 0.117037
0.750164 0.412299 0.127199
0.78909 0.411963 0.134707
0.826841 0.412207 0.139879
0.862242 0.413352 0.143038
0.895232 0.41532 0.144884
0.925689 0.41854 0.146151
0.953628 0.422065 0.146883
0.980362 0.42594 0.147494
1 0.430045 0.148043
1 0.434195 0.148653
1 0.438514 0.149096
1 0.442939 0.149813
1 0.447059 0.150271
1 0.451148 0.150744
1 0.455222 0.151263
0.00956741 0.447547 0.0272068
0.0384985 0.449119 0.0269322
0.0675212 0.450996 0.026566
0.0967575 0.453071 0.0260777
0.12694 0.455268 0.02533
0.158907 0.457877 0.0247044
0.192737 0.460212 0.0236515
0.229648 0.462348 0.0225071
0.270512 0.464042 0.0216831
0.316182 0.465095 0.022034
0.366842 0.465431 0.0250858
0.420905 0.464561 0.0315557
0.476112 0.462593 0.0416724
0.530098 0.46006 0.054551
0.581979 0.457313 0.0689403
0.631434 0.454597 0.0837568
0.678538 0.452384 0.0984817
0.722637 0.450401 0.111849
0.764691 0.448844 0.123598
0.80592 0.447532 0.133623
0.84593 0.446754 0.141619
0.883314 0.446952 0.14757
0.91809 0.448478 0.152148
0.949462 0.450706 0.155261
0.978332 0.453666 0.157809
1 0.457145 0.159625
1 0.460929 0.161028
1 0.464958 0.162219
1 0.469383 0.163439
1 0.473747 0.164385
1 0.478172 0.165499
1 0.48278 0.166201
1 0.487282 0.166964
0.00946059 0.482017 0.0267948
0.0386206 0.483803 0.0267796
0.0678569 0.485954 0.0267185
0.0974441 0.488502 0.0267796
0.127901 0.491203 0.0266575
0.159319 0.493797 0.0261082
0.192599 0.496376 0.02533
0.228641 0.498878 0.0243687
0.268284 0.50106 0.0235294
0.312901 0.502922 0.0233616
0.362646 0.503822 0.0247044
0.417105 0.503487 0.0288243
0.474372 0.501961 0.0367132
0.531228 0.499611 0.0480354
0.586084 0.496803 0.0616464
0.638376 0.494118 0.0765393
0.687282 0.491249 0.0911421
0.732937 0.488533 0.105058
0.776806 0.486076 0.118059
0.820066 0.483894 0.129915
0.862165 0.4822 0.140139
0.901823 0.481743 0.148791
0.937957 0.482033 0.155322
0.970672 0.483406 0.16051
1 0.485756 0.164767
1 0.488777 0.168338
1 0.492592 0.171878
1 0.496605 0.174472
1 0.500893 0.176699
1 0.505364 0.178637
1 0.509987 0.180346
1 0.514763 0.181872
1 0.51986 0.183474
0.0102693 0.517494 0.0272221
0.039704 0.51957 0.0274968
0.0691844 0.522011 0.0277867
0.0988937 0.524788 0.0281529
0.129137 0.527535 0.0281682
0.160433 0.530373 0.0279545
0.193301 0.533196 0.027451
0.22858 0.535882 0.0266423
0.26746 0.538628 0.0259861
0.310338 0.540627 0.0252079
0.358694 0.541924 0.0252689
0.412634 0.542138 0.0274357
0.470985 0.54107 0.0328985
0.530114 0.539147 0.0423285
0.587747 0.5364 0.0546273
0.642344 0.533165 0.0684672
0.693416 0.529885 0.0828107
0.740978 0.526864 0.0969406
0.78648 0.523857 0.110613
0.831739 0.521096 0.123903
0.875715 0.518532 0.13579
0.91693 0.516899 0.146059
0.954955 0.516487 0.154818
0.989517 0.517388 0.16228
1 0.519417 0.16875
1 0.522499 0.174701
1 0.525795 0.179583
1 0.529534 0.183886
1 0.533593 0.187854
1 0.538064 0.19118
1 0.542718 0.194064
1 0.547768 0.196811
1 0.552499 0.198795
0.0108644 0.554101 0.0274357
0.0408179 0.55668 0.0282444
0.0703441 0.559228 0.0287022
0.0999008 0.561959 0.0290532
0.130037 0.564797 0.029221
0.161059 0.567697 0.0291752
0.193606 0.570703 0.0289311
0.228412 0.573709 0.0284581
0.265934 0.576272 0.0274205
0.307317 0.578439 0.0262913
0.35404 0.579919 0.025391
0.406744 0.580438 0.025803
0.464988 0.579919 0.0290379
0.525567 0.578241 0.035935
0.585275 0.575402 0.0461433
0.642451 0.572015 0.058732
0.695994 0.568505 0.0725109
0.745739 0.565225 0.0865797
0.793469 0.562295 0.100877
0.840406 0.55906 0.1149
0.886458 0.556008 0.128298
0.929839 0.553964 0.14049
0.969894 0.553079 0.151263
1 0.553475 0.160723
1 0.555398 0.169482
1 0.557794 0.177066
1 0.5608 0.183871
1 0.564248 0.189944
1 0.568002 0.195331
1 0.572381 0.200427
1 0.576623 0.204578
1 0.580911 0.208316
1 0.585367 0.211276
0.0117952 0.591836 0.0279393
0.0414893 0.594232 0.0285649
0.0710155 0.596857 0.02916
0.100603 0.59968 0.029633
0.130632 0.602579 0.0299229
0.161486 0.605585 0.030045
0.193729 0.608698 0.0299992
0.227604 0.611444 0.0292821
0.264118 0.613962 0.0281376
0.30425 0.616129 0.0266728
0.349187 0.617685 0.0251469
0.400473 0.618692 0.0244755
0.457542 0.618219 0.0253452
0.518227 0.616587 0.0294957
0.579644 0.613977 0.0373999
0.639399 0.610773 0.0484779
0.695964 0.607614 0.0617685
0.748653 0.60473 0.076051
0.798627 0.60174 0.0905013
0.847684 0.598474 0.105058
0.895598 0.595178 0.119387
0.940902 0.592676 0.132937
0.983093 0.591638 0.145586
1 0.59176 0.156893
1 0.592905 0.166979
1 0.594797 0.176165
1 0.597223 0.184482
1 0.600092 0.19205
1 0.603632 0.199191
1 0.607172 0.205402
1 0.610819 0.210819
1 0.614511 0.215488
1 0.618235 0.219425
0.0135195 0.629267 0.0292058
0.0432441 0.631739 0.0298924
0.0727245 0.634379 0.0305333
0.102174 0.637156 0.0309911
0.132326 0.640299 0.0316014
0.162799 0.643168 0.0316472
0.1944 0.645991 0.0313573
0.22768 0.648676 0.0306249
0.26334 0.651087 0.0293736
0.302327 0.653193 0.0276799
0.345937 0.654994 0.0258946
0.3953 0.655772 0.0240024
0.451118 0.65568 0.0234073
0.51165 0.654643 0.0256504
0.574487 0.652674 0.0316014
0.636484 0.650095 0.0412299
0.695674 0.647272 0.0535439
0.750744 0.644388 0.0671702
0.803174 0.64155 0.081651
0.85452 0.638422 0.0966049
0.904448 0.635187 0.111513
0.951583 0.632654 0.12607
0.995148 0.630961 0.139605
1 0.630396 0.151873
1 0.630976 0.163088
1 0.632303 0.173449
1 0.634165 0.182986
1 0.636683 0.191989
1 0.639124 0.199878
1 0.64184 0.20705
1 0.64477 0.213565
1 0.647791 0.219318
1 0.651011 0.224491
0.0167849 0.666133 0.0318761
0.0463569 0.668559 0.0325475
0.0757153 0.671138 0.0331426
0.105348 0.674174 0.0339055
0.134951 0.676936 0.0341497
0.165118 0.679667 0.0341039
0.196262 0.682338 0.0337224
0.229007 0.684886 0.032929
0.264103 0.687343 0.0317235
0.302632 0.689815 0.0303349
0.345251 0.691646 0.0283055
0.393362 0.692882 0.0262455
0.44802 0.693248 0.0247807
0.507836 0.692699 0.0254978
0.571328 0.691585 0.0298924
0.634791 0.689418 0.0376898
0.695979 0.686824 0.0486
0.753399 0.684184 0.0614939
0.807996 0.681407 0.0755627
0.861479 0.678325 0.0905013
0.91339 0.675135 0.10573
0.961776 0.67219 0.120348
1 0.670008 0.134264
1 0.668894 0.147189
1 0.668788 0.15903
1 0.669551 0.170169
1 0.670787 0.180514
1 0.672297 0.190036
1 0.674037 0.198734
1 0.675898 0.206622
1 0.677867 0.213748
1 0.680201 0.220417
1 0.682445 0.22623
0.0219577 0.701976 0.036347
0.0515755 0.70457 0.037171
0.080766 0.707088 0.037705
0.109819 0.709682 0.0380255
0.139223 0.712337 0.0382391
0.169268 0.715114 0.0382696
0.200381 0.717968 0.0381323
0.233417 0.721096 0.0379797
0.268299 0.723781 0.0370642
0.306096 0.726207 0.0355993
0.347967 0.728252 0.0336309
0.395071 0.729747 0.0314794
0.448722 0.730556 0.0295415
0.508019 0.730831 0.0295415
0.570962 0.729854 0.0320439
0.635264 0.728008 0.0380407
0.697734 0.725628 0.0473793
0.756878 0.723079 0.0591287
0.813428 0.720394 0.0725719
0.868833 0.717327 0.0872053
0.922133 0.71371 0.102022
0.97171 0.710399 0.116503
1 0.707744 0.130358
1 0.706065 0.14345
1 0.705531 0.15581
1 0.705562 0.167269
1 0.705821 0.177722
1 0.706401 0.187472
1 0.707332 0.196612
1 0.708492 0.205066
1 0.709957 0.213001
1 0.711101 0.219867
1 0.712276 0.226032
0.0288853 0.736828 0.0424811
0.0581521 0.739223 0.0431067
0.0873274 0.741787 0.0436866
0.116533 0.74461 0.0442664
0.146136 0.74757 0.0448005
0.176303 0.750576 0.0451362
0.207736 0.753902 0.0455329
0.240345 0.756909 0.0452888
0.275059 0.759808 0.0446174
0.312596 0.762478 0.0434272
0.353964 0.764752 0.0416266
0.400137 0.766491 0.0393378
0.452949 0.767681 0.0372931
0.510826 0.767819 0.0360266
0.573098 0.767086 0.0371252
0.637476 0.765515 0.0414893
0.700893 0.763317 0.0491951
0.761563 0.761028 0.0599222
0.819318 0.758022 0.0721294
0.875853 0.754406 0.0856947
0.930526 0.7505 0.100038
0.981277 0.746868 0.114305
1 0.743832 0.128008
1 0.741741 0.141009
1 0.740291 0.153017
1 0.739483 0.164416
1 0.739086 0.175082
1 0.738903 0.18497
1 0.73901 0.194263
1 0.739406 0.202976
1 0.739879 0.211017
1 0.740429 0.218433
1 0.740993 0.225162
0.0372168 0.77142 0.0499275
0.0665904 0.77406 0.0507973
0.0959029 0.776852 0.0516213
0.125216 0.779828 0.052369
0.155138 0.783185 0.0533303
0.185519 0.786511 0.0540169
0.216693 0.789761 0.0543832
0.249241 0.79292 0.0543374
0.283711 0.79588 0.0537728
0.320775 0.79855 0.0525978
0.361776 0.801099 0.0510262
0.407248 0.802823 0.0485695
0.458473 0.803784 0.0458839
0.51516 0.803998 0.0438087
0.576379 0.803265 0.0435645
0.640238 0.801648 0.0462043
0.704387 0.799695 0.0525063
0.765484 0.79707 0.0614328
0.824353 0.793896 0.0724193
0.881987 0.789899 0.0849317
0.937636 0.785412 0.0983749
0.989334 0.781308 0.112093
1 0.778012 0.125673
1 0.775235 0.138216
1 0.773175 0.149889
1 0.771527 0.160937
1 0.770352 0.171496
1 0.769665 0.181628
1 0.769268 0.191226
1 0.768948 0.200046
1 0.768765 0.208362
1 0.768765 0.216175
1 0.768856 0.223453
0.0470283 0.806332 0.0587625
0.0764935 0.809186 0.0598459
0.105989 0.812207 0.060914
0.135637 0.815625 0.0621195
0.165484 0.818982 0.0630961
0.195651 0.822232 0.0637522
0.226658 0.825452 0.0641031
0.25893 0.828565 0.0640421
0.293065 0.831479 0.0634775
0.329976 0.834363 0.0625315
0.370016 0.836515 0.0605478
0.41445 0.83798 0.0577096
0.464332 0.838697 0.05449
0.519753 0.838773 0.0516213
0.579889 0.838026 0.0502632
0.643275 0.836652 0.051667
0.706813 0.834134 0.0558022
0.768231 0.831159 0.0629435
0.827863 0.82771 0.0725414
0.88658 0.823468 0.0839704
0.943542 0.81886 0.0968185
0.995941 0.814069 0.109682
1 0.809857 0.122362
1 0.806577 0.134539
1 0.80415 0.146075
1 0.802197 0.157061
1 0.800732 0.167758
1 0.799359 0.177813
1 0.798337 0.187442
1 0.797604 0.196567
1 0.797009 0.205219
1 0.796597 0.213428
1 0.796353 0.221286
0.0580606 0.841703 0.0687572
0.0875257 0.844648 0.0699321
0.117266 0.848005 0.0713359
0.146578 0.851164 0.0722972
0.176165 0.854368 0.0731212
0.20618 0.857588 0.0737621
0.236927 0.8607 0.074052
0.269017 0.863783 0.0740063
0.302708 0.866514 0.0732891
