luts/stills/KA Warm.cube
TITLE "Generated by Resolve"
LUT_3D_SIZE 5
0.0597238 0.0413672 0.0191653
0.244083 0.0255589 0
0.524819 0 0
0.753796 0 0
0.954742 0 0
0.0341039 0.185611 0.0148318
0.366522 0.182605 0.0103609
0.672023 0.206622 0.0424048
0.878828 0.247623 0.0542153
1 0.289982 0.0794537
0.00950637 0.475929 0.0107881
0.286976 0.531838 0
0.786526 0.522759 0.0395209
1 0.547097 0.10808
1 0.585824 0.126284
0.0402075 0.775662 0.062562
0.247257 0.8224 0.0491035
0.768444 0.813642 0.00300603
1 0.803784 0.0674449
1 0.799664 0.115724
0.0917372 1 0.134249
0.25391 1 0.111788
0.68014 1 0.0117342
1 1 0.0193179
1 0.988357 0.0778821
0.0126802 0.0471199 0.21706
0.234043 0.0208133 0.199649
0.521004 0 0.159945
0.75758 0 0.154467
0.96733 0 0.18204
0.0385138 0.194919 0.194614
0.257481 0.216724 0.218433
0.587182 0.230762 0.225971
0.856168 0.268772 0.260044
1 0.307012 0.291371
0.0394903 0.491554 0.255695
0.241321 0.527428 0.257893
0.695659 0.537758 0.251057
0.922408 0.58085 0.341512
1 0.618799 0.343481
0.0644083 0.779873 0.329915
0.241932 0.805203 0.310338
0.636118 0.827604 0.200763
0.997177 0.820584 0.311818
1 0.815412 0.407416
0.104692 1 0.417502
0.26154 1 0.383932
0.569879 1 0.262486
0.977539 1 0.197177
1 1 0.338643
0 0.0381323 0.58204
0.137743 0.0122683 0.631037
0.493416 0 0.52871
0.74342 0 0.522026
0.961898 0 0.558145
0 0.191379 0.473991
0.132372 0.211872 0.572595
0.571984 0.215015 0.603998
0.852918 0.25687 0.638239
1 0.300908 0.680797
0.0299229 0.513146 0.568414
0.254795 0.543023 0.600427
0.576394 0.544289 0.601862
0.845853 0.576944 0.624155
1 0.623682 0.673945
0.0805219 0.800641 0.668254
0.286061 0.807172 0.672236
0.562341 0.801511 0.639872
0.906691 0.810697 0.641291
1 0.831449 0.711574
0.116991 1 0.75227
0.289372 1 0.729061
0.542458 0.984695 0.667002
0.857252 1 0.576486
1 1 0.69366
0 0.0350195 0.845914
0.0591897 0.0164034 0.902586
0.430869 0 0.833249
0.731136 0 0.796139
0.957412 0 0.828382
0 0.194034 0.73753
0.0593423 0.195972 0.829755
0.456809 0.192004 0.902586
0.840955 0.235248 0.903243
1 0.290318 0.944976
0 0.518166 0.788937
0.118074 0.532128 0.805844
0.417823 0.524056 0.852445
0.837018 0.558816 0.897276
1 0.613123 0.934966
0.0739452 0.818982 0.886809
0.279973 0.833936 0.904402
0.581827 0.816083 0.887602
0.823636 0.808118 0.879316
1 0.828779 0.895323
0.129198 1 0.949691
0.323644 1 0.954437
0.589059 0.986984 0.91989
0.804456 0.978912 0.892882
1 1 0.906935
0 0.0408179 1
0.0055848 0.0203861 1
0.318105 0 1
0.70074 0 1
0.951354 0 1
0 0.208972 0.944839
0.0125582 0.216022 1
0.317845 0.211063 1
0.7944 0.215839 1
1 0.275471 1
0 0.519387 0.94287
0.0347295 0.521111 0.975738
0.260563 0.502495 1
0.737057 0.49955 1
1 0.580682 1
0.0345617 0.827451 1
0.181521 0.844953 1
0.405463 0.808042 1
0.694896 0.777584 1
1 0.809018 1
0.101381 1 1
0.293431 1 1
0.584985 1 1
0.821195 0.996048 1
1 0.99704 1
