luts/stills/KA Warm.cube
TITLE "Generated by Resolve"
LUT_3D_SIZE 9
0.0597238 0.0413672 0.0191653
0.124056 0.0415656 0.0179294
0.244083 0.0255589 0
0.383566 0.00581369 0
0.524819 0 0
0.649668 0 0
0.753796 0 0
0.851621 0 0
0.954742 0 0
0.0585031 0.102296 0.0287785
0.157977 0.0947738 0.0172885
0.28896 0.0804456 0.0108339
0.419806 0.0721752 0
0.567147 0.0733806 0
0.702998 0.0803082 0
0.820951 0.0961929 0.00898756
0.929992 0.115358 0.0259709
1 0.132052 0.040528
0.0341039 0.185611 0.0148318
0.122683 0.203418 0
0.366522 0.182605 0.0103609
0.535546 0.183886 0.0259861
0.672023 0.206622 0.0424048
0.7785 0.226795 0.045716
0.878828 0.247623 0.0542153
0.978225 0.268925 0.066331
1 0.289982 0.0794537
0.0156252 0.322957 0.00634775
0.0990921 0.357763 0.00611887
0.349935 0.360586 0
0.595712 0.347478 0.0213321
0.754269 0.354162 0.054551
0.861448 0.374456 0.0778821
0.948486 0.400305 0.0899062
1 0.425437 0.0982528
1 0.448127 0.106798
0.00950637 0.475929 0.0107881
0.0865339 0.50721 0.011841
0.286976 0.531838 0
0.593027 0.525139 0
0.786526 0.522759 0.0395209
0.915724 0.531807 0.0811475
1 0.547097 0.10808
1 0.566217 0.121492
1 0.585824 0.126284
0.0151217 0.630243 0.0272221
0.091722 0.659831 0.0316777
0.24976 0.686107 0.0118257
0.548165 0.68806 0
0.788312 0.681941 0.016144
0.934371 0.682826 0.0584726
1 0.685039 0.0933242
1 0.691035 0.116915
1 0.700008 0.129137
0.0402075 0.775662 0.062562
0.115282 0.801129 0.0662699
0.247257 0.8224 0.0491035
0.498955 0.824613 0.0109102
0.768444 0.813642 0.00300603
0.937331 0.808972 0.0342107
1 0.803784 0.0674449
1 0.799939 0.0949416
1 0.799664 0.115724
0.0707713 0.904143 0.10309
0.14052 0.924453 0.105135
0.25864 0.939406 0.0838483
0.464439 0.937667 0.0406806
0.729595 0.923156 0.00326543
0.923461 0.915145 0.0144198
1 0.906889 0.0432746
1 0.898833 0.0724041
1 0.893172 0.097322
0.0917372 1 0.134249
0.155581 1 0.131701
0.25391 1 0.111788
0.436866 1 0.0641184
0.68014 1 0.0117342
0.890974 1 0
1 1 0.0193179
1 0.996094 0.0487984
1 0.988357 0.0778821
0.0383459 0.0462959 0.0932937
0.123064 0.0405737 0.0921035
0.243076 0.0249485 0.0746929
0.383154 0.00451667 0.0530709
0.526482 0 0.0363622
0.652674 0 0.0243534
0.75877 0 0.0229801
0.858656 0 0.0302892
0.964279 0 0.0438087
0.0586252 0.102892 0.0910658
0.124224 0.103349 0.0918135
0.248356 0.0911421 0.0772106
0.397559 0.0809796 0.0656291
0.557351 0.0806439 0.0648966
0.703182 0.0902724 0.0728466
0.824048 0.105684 0.0865187
0.933455 0.123812 0.103014
1 0.140337 0.117784
0.0458228 0.188708 0.0888685
0.115785 0.206241 0.095552
0.311971 0.201038 0.0906081
0.469764 0.209995 0.104524
0.6121 0.226993 0.103685
0.747036 0.245945 0.111299
0.860578 0.263523 0.122072
0.966781 0.283223 0.136736
1 0.302754 0.151507
0.0346838 0.331563 0.0909438
0.110521 0.358724 0.102449
0.274372 0.374731 0.0792096
0.540307 0.360204 0.0971389
0.702129 0.368902 0.127108
0.812879 0.397513 0.146761
0.906371 0.424063 0.154803
1 0.446479 0.16376
1 0.466438 0.173571
0.0272374 0.481422 0.0961929
0.10071 0.50695 0.105165
0.234943 0.532601 0.0910353
0.525963 0.538643 0.0760357
0.748257 0.536141 0.115358
0.880812 0.548592 0.164858
0.975326 0.56701 0.193881
1 0.587488 0.200397
1 0.606653 0.200107
0.0316625 0.634745 0.115084
0.10457 0.657557 0.121309
0.224292 0.679927 0.110994
0.465797 0.697963 0.0811475
0.747646 0.697078 0.0919661
0.904067 0.697581 0.136889
1 0.69926 0.184115
1 0.705257 0.219257
1 0.715373 0.231968
0.0544594 0.778881 0.154376
0.125505 0.799527 0.157656
0.235599 0.816022 0.144854
0.431968 0.826932 0.109697
0.712047 0.824659 0.0841993
0.904921 0.82089 0.108934
1 0.815549 0.147707
1 0.81062 0.192905
1 0.809369 0.233616
0.0823529 0.905226 0.200549
0.149538 0.922026 0.198016
0.251514 0.933471 0.179797
0.420951 0.935821 0.139498
0.662425 0.930465 0.0944533
0.88275 0.924422 0.0903029
1 0.917922 0.118318
1 0.909438 0.155535
1 0.902235 0.202869
0.100389 1 0.239002
0.164736 1 0.229038
0.261799 1 0.203815
0.416815 1 0.159594
0.617716 1 0.109743
0.841962 1 0.0803693
1 1 0.0943618
1 1 0.124269
1 0.99884 0.164752
0.0126802 0.0471199 0.21706
0.0982834 0.0370031 0.249165
0.234043 0.0208133 0.199649
0.377371 0.000549325 0.177279
0.521004 0 0.159945
0.6495 0 0.152743
0.75758 0 0.154467
0.859785 0 0.165225
0.96733 0 0.18204
0.0311284 0.106371 0.178271
0.0943313 0.104768 0.212787
0.241443 0.0893111 0.205035
0.39527 0.0797131 0.194965
0.556451 0.0785687 0.196292
0.706844 0.0911727 0.214984
0.828992 0.107424 0.232227
0.937438 0.124315 0.249592
1 0.141115 0.266621
0.0385138 0.194919 0.194614
0.118318 0.210697 0.21149
0.257481 0.216724 0.218433
0.421912 0.221698 0.218936
0.587182 0.230762 0.225971
0.73489 0.248112 0.242527
0.856168 0.268772 0.260044
0.964324 0.287953 0.275944
1 0.307012 0.291371
0.0430152 0.344335 0.228519
0.12517 0.363729 0.248447
0.253071 0.374533 0.242695
0.477806 0.369192 0.22707
0.630976 0.380453 0.26067
0.756115 0.406348 0.268742
0.873686 0.436286 0.291325
0.977676 0.456474 0.30399
1 0.473976 0.315908
0.0394903 0.491554 0.255695
0.11664 0.511467 0.264973
0.241321 0.527428 0.257893
0.439185 0.54638 0.200198
0.695659 0.537758 0.251057
0.826902 0.551293 0.314656
0.922408 0.58085 0.341512
1 0.602899 0.343496
1 0.618799 0.343481
0.0439918 0.639933 0.285542
0.117128 0.658045 0.286076
0.234333 0.672602 0.277028
0.403143 0.691752 0.232471
0.686839 0.701213 0.202686
0.862791 0.699916 0.286809
0.975387 0.705806 0.355596
1 0.71516 0.384283
1 0.727199 0.384817
0.0644083 0.779873 0.329915
0.134463 0.796582 0.32607
0.241932 0.805203 0.310338
0.395254 0.81442 0.268452
0.636118 0.827604 0.200763
0.865064 0.82739 0.232593
0.997177 0.820584 0.311818
1 0.814984 0.371588
1 0.815412 0.407416
0.0894636 0.903029 0.378607
0.155612 0.916747 0.370672
0.25626 0.921996 0.352026
0.398718 0.922606 0.308385
0.594491 0.927581 0.229404
0.832532 0.929335 0.193072
1 0.924041 0.251789
1 0.913314 0.324834
1 0.90544 0.384527
0.104692 1 0.417502
0.166857 1 0.405432
0.26154 1 0.383932
0.399405 1 0.339315
0.569879 1 0.262486
0.784726 1 0.187961
0.977539 1 0.197177
1 1 0.266072
1 1 0.338643
0 0.0427253 0.400122
0.0617838 0.0312505 0.448875
0.198077 0.0139162 0.412863
0.36199 0 0.360906
0.508904 0 0.341192
0.640284 0 0.335515
0.751568 0 0.340475
0.855848 0 0.353231
0.96553 0 0.372457
0 0.102876 0.335897
0.0611582 0.0978561 0.38703
0.188647 0.0852216 0.422415
0.38201 0.0728161 0.381994
0.549081 0.0734874 0.383581
0.70132 0.0860914 0.399741
0.826734 0.10457 0.421775
0.93518 0.12137 0.439078
1 0.138903 0.457298
0.00991836 0.195819 0.338567
0.0790417 0.211215 0.352392
0.193515 0.222034 0.403861
0.415381 0.217502 0.413474
0.583688 0.224598 0.416236
0.730846 0.239033 0.428687
0.856672 0.264256 0.457633
0.965927 0.284703 0.476631
1 0.303548 0.494285
0.0333867 0.352026 0.380835
0.117205 0.372061 0.401968
0.255512 0.378393 0.409415
0.41677 0.379324 0.410452
0.58291 0.385016 0.409918
0.731182 0.40296 0.42652
0.859159 0.432944 0.458579
0.970169 0.457938 0.482033
1 0.474296 0.494804
0.0406195 0.505501 0.415091
0.126436 0.52517 0.437064
0.264317 0.53051 0.442817
0.410834 0.539117 0.434623
0.634714 0.537499 0.423484
0.765423 0.554314 0.463233
0.86833 0.583871 0.476509
0.97203 0.611048 0.49778
1 0.624384 0.504509
0.0535286 0.654047 0.460166
0.132891 0.668925 0.472297
0.258366 0.673228 0.465721
0.402655 0.681285 0.452705
0.600732 0.697246 0.396109
0.81236 0.693355 0.451591
0.918334 0.704189 0.510201
1 0.724941 0.538781
1 0.738231 0.534859
0.0750896 0.788266 0.511757
0.146685 0.799603 0.512322
0.259373 0.800458 0.494087
0.398596 0.802396 0.47396
0.567056 0.813352 0.427085
0.807614 0.821637 0.404547
0.953216 0.818524 0.48603
1 0.818341 0.550942
1 0.822644 0.576364
0.0974594 0.90518 0.561135
0.163943 0.914488 0.554604
0.270085 0.913695 0.531731
0.400366 0.908049 0.50106
0.550454 0.909178 0.454215
0.762875 0.920577 0.389456
0.956985 0.924346 0.432013
1 0.915587 0.510323
1 0.908492 0.568429
0.110063 1 0.598535
0.172412 1 0.587549
0.272602 1 0.562737
0.400839 1 0.530037
0.542153 0.999847 0.481758
0.720119 1 0.406256
0.921843 1 0.38172
1 1 0.449073
1 1 0.524926
0 0.0381323 0.58204
0.0284428 0.0266575 0.627848
0.137743 0.0122683 0.631037
0.32961 0 0.568521
0.493416 0 0.52871
0.629541 0 0.51722
0.74342 0 0.522026
0.850614 0 0.537331
0.961898 0 0.558145
0 0.0975814 0.509102
0.0272831 0.0903487 0.560586
0.122194 0.0831769 0.612833
0.341726 0.0650187 0.58645
0.533196 0.0649882 0.563806
0.690211 0.0775158 0.577249
0.819699 0.0977188 0.602121
0.931395 0.117067 0.623804
1 0.135439 0.642222
0 0.191379 0.473991
0.0343175 0.198917 0.498634
0.132372 0.211872 0.572595
0.359045 0.206973 0.622721
0.571984 0.215015 0.603998
0.726574 0.23154 0.615702
0.852918 0.25687 0.638239
0.965072 0.28101 0.663127
1 0.300908 0.680797
0.00935378 0.353292 0.52932
0.0853437 0.371145 0.545312
0.18175 0.38172 0.55407
0.347875 0.380575 0.592065
0.574319 0.379355 0.604334
0.729168 0.397177 0.616587
0.855268 0.423484 0.638712
0.96997 0.452934 0.672831
1 0.470222 0.688869
0.0299229 0.513146 0.568414
0.115938 0.535256 0.591699
0.254795 0.543023 0.600427
0.414771 0.544167 0.602319
0.576394 0.544289 0.601862
0.722652 0.553903 0.602914
0.845853 0.576944 0.624155
0.956771 0.605783 0.656901
1 0.623682 0.673945
0.0519265 0.66627 0.612955
0.137575 0.684932 0.633356
0.277607 0.686992 0.637354
0.426657 0.684596 0.635203
0.571084 0.687938 0.62446
0.762753 0.688014 0.616388
0.867475 0.703777 0.65243
0.957046 0.726253 0.661158
1 0.743938 0.677913
0.0805219 0.800641 0.668254
0.159899 0.812589 0.680797
0.286061 0.807172 0.672236
0.421149 0.801236 0.656611
0.562341 0.801511 0.639872
0.735424 0.812924 0.589975
0.906691 0.810697 0.641291
1 0.816541 0.687465
1 0.831449 0.711574
0.104952 0.913817 0.71812
0.175982 0.920256 0.721691
0.290425 0.91194 0.704005
0.415778 0.901183 0.676509
0.551095 0.895903 0.651942
0.701854 0.903212 0.60972
0.901869 0.916716 0.598627
1 0.913268 0.671031
1 0.912902 0.723888
0.116991 1 0.75227
0.181491 1 0.750546
0.289372 1 0.729061
0.413687 0.994659 0.698787
0.542458 0.984695 0.667002
0.679973 0.985397 0.624933
0.857252 1 0.576486
1 1 0.624521
1 1 0.69366
0 0.0349432 0.731273
7.62951e-05 0.0258183 0.768063
0.0910201 0.0139925 0.786068
0.282261 0 0.743999
0.467597 0 0.695506
0.617929 0 0.672068
0.737331 0 0.674556
0.846693 0 0.689097
0.956344 0 0.705852
0 0.0948653 0.672328
0 0.0868238 0.712489
0.0814069 0.0808576 0.755291
0.272282 0.0632486 0.75668
0.500954 0.0596475 0.731914
0.678569 0.0721294 0.73106
0.811612 0.0910811 0.748852
0.925353 0.111376 0.769345
1 0.131975 0.790433
0 0.189868 0.614206
0 0.189792 0.647776
0.0886702 0.197772 0.713146
0.272557 0.198398 0.771252
0.53312 0.20209 0.770718
0.71603 0.219898 0.765087
0.84744 0.245365 0.784039
0.962524 0.273274 0.808988
1 0.297154 0.829923
0 0.350729 0.649271
0.0375219 0.357504 0.655589
0.109728 0.364279 0.677928
0.267124 0.366583 0.730236
0.515206 0.364324 0.77142
0.719738 0.38613 0.769574
0.852552 0.414832 0.789807
0.967453 0.446067 0.815579
1 0.467674 0.835325
0.0105745 0.517281 0.696605
0.0901198 0.536965 0.716045
0.196735 0.547021 0.724971
0.336767 0.544335 0.721233
0.507103 0.543618 0.750896
0.717739 0.548562 0.765972
0.844297 0.571176 0.780285
0.953124 0.596201 0.79794
1 0.619257 0.821942
0.0441749 0.67483 0.740261
0.12781 0.695201 0.761501
0.263279 0.699931 0.766873
0.41976 0.697688 0.765209
0.576196 0.693645 0.761639
0.714992 0.692439 0.759838
0.832013 0.702144 0.762921
0.936522 0.719783 0.779217
1 0.738659 0.802182
0.0834669 0.811276 0.785855
0.159792 0.82536 0.804608
0.2963 0.822446 0.802945
0.443687 0.814145 0.795926
0.586694 0.804608 0.786587
0.709621 0.804105 0.775433
0.862745 0.805142 0.770871
0.95494 0.816663 0.795102
1 0.833432 0.802396
0.114443 0.924483 0.827939
0.1832 0.931334 0.84329
0.311757 0.921874 0.83444
0.443488 0.907073 0.817655
0.574426 0.894926 0.798138
0.698024 0.893126 0.782712
0.838529 0.907012 0.749462
0.996307 0.906859 0.789853
1 0.912169 0.821942
0.124758 1 0.862959
0.192294 1 0.870558
0.312398 1 0.856367
0.436103 0.994324 0.833768
0.559503 0.979492 0.806378
0.681575 0.974258 0.785794
0.805737 0.986542 0.757702
0.990356 1 0.757961
1 1 0.815167
0 0.0350195 0.845914
0 0.0273136 0.879973
0.0591897 0.0164034 0.902586
0.223514 0 0.883131
0.430869 0 0.833249
0.600214 0 0.801266
0.731136 0 0.796139
0.844968 0 0.809827
0.957412 0 0.828382
0 0.0946822 0.797803
0 0.0886854 0.832486
0.0554513 0.0835584 0.87068
0.203265 0.0724956 0.888655
0.44979 0.0591745 0.868803
0.656916 0.0691386 0.859205
0.80322 0.087541 0.866972
0.920729 0.107851 0.88542
1 0.129137 0.905257
0 0.194034 0.73753
0 0.194095 0.775876
0.0593423 0.195972 0.829755
0.197208 0.198932 0.886
0.456809 0.192004 0.902586
0.689845 0.207889 0.894713
0.840955 0.235248 0.903243
0.959365 0.263493 0.924102
1 0.290318 0.944976
0 0.350011 0.746456
0 0.351781 0.759716
0.067628 0.349294 0.78761
0.187289 0.353994 0.840391
0.418509 0.348348 0.882948
0.683146 0.366659 0.893645
0.843702 0.400916 0.902693
0.963134 0.433112 0.927306
1 0.459831 0.948806
0 0.518166 0.788937
0.050721 0.530358 0.801068
0.118074 0.532128 0.805844
0.22948 0.52517 0.813993
0.417823 0.524056 0.852445
0.66453 0.528069 0.890867
0.837018 0.558816 0.897276
0.951553 0.587884 0.91693
1 0.613123 0.934966
0.028687 0.680949 0.839643
0.1075 0.69987 0.858564
0.216373 0.706996 0.86566
0.360861 0.700984 0.858976
0.497032 0.692714 0.850431
0.654856 0.689036 0.870771
0.826658 0.6963 0.885664
0.933684 0.714382 0.894865
1 0.733364 0.913634
0.0739452 0.818982 0.886809
0.150256 0.834394 0.904295
0.279973 0.833936 0.904402
0.431128 0.825879 0.896757
0.581827 0.816083 0.887602
0.714885 0.809277 0.881468
0.823636 0.808118 0.879316
0.923278 0.815259 0.878782
1 0.828779 0.895323
0.105303 0.932128 0.926909
0.178424 0.941207 0.939269
0.310582 0.933333 0.932357
0.454856 0.920668 0.920623
0.597482 0.907012 0.907988
0.719631 0.897505 0.89865
0.817868 0.899351 0.891325
0.953719 0.902266 0.889799
1 0.912779 0.913741
0.129198 1 0.949691
0.193729 1 0.96492
0.323644 1 0.954437
0.45951 1 0.938949
0.589059 0.986984 0.91989
0.703792 0.976196 0.902693
0.804456 0.978912 0.892882
0.928908 0.998276 0.870359
1 1 0.906935
0 0.0383917 0.955322
0 0.0291295 0.987915
0.0321355 0.0182193 1
0.158145 0.000381476 1
0.379355 0 0.970245
0.573831 0 0.929564
0.719005 0 0.915984
0.839643 0 0.920638
0.945891 0 0.919051
0 0.099443 0.90573
0 0.0925002 0.940658
0.0323644 0.087953 0.979629
0.146319 0.0841382 1
0.385382 0.0662242 1
0.621942 0.0676738 0.986038
0.787503 0.0847028 0.984115
0.913512 0.105211 0.994797
1 0.126619 1
0 0.2009 0.842039
0 0.202335 0.883879
0.0361181 0.205936 0.93846
0.151553 0.210788 0.997635
0.381491 0.197879 1
0.642115 0.198825 1
0.824231 0.225635 1
0.954055 0.255192 1
1 0.282261 1
0 0.353079 0.835264
0 0.354757 0.857969
0.040116 0.353857 0.894057
0.137697 0.353689 0.943664
0.337163 0.34226 0.98436
0.606119 0.343847 1
0.819486 0.381552 1
0.954894 0.418692 1
1 0.446662 1
0 0.518517 0.866011
0.00619516 0.524575 0.875303
0.0698405 0.520836 0.884871
0.151568 0.511269 0.906081
0.329381 0.503243 0.942733
0.568017 0.501915 0.986587
0.805798 0.533745 1
0.942184 0.571176 1
1 0.597696 1
0.00263981 0.683848 0.921599
0.0757305 0.698085 0.935302
0.148608 0.704082 0.941054
0.251713 0.688579 0.928328
0.380133 0.670863 0.923903
0.566705 0.666423 0.955322
0.780438 0.673259 0.99472
0.924636 0.701457 1
1 0.721965 1
0.0575875 0.824552 0.977783
0.13254 0.839261 0.992676
0.240269 0.842222 0.995529
0.383001 0.83151 0.984421
0.522118 0.818402 0.970016
0.644572 0.806119 0.956619
0.773053 0.802045 0.975906
0.916365 0.809079 0.992172
1 0.822766 1
0.0942245 0.938094 1
0.166888 0.947829 1
0.291341 0.942702 1
0.438346 0.930404 1
0.58555 0.916976 1
0.716182 0.907637 0.992264
0.822522 0.904387 0.98967
0.916884 0.904234 0.985626
1 0.910445 0.987472
0.111803 1 1
0.184833 1 1
0.315053 1 1
0.45864 1 1
0.601205 1 1
0.725032 0.990097 1
0.823514 0.985504 1
0.909438 0.990188 0.999191
1 0.996063 1
0 0.0408179 1
0 0.0308385 1
0.0055848 0.0203861 1
0.106172 0.00862135 1
0.318105 0 1
0.535409 0 1
0.70074 0 1
0.8309 0 1
0.951354 0 1
0 0.102907 1
0 0.0960861 1
0.00874342 0.0926833 1
0.108949 0.0931563 1
0.320607 0.0779583 1
0.571633 0.0704051 1
0.763455 0.0817731 1
0.900496 0.102922 1
1 0.124926 1
0 0.208972 0.944839
0 0.211719 0.991196
0.0125582 0.216022 1
0.12018 0.222202 1
0.317845 0.211063 1
0.577218 0.19968 1
0.7944 0.215839 1
0.940963 0.247044 1
1 0.275471 1
0 0.358953 0.926787
0 0.361395 0.95761
0.0143893 0.362356 1
0.109621 0.364675 1
0.278782 0.355489 1
0.52784 0.343877 1
0.776181 0.362844 1
0.937118 0.403784 1
1 0.435187 1
0 0.519387 0.94287
0 0.523064 0.955947
0.0347295 0.521111 0.975738
0.114305 0.516487 1
0.260563 0.502495 1
0.479652 0.488487 1
0.737057 0.49955 1
0.918364 0.547219 1
1 0.580682 1
0 0.684184 0.999329
0.0353094 0.693797 1
0.0962081 0.695094 1
0.163424 0.682689 1
0.286549 0.655009 1
0.470268 0.642069 1
0.695308 0.641276 1
0.892699 0.674891 1
1 0.704616 1
0.0345617 0.827451 1
0.105318 0.839445 1
0.181521 0.844953 1
0.297948 0.831647 1
0.405463 0.808042 1
0.527703 0.785412 1
0.694896 0.777584 1
0.870207 0.785748 1
1 0.809018 1
0.0793317 0.942214 1
0.149477 0.951873 1
0.254368 0.950286 1
0.396643 0.936797 1
0.536934 0.921187 1
0.662928 0.906798 1
0.762448 0.896422 1
0.867887 0.895491 1
1 0.903349 1
0.101381 1 1
0.171969 1 1
0.293431 1 1
0.438636 1 1
0.584985 1 1
0.715038 0.999573 1
0.821195 0.996048 1
0.914366 0.996063 1
1 0.99704 1
