luts/stills/KA Warm.cube
TITLE "Generated by Resolve"
LUT_3D_SIZE 33
0.0597238 0.0413672 0.0191653
0.074403 0.041474 0.0189059
0.0895247 0.0418097 0.0188754
0.10573 0.0420539 0.0187686
0.124056 0.0415656 0.0179294
0.146456 0.0399176 0.0159457
0.174578 0.0365911 0.012314
0.20824 0.0315251 0.00682078
0.244083 0.0255589 0
0.27863 0.0195926 0
0.312154 0.014374 0
0.347143 0.00996414 0
0.383566 0.00581369 0
0.419684 0.00149538 0
0.455329 0 0
0.490547 0 0
0.524819 0 0
0.558038 0 0
0.589899 0 0
0.620493 0 0
0.649668 0 0
0.67718 0 0
0.703319 0 0
0.728832 0 0
0.753796 0 0
0.778424 0 0
0.802594 0 0
0.826703 0 0
0.851621 0 0
0.876722 0 0
0.902235 0 0
0.9281 0 0
0.954742 0 0
0.0596017 0.0569924 0.0217594
0.0799573 0.0559243 0.0196689
0.0943313 0.05626 0.0220798
0.108202 0.0568856 0.020798
0.125841 0.0563668 0.0191501
0.148226 0.05449 0.0163577
0.176898 0.05066 0.0115358
0.211139 0.0450294 0.00463874
0.24712 0.038407 0
0.281453 0.0323186 0
0.314824 0.0274662 0
0.349233 0.0236057 0
0.385183 0.0204929 0
0.42182 0.0172274 0
0.458106 0.0133364 0
0.493919 0.00927749 0
0.528817 0.00555428 0
0.562509 0.00224308 0
0.594858 0 0
0.626123 0 0
0.656016 0 0
0.684596 0 0
0.711955 0 0
0.738277 0 0
0.764233 0 0
0.790143 0 0
0.815961 0.00238041 0
0.841856 0.0056611 0
0.867582 0.00900282 0
0.893736 0.0126955 0
0.920501 0.0168612 0
0.947784 0.0212711 0
0.975433 0.0256657 0
0.0597848 0.0723583 0.0246586
0.0767071 0.0726177 0.0173648
0.100832 0.069749 0.0197299
0.119402 0.0683604 0.0231327
0.137026 0.067689 0.0211643
0.159213 0.0656596 0.0162356
0.188296 0.0612192 0.00892653
0.221271 0.0554055 0.000991836
0.255482 0.0496223 0
0.287785 0.0446174 0
0.320623 0.0404364 0
0.355444 0.0372015 0
0.391363 0.0350042 0
0.427817 0.033051 0
0.464515 0.0307317 0
0.500786 0.0276951 0
0.53637 0.0247349 0
0.570779 0.022446 0
0.604181 0.0209812 0
0.636286 0.0201419 0
0.666911 0.0197604 0
0.696376 0.0203708 0
0.724971 0.022034 0
0.752834 0.0243992 0
0.779965 0.0271153 0
0.806729 0.0302434 0
0.833844 0.0341955 0
0.860807 0.0386053 0
0.887709 0.043183 0
0.914641 0.047776 0
0.941772 0.0523995 0
0.96939 0.0569772 0
0.997162 0.0616007 0.00164797
0.0595407 0.0871595 0.0271153
0.0740063 0.0880446 0.0214542
0.0990616 0.0860761 0.0147097
0.125109 0.0825818 0.0191958
0.150683 0.0794385 0.0221256
0.177127 0.0768139 0.0209201
0.204929 0.07393 0.0160525
0.235508 0.0700236 0.00895705
0.267491 0.0653086 0.00105287
0.299046 0.0608835 0
0.331533 0.0567636 0
0.366201 0.0535897 0
0.402274 0.0518196 0
0.438651 0.0506447 0
0.475898 0.0496986 0
0.512871 0.0485389 0
0.548989 0.0471504 0
0.583947 0.046067 0
0.618326 0.0460059 0
0.651408 0.0467079 0
0.683146 0.048127 0
0.71339 0.0500954 0
0.742687 0.0527657 0
0.771496 0.0562295 0
0.799725 0.0603342 0
0.827482 0.0646982 0
0.855009 0.0693675 0
0.882277 0.0742199 0.00144961
0.909407 0.0789654 0.00579843
0.936446 0.0838026 0.0102388
0.963638 0.0885786 0.0146334
0.990951 0.0931106 0.0187991
1 0.097322 0.0226596
0.0585031 0.102296 0.0287785
0.0724193 0.103395 0.0242771
0.0930953 0.103441 0.0147555
0.124498 0.0996719 0.0135042
0.157977 0.0947738 0.0172885
0.193469 0.0895399 0.0187076
0.228565 0.0850538 0.0174868
0.259998 0.0822614 0.0147555
0.28896 0.0804456 0.0108339
0.318639 0.078233 0.00556954
0.35024 0.0754559 0
0.383978 0.0732128 0
0.419806 0.0721752 0
0.456092 0.0720531 0
0.493126 0.0721752 0
0.530343 0.0726024 0
0.567147 0.0733806 0
0.602823 0.0743267 0
0.637583 0.0755779 0
0.670817 0.0775006 0
0.702998 0.0803082 0
0.734173 0.0837262 0
0.763958 0.0875868 0.00166323
0.792798 0.0917525 0.00517281
0.820951 0.0961929 0.00898756
0.848905 0.100984 0.0131533
0.876356 0.105959 0.0175784
0.903365 0.110719 0.0218967
0.929992 0.115358 0.0259709
0.95639 0.119753 0.0298161
0.982971 0.123903 0.0334173
1 0.127977 0.0369726
1 0.132052 0.040528
0.0561074 0.118746 0.0290532
0.0701152 0.120241 0.0254978
0.0876783 0.121614 0.0170901
0.117891 0.119722 0.0100404
0.158556 0.114046 0.0115358
0.202579 0.10724 0.0137026
0.245472 0.100999 0.014725
0.28278 0.0971389 0.015259
0.315847 0.0955367 0.0150149
0.34725 0.0952163 0.0137179
0.378607 0.0952468 0.0115969
0.411048 0.0955062 0.00906386
0.445487 0.0962692 0.00740063
0.481361 0.0978103 0.00679026
0.517708 0.0994888 0.0065156
0.554299 0.101167 0.00650034
0.590616 0.103593 0.00717174
0.62623 0.106477 0.00846876
0.660655 0.109346 0.0099031
0.693446 0.112459 0.0117189
0.725048 0.115953 0.0141451
0.75552 0.11986 0.0169375
0.784741 0.124147 0.0201419
0.813123 0.128664 0.023621
0.840894 0.133227 0.0271763
0.868086 0.138048 0.0310521
0.894392 0.142412 0.0345006
0.920363 0.146731 0.0379187
0.946548 0.150973 0.041474
0.972641 0.155337 0.0450599
0.998978 0.159747 0.0486458
1 0.164126 0.0522316
1 0.168475 0.0558175
0.0514992 0.137392 0.0270848
0.0655375 0.139605 0.0240635
0.0819715 0.142061 0.0173342
0.107866 0.142641 0.00849927
0.150668 0.138293 0.00602731
0.204379 0.130632 0.00781262
0.255467 0.123781 0.0106661
0.299168 0.119249 0.0138705
0.338872 0.11664 0.0163272
0.376013 0.115846 0.0177005
0.411093 0.116487 0.0175174
0.444541 0.118013 0.0162356
0.477897 0.120134 0.0153811
0.51223 0.123735 0.0160983
0.547707 0.128435 0.0185092
0.582864 0.133089 0.0205692
0.617456 0.137331 0.0222171
0.651667 0.14136 0.0239567
0.684184 0.145205 0.0254826
0.715648 0.149004 0.0272068
0.745724 0.153124 0.0294194
0.774655 0.157336 0.0318151
0.802563 0.161486 0.0343938
0.829526 0.165667 0.0371099
0.856016 0.16997 0.0398718
0.8822 0.17464 0.0430915
0.907942 0.179187 0.0462501
0.933776 0.183825 0.049546
0.959487 0.18854 0.0529641
0.985351 0.193225 0.0563973
1 0.197818 0.0600443
1 0.202365 0.0634318
1 0.207324 0.0672313
0.0439918 0.159289 0.0220951
0.0580301 0.162249 0.019501
0.07393 0.166079 0.0140688
0.0970779 0.169451 0.00631724
0.137545 0.168338 0.00111391
0.196872 0.161349 0.00120546
0.258412 0.15375 0.00483711
0.309392 0.14931 0.0104067
0.355734 0.146242 0.0153048
0.398856 0.144503 0.0185702
0.438437 0.144457 0.020325
0.474723 0.14612 0.0212863
0.510475 0.149294 0.0228428
0.545541 0.154131 0.0254063
0.579995 0.160128 0.0291295
0.613092 0.166461 0.0320897
0.645487 0.172183 0.0343481
0.676616 0.177356 0.0358282
0.706279 0.181918 0.0369421
0.735286 0.185824 0.0381933
0.762936 0.189883 0.0394141
0.789746 0.194141 0.0410315
0.816129 0.19855 0.0429847
0.841993 0.20325 0.0453651
0.867796 0.208331 0.0482643
0.893492 0.213123 0.0513161
0.918685 0.218082 0.0542916
0.943984 0.223072 0.0574197
0.969406 0.228122 0.0606546
0.995026 0.233158 0.0639963
1 0.238117 0.0672923
1 0.242969 0.0705577
1 0.248188 0.0745556
0.0341039 0.185611 0.0148318
0.0493019 0.189853 0.0135958
0.0652476 0.194781 0.00929274
0.0865492 0.200168 0.00283818
0.122683 0.203418 0
0.183108 0.199451 0
0.254307 0.191501 0
0.314183 0.18616 0.00407416
0.366522 0.182605 0.0103609
0.413504 0.180529 0.0153201
0.456535 0.180056 0.0192111
0.496773 0.181155 0.0224918
0.535546 0.183886 0.0259861
0.573312 0.188251 0.0304723
0.6094 0.19408 0.0354772
0.641917 0.200641 0.0397192
0.672023 0.206622 0.0424048
0.699886 0.212146 0.0433509
0.727047 0.21706 0.0441138
0.753063 0.221836 0.0446937
0.7785 0.226795 0.045716
0.80383 0.2318 0.0473335
0.829068 0.236805 0.0493782
0.853758 0.242023 0.0514992
0.878828 0.247623 0.0542153
0.90341 0.252979 0.057145
0.928176 0.25835 0.0599985
0.953048 0.263661 0.0631723
0.978225 0.268925 0.066331
1 0.27422 0.0695048
1 0.279408 0.0726635
1 0.284581 0.0759136
1 0.289982 0.0794537
0.0242771 0.21561 0.00759899
0.0404822 0.221134 0.00737011
0.0578927 0.227741 0.00547799
0.0788281 0.234821 0.000869764
0.110399 0.240986 0
0.165835 0.242084 0
0.241093 0.236942 0
0.309972 0.231495 0
0.370474 0.227817 0.00680552
0.424536 0.22472 0.013962
0.473335 0.222751 0.0197299
0.517327 0.222385 0.0244144
0.557931 0.223575 0.0286259
0.59617 0.226108 0.0330205
0.632303 0.23003 0.0378729
0.665812 0.235111 0.0429847
0.695796 0.240864 0.0468299
0.722881 0.246845 0.0490425
0.748669 0.252506 0.0507668
0.772778 0.258091 0.0517739
0.796597 0.263706 0.0529335
0.820523 0.269337 0.054612
0.844144 0.27512 0.0563363
0.867811 0.281193 0.0587167
0.891936 0.286946 0.0613107
0.915908 0.292638 0.06392
0.939818 0.29839 0.0666361
0.964126 0.304036 0.0694591
0.988602 0.309636 0.0724041
1 0.315053 0.0754101
1 0.320378 0.0787823
1 0.325856 0.0820325
1 0.331106 0.0851911
0.0180362 0.249241 0.00395209
0.0352483 0.255451 0.00476081
0.0535134 0.263264 0.00436408
0.0751202 0.271733 0.00216678
0.104555 0.280034 0
0.153262 0.284627 0
0.227131 0.282063 0
0.301671 0.277623 0
0.368612 0.273487 0.00164797
0.428855 0.269795 0.00920119
0.482704 0.266743 0.0164645
0.531289 0.264698 0.0228885
0.575326 0.264027 0.0283818
0.615305 0.265049 0.0333562
0.652476 0.267765 0.0392309
0.686931 0.271946 0.0453346
0.717861 0.277073 0.0504768
0.745754 0.282658 0.0544747
0.771038 0.288533 0.0573892
0.794766 0.294377 0.059556
0.818051 0.300267 0.0618143
0.840589 0.306416 0.0637522
0.86334 0.31284 0.0659648
0.886198 0.319112 0.0683452
0.90901 0.325261 0.0706798
0.931914 0.331365 0.073167
0.955123 0.337377 0.0757916
0.978958 0.343145 0.0786297
1 0.348913 0.0813001
1 0.354528 0.0839857
1 0.359945 0.086656
1 0.365682 0.0899062
1 0.370947 0.0928511
0.0160678 0.285145 0.00453193
0.0344396 0.292531 0.00654612
0.053315 0.300786 0.00723278
0.0743877 0.309895 0.00576791
0.102022 0.319097 0.00273136
0.144396 0.32607 0
0.212497 0.326009 0
0.290303 0.321813 0
0.362051 0.317006 0
0.427909 0.312413 0.00314336
0.487007 0.308827 0.0108644
0.539971 0.306462 0.0187533
0.58822 0.305333 0.0265049
0.631662 0.30576 0.0337224
0.671122 0.30753 0.0411536
0.706874 0.310628 0.0483406
0.738933 0.314839 0.0547036
0.767422 0.319875 0.0599527
0.793561 0.325231 0.0643015
0.817533 0.330938 0.0676127
0.840543 0.336934 0.0706951
0.862638 0.343282 0.0733043
0.884672 0.349844 0.0758679
0.906584 0.356481 0.0784314
0.928161 0.362997 0.0806592
0.950088 0.369406 0.0828565
0.972564 0.375601 0.0853132
0.995193 0.38172 0.0876936
1 0.387655 0.0899062
1 0.393332 0.0923018
1 0.399069 0.0950942
1 0.4047 0.0975967
1 0.410086 0.100084
0.0156252 0.322957 0.00634775
0.0340276 0.330434 0.00872816
0.0527962 0.338933 0.00956741
0.0736248 0.348196 0.00892653
0.0990921 0.357763 0.00611887
0.136385 0.365438 0.00125124
0.196811 0.367636 0
0.274372 0.364401 0
0.349935 0.360586 0
0.422004 0.356069 0
0.486976 0.352148 0.00468452
0.544808 0.349218 0.0129702
0.595712 0.347478 0.0213321
0.641062 0.347127 0.0293736
0.682536 0.348119 0.0375067
0.720211 0.35053 0.0460517
0.754269 0.354162 0.054551
0.784878 0.358648 0.0621347
0.812573 0.363516 0.0685588
0.837812 0.36875 0.0736553
0.861448 0.374456 0.0778821
0.88394 0.380743 0.0813916
0.905852 0.38732 0.0846418
0.927245 0.393805 0.0874952
0.948486 0.400305 0.0899062
0.969604 0.40679 0.0920729
0.991135 0.413123 0.0942397
1 0.419409 0.0962387
1 0.425437 0.0982528
1 0.431403 0.100542
1 0.437217 0.10251
1 0.442786 0.104509
1 0.448127 0.106798
0.0150607 0.361929 0.00851453
0.0337682 0.369207 0.0110475
0.0520943 0.377401 0.0118105
0.0716411 0.386175 0.0107271
0.0954604 0.395102 0.00787366
0.128649 0.403189 0.00271611
0.182025 0.40763 0
0.257572 0.406943 0
0.334615 0.404379 0
0.411582 0.400473 0
0.482597 0.396445 0
0.545312 0.393118 0.0065919
0.599832 0.390951 0.0153811
0.647562 0.390005 0.0239567
0.690547 0.390417 0.0331273
0.730037 0.392203 0.0425269
0.765835 0.395178 0.0525978
0.798428 0.398917 0.0618753
0.827863 0.403098 0.0699474
0.854658 0.407767 0.0766766
0.879499 0.41297 0.0822461
0.903365 0.418845 0.0875715
0.925628 0.424811 0.0915541
0.947082 0.431052 0.0947585
0.968139 0.437415 0.0975357
0.989273 0.443702 0.100191
1 0.449912 0.102296
1 0.456107 0.103944
1 0.461997 0.105776
1 0.468116 0.107576
1 0.474037 0.109407
1 0.4795 0.111131
1 0.484901 0.112612
0.0135348 0.400107 0.00959792
0.0314488 0.406744 0.0111391
0.0493324 0.414267 0.011902
0.068513 0.422736 0.0110018
0.0911269 0.431983 0.00852979
0.122484 0.440848 0.00440986
0.170428 0.447211 0
0.240803 0.448493 0
0.31931 0.447822 0
0.398856 0.444587 0
0.474784 0.440604 0
0.541894 0.437156 0.000106813
0.60029 0.434745 0.00891127
0.651041 0.43357 0.0181888
0.695644 0.433616 0.0277104
0.736645 0.43476 0.0379339
0.774121 0.43714 0.0486305
0.808591 0.440192 0.0592966
0.839796 0.443656 0.0689403
0.868238 0.447623 0.0772106
0.894499 0.452186 0.0842908
0.919463 0.457404 0.0905623
0.942809 0.462776 0.0956588
0.965164 0.468345 0.0999924
0.986938 0.474098 0.103609
1 0.480079 0.106371
1 0.486061 0.10869
1 0.49189 0.110506
1 0.497749 0.112566
1 0.503777 0.114061
1 0.509468 0.115404
1 0.5149 0.116793
1 0.52018 0.117952
0.0111086 0.437583 0.0099031
0.029221 0.444205 0.0114443
0.0471199 0.451774 0.012253
0.0662852 0.460288 0.0118257
0.0885634 0.46952 0.00996414
0.117617 0.478874 0.00631724
0.161288 0.485939 0.000274662
0.226184 0.489525 0
0.301564 0.49041 0
0.382147 0.489418 0
0.461463 0.486198 0
0.534844 0.482872 0
0.598749 0.48014 0.00350958
0.653758 0.478401 0.0130922
0.700923 0.477913 0.0229343
0.742657 0.478355 0.033341
0.780789 0.47982 0.0440375
0.81622 0.482033 0.0551919
0.848615 0.484871 0.0657359
0.878477 0.488197 0.0753185
0.906554 0.492088 0.0837262
0.93254 0.496269 0.0910201
0.957183 0.500862 0.097322
0.980911 0.505669 0.102678
1 0.510735 0.107027
1 0.515953 0.110613
1 0.521294 0.113298
1 0.526787 0.115831
1 0.532631 0.117922
1 0.538079 0.11931
1 0.543313 0.12079
1 0.548714 0.121691
1 0.553887 0.122515
0.00950637 0.475929 0.0107881
0.027451 0.482246 0.0123293
0.045655 0.489555 0.0132143
0.0646067 0.497993 0.013138
0.0865339 0.50721 0.011841
0.114366 0.516655 0.00888075
0.154589 0.524804 0.00354009
0.213977 0.52932 0
0.286976 0.531838 0
0.364935 0.532296 0
0.446662 0.530617 0
0.524025 0.527596 0
0.593027 0.525139 0
0.652873 0.523247 0.00767529
0.703914 0.522271 0.0181125
0.747677 0.522225 0.0286564
0.786526 0.522759 0.0395209
0.822263 0.524056 0.0503548
0.855283 0.526131 0.061265
0.886412 0.528618 0.0715496
0.915724 0.531807 0.0811475
0.942992 0.535088 0.0893111
0.968872 0.538766 0.0964981
0.993805 0.542794 0.102708
1 0.547097 0.10808
1 0.551431 0.112215
1 0.555962 0.116121
1 0.560937 0.11902
1 0.566217 0.121492
1 0.571206 0.123323
1 0.57612 0.12462
1 0.581033 0.125505
1 0.585824 0.126284
0.00907912 0.514519 0.0129244
0.027451 0.521096 0.0146944
0.0456397 0.528542 0.015671
0.0646982 0.536614 0.0160983
0.0860304 0.545617 0.0149996
0.11281 0.554894 0.012726
0.149676 0.563073 0.00773632
0.204669 0.568719 0.000396735
0.274006 0.57171 0
0.349508 0.573892 0
0.430808 0.573083 0
0.511116 0.570947 0
0.583993 0.568353 0
0.648066 0.566461 0.00210575
0.702937 0.565301 0.012253
0.749844 0.564965 0.0230259
0.790707 0.565209 0.0343481
0.827176 0.565835 0.0454414
0.860624 0.567025 0.0559548
0.892561 0.568841 0.0667124
0.922683 0.571054 0.0768292
0.95111 0.573541 0.0858167
0.978256 0.576318 0.0937667
1 0.579385 0.100786
1 0.582757 0.106889
1 0.586358 0.112032
1 0.590311 0.116487
1 0.594598 0.12015
1 0.598795 0.12311
1 0.603159 0.125536
1 0.60763 0.127138
1 0.612055 0.128191
1 0.616312 0.129061
0.0100557 0.553552 0.0166323
0.0284581 0.55993 0.0185092
0.0465858 0.567208 0.0195926
0.0654765 0.575311 0.0197604
0.0868696 0.583932 0.0193332
0.11249 0.593042 0.0171359
0.147311 0.601328 0.0132906
0.19765 0.607217 0.00598154
0.263691 0.610941 0
0.335592 0.61355 0
0.415351 0.614145 0
0.496666 0.612314 0
0.573144 0.609995 0
0.640818 0.607919 0
0.698985 0.606195 0.00633249
0.748425 0.605493 0.0166323
0.791257 0.605509 0.0277867
0.829419 0.605997 0.0391241
0.864225 0.607019 0.0501259
0.896773 0.608103 0.060853
0.927687 0.609445 0.0711528
0.957031 0.611231 0.0808118
0.985138 0.613306 0.0891432
1 0.615488 0.096788
1 0.617807 0.10341
1 0.6206 0.109407
1 0.623697 0.114641
1 0.627161 0.119402
1 0.630564 0.12282
1 0.634089 0.125719
1 0.637873 0.127901
1 0.641718 0.129519
1 0.645487 0.130587
0.0117952 0.592111 0.0212863
0.0302892 0.598474 0.023209
0.0486 0.605585 0.0247807
0.0677958 0.613764 0.0254673
0.0885939 0.622263 0.0251164
0.113497 0.630777 0.023209
0.146456 0.639078 0.0193637
0.193576 0.645304 0.0128939
0.25565 0.649165 0.00411994
0.324315 0.652201 0
0.400763 0.653117 0
0.482124 0.652216 0
0.560601 0.649714 0
0.631449 0.647517 0
0.693385 0.645792 0.00158694
0.745754 0.644923 0.0113069
0.790585 0.644633 0.0217594
0.830274 0.644831 0.0328985
0.866392 0.645487 0.0438849
0.899931 0.646159 0.05449
0.931472 0.646815 0.0648508
0.961379 0.647837 0.0746166
0.990585 0.649073 0.0835737
1 0.650477 0.0917067
1 0.652018 0.0989395
1 0.65388 0.10547
1 0.656245 0.111421
1 0.658793 0.116487
1 0.661433 0.120653
1 0.664179 0.124086
1 0.667048 0.126802
1 0.670024 0.129168
1 0.673259 0.130663
0.0151217 0.630243 0.0272221
0.0339666 0.636851 0.0296788
0.0520943 0.643931 0.0312047
0.0711528 0.65156 0.0320745
0.091722 0.659831 0.0316777
0.115938 0.668299 0.0303197
0.147662 0.676219 0.0269627
0.191257 0.682231 0.0204623
0.24976 0.686107 0.0118257
0.315312 0.689509 0.00357061
0.388586 0.690944 0
0.468193 0.690013 0
0.548165 0.68806 0
0.621439 0.685512 0
0.686015 0.68336 0
0.741192 0.682277 0.00630198
0.788312 0.681941 0.016144
0.829801 0.68191 0.0268559
0.867384 0.682155 0.0376135
0.902052 0.682536 0.0483406
0.934371 0.682826 0.0584726
0.96492 0.683177 0.0680858
0.994751 0.683589 0.0772412
1 0.684184 0.0856641
1 0.685039 0.0933242
1 0.686305 0.100359
1 0.687663 0.10663
1 0.689204 0.112123
1 0.691035 0.116915
1 0.693049 0.12108
1 0.695201 0.124376
1 0.697505 0.127108
1 0.700008 0.129137
0.0199435 0.668101 0.0347448
0.0385595 0.674281 0.0368811
0.056733 0.681178 0.038468
0.0755169 0.68867 0.0391852
0.0962234 0.69662 0.0390021
0.120272 0.704814 0.0376593
0.151095 0.712352 0.0343938
0.192508 0.718364 0.0284733
0.247166 0.72221 0.0203861
0.309041 0.725063 0.0113985
0.378195 0.727138 0.00357061
0.454826 0.726833 0
0.534203 0.724666 0
0.609659 0.722301 0
0.677531 0.720058 0
0.735424 0.718181 0.00250248
0.785107 0.717479 0.0112306
0.828519 0.717205 0.0213169
0.867475 0.717067 0.031754
0.903151 0.717067 0.0420081
0.936553 0.717037 0.0521859
0.96788 0.71696 0.0614633
0.998093 0.716731 0.0706645
1 0.716442 0.078996
1 0.716594 0.0869154
1 0.717174 0.0940261
1 0.717922 0.100725
1 0.718669 0.10663
1 0.719676 0.111879
1 0.720958 0.116503
1 0.722454 0.120516
1 0.724071 0.12398
1 0.725826 0.126864
0.0255131 0.704845 0.0428321
0.0440681 0.710903 0.0450446
0.0625467 0.717601 0.0469062
0.081529 0.72517 0.0479438
0.10193 0.73283 0.0475319
0.125856 0.74052 0.0462196
0.155367 0.747723 0.0429541
0.194858 0.753063 0.0372625
0.246281 0.75668 0.0290837
0.30547 0.759518 0.0204623
0.370184 0.761456 0.0117189
0.44361 0.761639 0.0037995
0.521324 0.759869 0
0.597726 0.757076 0
0.66746 0.754604 0
0.728847 0.752712 0.000488289
0.780713 0.751263 0.00753796
0.826062 0.750668 0.0164797
0.866651 0.750256 0.0263371
0.903487 0.749859 0.0361028
0.937667 0.749371 0.0459144
0.970001 0.748837 0.0552682
1 0.748196 0.0638895
1 0.747372 0.0722362
1 0.746929 0.080354
1 0.746838 0.0875868
1 0.746822 0.0944533
1 0.74699 0.100771
1 0.747341 0.10634
1 0.747906 0.111406
1 0.748745 0.115953
1 0.749783 0.120089
1 0.751186 0.123674
0.0327459 0.740902 0.0525063
0.0512551 0.746838 0.0544747
0.0695811 0.753338 0.0559091
0.0885176 0.760342 0.0567178
0.108827 0.767697 0.0563363
0.13193 0.775006 0.0547646
0.160616 0.781613 0.0520638
0.198047 0.786984 0.0468299
0.246937 0.790311 0.0391089
0.302861 0.79234 0.0296788
0.364431 0.794537 0.0209354
0.433951 0.794629 0.0116884
0.509636 0.793118 0.00392157
0.586007 0.790311 0
0.657511 0.787366 0
0.72079 0.78497 0
0.775509 0.783536 0.005066
0.822583 0.782345 0.0124208
0.864698 0.781445 0.0212406
0.902831 0.780804 0.0305486
0.93814 0.77998 0.0399786
0.971466 0.779004 0.0490578
1 0.777996 0.0575723
1 0.776806 0.0656901
1 0.776013 0.0739147
1 0.775219 0.0812085
1 0.774594 0.0881819
1 0.774212 0.0946365
1 0.77406 0.100679
1 0.774075 0.106203
1 0.774289 0.111162
1 0.774762 0.115694
1 0.775586 0.119875
0.0402075 0.775662 0.062562
0.0585641 0.781353 0.0646067
0.0766766 0.787549 0.0660105
0.0951247 0.794217 0.0665904
0.115282 0.801129 0.0662699
0.137942 0.808148 0.0646372
0.165621 0.81445 0.0617227
0.20206 0.819226 0.0563363
0.247257 0.8224 0.0491035
0.302068 0.824369 0.039704
0.359747 0.825925 0.0300145
0.426291 0.826291 0.0203555
0.498955 0.824613 0.0109102
0.574014 0.821942 0.00378424
0.646479 0.818662 0
0.71162 0.815885 0
0.768444 0.813642 0.00300603
0.8177 0.812375 0.0091249
0.861311 0.811231 0.0169223
0.900771 0.809964 0.0253452
0.937331 0.808972 0.0342107
0.971908 0.807767 0.043061
1 0.806424 0.0513924
1 0.80499 0.0593118
1 0.803784 0.0674449
1 0.802579 0.0750439
1 0.80148 0.0821088
1 0.80058 0.0887617
1 0.799939 0.0949416
1 0.799527 0.100771
1 0.799313 0.106081
1 0.79939 0.110994
1 0.799664 0.115724
0.0478065 0.809323 0.0728161
0.0660258 0.81471 0.0747082
0.0841688 0.82092 0.0766003
0.102205 0.827192 0.0773785
0.121309 0.833677 0.0771038
0.14316 0.840146 0.075639
0.169772 0.846235 0.0724346
0.204456 0.850843 0.0673381
0.249088 0.853468 0.0591745
0.30132 0.854749 0.0493324
0.356619 0.856397 0.0396429
0.419287 0.856291 0.0289311
0.489128 0.854948 0.0186618
0.562417 0.851911 0.00947585
0.634699 0.848508 0.00331121
0.701793 0.845136 0.000671397
0.760357 0.842664 0.00205997
0.811246 0.840772 0.00624094
0.856672 0.839475 0.0128786
0.897871 0.838148 0.0206149
0.935729 0.836896 0.0288396
0.971405 0.835447 0.0373388
1 0.833982 0.0456092
1 0.832197 0.0535744
1 0.830579 0.0612497
1 0.829068 0.0687724
1 0.827604 0.0760662
1 0.826291 0.0829633
1 0.825223 0.0892653
1 0.824414 0.0952316
1 0.823774 0.100908
1 0.823529 0.106371
1 0.82327 0.111315
0.0561074 0.842268 0.0834974
0.07393 0.847364 0.0851759
0.0913558 0.852918 0.0864576
0.109255 0.858793 0.0872358
0.127947 0.864973 0.0870222
0.148959 0.871031 0.0855421
0.174273 0.876524 0.0824445
0.206943 0.880873 0.0773327
0.24947 0.883421 0.0694743
0.299947 0.88452 0.0592966
0.353384 0.885252 0.0487831
0.413336 0.885435 0.0377203
0.480034 0.883543 0.0261387
0.551217 0.880735 0.0157778
0.622782 0.87689 0.00741588
0.690486 0.87335 0.00268559
0.751034 0.870314 0.00170901
0.803891 0.868299 0.00436408
0.850706 0.866514 0.00926223
0.893492 0.865095 0.016083
0.932631 0.863706 0.0236515
0.96965 0.862089 0.0317235
1 0.860304 0.039765
1 0.858427 0.0475471
1 0.85658 0.0553445
1 0.854856 0.062562
1 0.853101 0.0700542
1 0.851484 0.0771344
1 0.850065 0.0836194
1 0.848875 0.0897841
1 0.847898 0.0957809
1 0.847242 0.101518
1 0.846647 0.106813
0.063798 0.873716 0.0936446
0.0813306 0.87863 0.0950942
0.0985275 0.883864 0.0961471
0.116045 0.88954 0.0967269
0.13463 0.895323 0.0965591
0.155261 0.901091 0.0948653
0.18024 0.90631 0.0912795
0.213062 0.910063 0.0852827
0.254932 0.911788 0.0763256
